P3
160 160
255
0 0 44
0 0 44
0 0 44
0 0 44
0 0 44
0 0 44
0 0 44
0 0 44
0 0 44
0 0 44
0 0 44
0 0 44
0 0 44
0 0 44
0 0 44
0 0 44
0 0 44
0 0 44
0 0 44
0 0 44
0 0 44
0 0 44
0 0 44
0 0 44
0 0 44
0 0 44
0 0 44
0 0 44
0 0 44
0 0 44
0 0 44
0 0 44
0 0 44
0 0 44
0 0 44
0 0 44
0 0 44
0 0 44
0 0 44
0 0 44
0 0 44
0 0 44
0 0 44
0 0 44
0 0 44
0 0 44
0 0 44
0 0 44
0 0 44
0 0 44
0 0 44
0 0 44
0 0 44
0 0 44
0 0 44
0 0 44
0 0 44
0 0 44
0 0 44
0 0 44
0 0 44
0 0 44
0 0 44
0 0 44
0 0 44
0 0 44
0 0 44
0 0 44
0 0 44
0 0 44
0 0 44
0 0 44
0 0 44
0 0 44
0 0 44
0 0 44
0 0 44
0 0 44
0 0 44
0 0 44
0 0 44
0 0 44
0 0 44
0 0 44
0 0 44
0 0 44
0 0 44
0 0 44
0 0 44
0 0 44
0 0 44
0 0 44
0 0 44
0 0 44
0 0 44
0 0 44
0 0 44
0 0 44
0 0 44
0 0 44
0 0 44
0 0 44
0 0 44
0 0 44
0 0 44
0 0 44
0 0 44
0 0 44
0 0 44
0 0 44
0 0 44
0 0 44
0 0 44
0 0 44
0 0 44
0 0 44
0 0 44
0 0 44
0 0 44
0 0 44
0 0 44
0 0 44
0 0 44
0 0 44
0 0 44
0 0 44
0 0 44
0 0 44
0 0 44
0 0 44
0 0 44
0 0 44
0 0 44
0 0 44
0 0 44
0 0 44
0 0 44
0 0 44
0 0 44
0 0 44
0 0 44
0 0 44
0 0 44
0 0 44
0 0 44
0 0 44
0 0 44
0 0 44
0 0 44
0 0 44
0 0 44
0 0 44
0 0 44
0 0 44
0 0 44
0 0 44
0 0 44
0 0 44
0 0 44
0 0 44
0 0 44
0 0 44
0 0 44
0 0 44
0 0 44
0 0 44
0 0 44
0 0 44
0 0 44
0 0 44
0 0 44
0 0 44
0 0 44
0 0 44
0 0 44
0 0 44
0 0 44
0 0 44
0 0 44
0 0 44
0 0 44
0 0 44
0 0 44
0 0 44
0 0 44
0 0 44
0 0 44
0 0 44
0 0 44
0 0 44
0 0 44
0 0 44
0 0 44
0 0 44
0 0 44
0 0 44
0 0 44
0 0 44
0 0 44
0 0 44
0 0 44
0 0 44
0 0 44
0 0 44
0 0 44
0 0 44
0 0 44
0 0 44
0 0 44
0 0 44
0 0 44
0 0 44
0 0 44
0 0 44
0 0 44
0 0 44
0 0 44
0 0 44
0 0 44
0 0 44
0 0 44
0 0 44
0 0 44
0 0 44
0 0 44
0 0 44
0 0 44
0 0 44
0 0 44
0 0 44
0 0 44
0 0 44
0 0 44
0 0 44
0 0 44
0 0 44
0 0 44
0 0 44
0 0 44
0 0 44
0 0 44
0 0 44
0 0 44
0 0 44
0 0 44
0 0 44
0 0 44
0 0 44
0 0 44
0 0 44
0 0 44
0 0 44
0 0 44
0 0 44
0 0 44
0 0 44
0 0 44
0 0 44
0 0 44
0 0 44
0 0 44
0 0 44
0 0 44
0 0 44
0 0 44
0 0 44
0 0 44
0 0 44
0 0 44
0 0 44
0 0 44
0 0 44
0 0 44
0 0 44
0 0 44
0 0 44
0 0 44
0 0 44
0 0 44
0 0 44
0 0 44
0 0 44
0 0 44
0 0 44
0 0 44
0 0 44
0 0 44
0 0 44
0 0 44
0 0 44
0 0 44
0 0 44
0 0 44
0 0 44
0 0 44
0 0 44
0 0 44
0 0 44
0 0 44
0 0 44
0 0 44
0 0 44
0 0 44
0 0 44
0 0 44
0 0 44
0 0 44
0 0 44
0 0 44
0 0 44
0 0 44
0 0 44
0 0 44
0 0 44
0 0 44
0 0 44
0 0 44
0 0 44
0 0 44
0 0 44
0 0 44
0 0 44
0 0 44
0 0 44
0 0 44
0 0 44
0 0 44
0 0 44
0 0 44
0 0 44
0 0 44
0 0 44
0 0 44
0 0 44
0 0 44
0 0 44
0 0 44
0 0 44
0 0 44
0 0 44
0 0 44
0 0 44
0 0 44
0 0 44
0 0 44
0 0 44
0 0 44
0 0 44
0 0 44
0 0 44
0 0 44
0 0 44
0 0 44
0 0 44
0 0 44
0 0 44
0 0 44
0 0 44
0 0 44
0 0 44
0 0 44
0 0 44
0 0 44
0 0 44
0 0 44
0 0 44
0 0 44
0 0 44
0 0 44
0 0 44
0 0 44
0 0 44
0 0 44
0 0 44
0 0 44
0 0 44
0 0 44
0 0 44
0 0 44
0 0 44
0 0 44
0 0 44
0 0 44
0 0 44
0 0 44
0 0 44
0 0 44
0 0 44
0 0 44
0 0 44
0 0 44
0 0 44
0 0 44
0 0 44
0 0 44
0 0 44
0 0 44
0 0 44
0 0 44
0 0 44
0 0 44
0 0 44
0 0 44
0 0 44
0 0 44
0 0 44
0 0 44
0 0 44
0 0 44
0 0 44
0 0 44
0 0 44
0 0 44
0 0 44
0 0 44
0 0 44
0 0 44
0 0 44
0 0 44
0 0 44
0 0 44
0 0 44
0 0 44
0 0 44
0 0 44
0 0 44
0 0 44
0 0 44
0 0 44
0 0 44
0 0 44
0 0 44
0 0 44
0 0 44
0 0 44
0 0 44
0 0 44
0 0 44
0 0 44
0 0 44
0 0 44
0 0 44
0 0 44
0 0 44
0 0 44
0 0 44
0 0 44
0 0 44
0 0 44
0 0 44
0 0 44
0 0 44
0 0 44
0 0 44
0 0 44
0 0 44
0 0 44
0 0 44
0 0 44
0 0 44
0 0 44
0 0 44
0 0 44
0 0 44
0 0 44
0 0 44
0 0 44
0 0 44
0 0 44
0 0 44
0 0 44
0 0 44
0 0 44
0 0 44
0 0 44
0 0 44
0 0 44
0 0 44
0 0 44
0 0 44
0 0 44
0 0 44
0 0 44
0 0 44
0 0 44
0 0 44
0 0 44
0 0 44
0 0 44
0 0 44
0 0 44
0 0 44
0 0 44
0 0 44
0 0 44
0 0 44
0 0 44
0 0 44
0 0 44
0 0 44
0 0 44
0 0 44
0 0 44
0 0 44
0 0 44
0 0 44
0 0 44
0 0 44
0 0 44
0 0 44
0 0 44
0 0 44
0 0 44
0 0 44
0 0 44
0 0 44
0 0 44
0 0 44
0 0 44
0 0 44
0 0 44
0 0 44
0 0 44
0 0 44
0 0 44
0 0 44
0 0 44
0 0 44
0 0 44
0 0 44
0 0 44
0 0 44
0 0 44
0 0 44
0 0 44
0 0 44
0 0 44
0 0 44
0 0 44
0 0 44
0 0 44
0 0 44
0 0 44
0 0 44
0 0 44
0 0 44
0 0 44
0 0 44
0 0 44
0 0 44
0 0 44
0 0 44
0 0 44
0 0 44
0 0 44
0 0 44
0 0 44
0 0 44
0 0 44
0 0 44
0 0 44
0 0 44
0 0 44
0 0 44
0 0 44
0 0 44
0 0 44
0 0 44
0 0 44
0 0 44
0 0 44
0 0 44
0 0 44
0 0 44
0 0 44
0 0 44
0 0 44
0 0 44
0 0 44
0 0 44
0 0 44
0 0 44
0 0 44
0 0 44
0 0 44
0 0 44
0 0 44
0 0 44
0 0 44
0 0 44
0 0 44
0 0 44
0 0 44
0 0 44
0 0 44
0 0 44
0 0 44
0 0 44
0 0 44
0 0 44
0 0 44
0 0 44
0 0 44
0 0 44
0 0 44
0 0 44
0 0 44
0 0 44
0 0 44
0 0 44
0 0 44
0 0 44
0 0 44
0 0 44
0 0 44
0 0 44
0 0 44
0 0 44
0 0 44
0 0 44
0 0 44
0 0 44
0 0 44
0 0 44
0 0 44
0 0 44
0 0 44
0 0 44
0 0 44
0 0 44
0 0 44
0 0 44
0 0 44
0 0 44
0 0 44
0 0 44
0 0 44
0 0 44
0 0 44
0 0 44
0 0 44
0 0 44
0 0 44
0 0 44
0 0 44
0 0 44
0 0 44
0 0 44
0 0 44
0 0 44
0 0 44
0 0 44
0 0 44
0 0 44
0 0 44
0 0 44
0 0 44
0 0 44
0 0 44
0 0 44
0 0 44
0 0 44
0 0 44
0 0 44
0 0 44
0 0 44
0 0 44
0 0 44
0 0 44
0 0 44
0 0 44
0 0 44
0 0 44
0 0 44
0 0 44
0 0 44
0 0 44
0 0 44
0 0 44
0 0 44
0 0 44
0 0 44
0 0 44
0 0 44
0 0 44
0 0 44
0 0 44
0 0 44
0 0 44
0 0 44
0 0 44
0 0 44
0 0 44
0 0 44
0 0 44
0 0 44
0 0 44
0 0 44
0 0 44
0 0 44
0 0 44
0 0 44
0 0 44
0 0 44
0 0 44
0 0 44
0 0 44
0 0 44
0 0 44
0 0 44
0 0 44
0 0 44
0 0 44
0 0 44
0 0 44
0 0 44
0 0 44
0 0 44
0 0 44
0 0 44
0 0 44
0 0 44
0 0 44
0 0 44
0 0 44
0 0 44
0 0 44
0 0 44
0 0 44
0 0 44
0 0 44
0 0 44
0 0 44
0 0 44
0 0 44
0 0 44
0 0 44
0 0 44
0 0 44
0 0 44
0 0 44
0 0 44
0 0 44
0 0 44
0 0 44
0 0 44
0 0 44
0 0 44
0 0 44
0 0 44
0 0 44
0 0 44
0 0 44
0 0 44
0 0 44
0 0 44
0 0 44
0 0 44
0 0 44
0 0 44
0 0 44
0 0 44
0 0 44
0 0 44
0 0 44
0 0 44
0 0 44
0 0 44
0 0 44
0 0 44
0 0 44
0 0 44
0 0 44
0 0 44
0 0 44
0 0 44
0 0 44
0 0 44
0 0 44
0 0 44
0 0 44
0 0 44
0 0 44
0 0 44
0 0 44
0 0 44
0 0 44
0 0 44
0 0 44
0 0 44
0 0 44
0 0 44
0 0 44
0 0 44
0 0 44
0 0 44
0 0 44
0 0 44
0 0 44
0 0 44
0 0 44
0 0 44
0 0 44
0 0 44
0 0 44
0 0 44
0 0 44
0 0 44
0 0 44
0 0 44
0 0 44
0 0 44
0 0 44
0 0 44
0 0 44
0 0 44
0 0 44
0 0 44
0 0 44
0 0 44
0 0 44
0 0 44
0 0 44
0 0 44
0 0 44
0 0 44
0 0 44
0 0 44
0 0 44
0 0 44
0 0 44
0 0 44
0 0 44
0 0 44
0 0 44
0 0 44
0 0 44
0 0 44
0 0 44
0 0 44
0 0 44
0 0 44
0 0 44
0 0 44
0 0 44
0 0 44
0 0 44
0 0 44
0 0 44
0 0 44
0 0 44
0 0 44
0 0 44
0 0 44
0 0 44
0 0 44
0 0 44
0 0 44
0 0 44
0 0 44
0 0 44
0 0 44
0 0 44
0 0 44
0 0 44
0 0 44
0 0 44
0 0 44
0 0 44
0 0 44
0 0 44
0 0 44
0 0 44
0 0 44
0 0 44
0 0 44
0 0 44
0 0 44
0 0 44
0 0 44
0 0 44
0 0 44
0 0 44
0 0 44
0 0 44
0 0 44
0 0 44
0 0 44
0 0 44
0 0 44
0 0 44
0 0 44
0 0 44
0 0 44
0 0 44
0 0 44
0 0 44
0 0 44
0 0 44
0 0 44
0 0 44
0 0 44
0 0 44
0 0 44
0 0 44
0 0 44
0 0 44
0 0 44
0 0 44
0 0 44
0 0 44
0 0 44
0 0 44
0 0 44
0 0 44
0 0 44
0 0 44
0 0 44
0 0 44
0 0 44
0 0 44
0 0 44
0 0 44
0 0 44
0 0 44
0 0 44
0 0 44
0 0 44
0 0 44
0 0 44
0 0 44
0 0 44
0 0 44
0 0 44
0 0 44
0 0 44
0 0 44
0 0 44
0 0 44
0 0 44
0 0 44
0 0 44
0 0 44
0 0 44
0 0 44
0 0 44
0 0 44
0 0 44
0 0 44
0 0 44
0 0 44
0 0 44
0 0 44
0 0 44
0 0 44
0 0 44
0 0 44
0 0 44
0 0 44
0 0 44
0 0 44
0 0 44
0 0 44
0 0 44
0 0 44
0 0 44
0 0 44
0 0 44
0 0 44
0 0 44
0 0 44
0 0 44
0 0 44
0 0 44
0 0 44
0 0 44
0 0 44
0 0 44
0 0 44
0 0 44
0 0 44
0 0 44
0 0 44
0 0 44
0 0 44
0 0 44
0 0 44
0 0 44
0 0 44
0 0 44
0 0 44
0 0 44
0 0 44
0 0 44
0 0 44
0 0 44
0 0 44
0 0 44
0 0 44
0 0 44
0 0 44
0 0 44
0 0 44
0 0 44
0 0 44
0 0 44
0 0 44
0 0 44
0 0 44
0 0 44
0 0 44
0 0 44
0 0 44
0 0 44
0 0 44
0 0 44
0 0 44
0 0 44
0 0 44
0 0 44
0 0 44
0 0 44
0 0 44
0 0 44
0 0 44
0 0 44
0 0 44
0 0 44
0 0 44
0 0 44
0 0 44
0 0 44
0 0 44
0 0 44
0 0 44
0 0 44
0 0 44
0 0 44
0 0 44
0 0 44
0 0 44
0 0 44
0 0 44
0 0 44
0 0 44
0 0 44
0 0 44
0 0 44
0 0 44
0 0 44
0 0 44
0 0 44
0 0 44
0 0 44
0 0 44
0 0 44
0 0 44
0 0 44
0 0 44
0 0 44
0 0 44
0 0 44
0 0 44
0 0 44
0 0 44
0 0 44
0 0 44
0 0 44
0 0 44
0 0 44
0 0 44
0 0 44
0 0 44
0 0 44
0 0 44
0 0 44
0 0 44
0 0 44
0 0 44
0 0 44
0 0 44
0 0 44
0 0 44
0 0 44
0 0 44
0 0 44
0 0 44
0 0 44
0 0 44
0 0 44
0 0 44
0 0 44
0 0 44
0 0 44
0 0 44
0 0 44
0 0 44
0 0 44
0 0 44
0 0 44
0 0 44
0 0 44
0 0 44
0 0 44
0 0 44
0 0 44
0 0 44
0 0 44
0 0 44
0 0 44
0 0 44
0 0 44
0 0 44
0 0 44
0 0 44
0 0 44
0 0 44
0 0 44
0 0 44
0 0 44
0 0 44
0 0 44
0 0 44
0 0 44
0 0 44
0 0 44
0 0 44
0 0 44
0 0 44
0 0 44
0 0 44
0 0 44
0 0 44
0 0 44
0 0 44
0 0 44
0 0 44
0 0 44
0 0 44
0 0 44
0 0 44
0 0 44
0 0 44
0 0 44
0 0 44
0 0 44
0 0 44
0 0 44
0 0 44
0 0 44
0 0 44
0 0 44
0 0 44
0 0 44
0 0 44
0 0 44
0 0 44
0 0 44
0 0 44
0 0 44
0 0 44
0 0 44
0 0 44
0 0 44
0 0 44
0 0 44
0 0 44
0 0 44
0 0 44
0 0 44
0 0 44
0 0 44
0 0 44
0 0 44
0 0 44
0 0 44
0 0 44
0 0 44
0 0 44
0 0 44
0 0 44
0 0 44
0 0 44
0 0 44
0 0 44
0 0 44
0 0 44
0 0 44
0 0 44
0 0 44
0 0 44
0 0 44
0 0 44
0 0 44
0 0 44
0 0 44
0 0 44
0 0 44
0 0 44
0 0 44
0 0 44
0 0 44
0 0 44
0 0 44
0 0 44
0 0 44
0 0 44
0 0 44
0 0 44
0 0 44
0 0 44
0 0 44
0 0 44
0 0 44
0 0 44
0 0 44
0 0 44
0 0 44
0 0 44
0 0 44
0 0 44
0 0 44
0 0 44
0 0 44
0 0 44
0 0 44
0 0 44
0 0 44
0 0 44
0 0 44
0 0 44
0 0 44
0 0 44
0 0 44
0 0 44
0 0 44
0 0 44
0 0 44
0 0 44
0 0 44
0 0 44
0 0 44
0 0 44
0 0 44
0 0 44
0 0 44
0 0 44
0 0 44
0 0 44
0 0 44
0 0 44
0 0 44
0 0 44
0 0 44
0 0 44
0 0 44
0 0 44
0 0 44
0 0 44
0 0 44
0 0 44
0 0 44
0 0 44
0 0 44
0 0 44
0 0 44
0 0 44
0 0 44
0 0 44
0 0 44
0 0 44
0 0 44
0 0 44
0 0 44
0 0 44
0 0 44
0 0 44
0 0 44
0 0 44
0 0 44
0 0 44
0 0 44
0 0 44
0 0 44
0 0 44
0 0 44
0 0 44
0 0 44
0 0 44
0 0 44
0 0 44
0 0 44
0 0 44
0 0 44
0 0 44
0 0 44
0 0 44
0 0 44
0 0 44
0 0 44
0 0 44
0 0 44
0 0 44
0 0 44
0 0 44
0 0 44
0 0 44
0 0 44
0 0 44
0 0 44
0 0 44
0 0 44
0 0 44
0 0 44
0 0 44
0 0 44
0 0 44
0 0 44
0 0 44
0 0 44
0 0 44
0 0 44
0 0 44
0 0 44
0 0 44
0 0 44
0 0 44
0 0 44
0 0 44
0 0 44
0 0 44
0 0 44
0 0 44
0 0 44
0 0 44
0 0 44
0 0 44
0 0 44
0 0 44
0 0 44
0 0 44
0 0 44
0 0 44
0 0 44
0 0 44
0 0 44
0 0 44
0 0 44
0 0 44
0 0 44
0 0 44
0 0 44
0 0 44
0 0 44
0 0 44
0 0 44
0 0 44
0 0 44
0 0 44
0 0 44
0 0 44
0 0 44
0 0 44
0 0 44
0 0 44
0 0 44
0 0 44
0 0 44
0 0 44
0 0 44
0 0 44
0 0 44
0 0 44
0 0 44
0 0 44
0 0 44
0 0 44
0 0 44
0 0 44
0 0 44
0 0 44
0 0 44
0 0 44
0 0 44
0 0 44
0 0 44
0 0 44
0 0 44
0 0 44
0 0 44
0 0 44
0 0 44
0 0 44
0 0 44
0 0 44
0 0 44
0 0 44
0 0 44
0 0 44
0 0 44
0 0 44
0 0 44
0 0 44
0 0 44
0 0 44
0 0 44
0 0 44
0 0 44
0 0 44
0 0 44
0 0 44
0 0 44
0 0 44
0 0 44
0 0 44
0 0 44
0 0 44
0 0 44
0 0 44
0 0 44
0 0 44
0 0 44
0 0 44
0 0 44
0 0 44
0 0 44
0 0 44
0 0 44
0 0 44
0 0 44
0 0 44
0 0 44
0 0 44
0 0 44
0 0 44
0 0 44
0 0 44
0 0 44
0 0 44
0 0 44
0 0 44
0 0 44
0 0 44
0 0 44
0 0 44
0 0 44
0 0 44
0 0 44
0 0 44
0 0 44
0 0 44
0 0 44
0 0 44
0 0 44
0 0 44
0 0 44
0 0 44
0 0 44
0 0 44
0 0 44
0 0 44
0 0 44
0 0 44
0 0 44
0 0 44
0 0 44
0 0 44
0 0 44
0 0 44
0 0 44
0 0 44
0 0 44
0 0 44
0 0 44
0 0 44
0 0 44
0 0 44
0 0 44
0 0 44
0 0 44
0 0 44
0 0 44
0 0 44
0 0 44
0 0 44
0 0 44
0 0 44
0 0 44
0 0 44
0 0 44
0 0 44
0 0 44
0 0 44
0 0 44
0 0 44
0 0 44
0 0 44
0 0 44
0 0 44
0 0 44
0 0 44
0 0 44
0 0 44
0 0 44
0 0 44
0 0 44
0 0 44
0 0 44
0 0 44
0 0 44
0 0 44
0 0 44
0 0 44
0 0 44
0 0 44
0 0 44
0 0 44
0 0 44
0 0 44
0 0 44
0 0 44
0 0 44
0 0 44
0 0 44
0 0 44
0 0 44
0 0 44
0 0 44
0 0 44
0 0 44
0 0 44
0 0 44
0 0 44
0 0 44
0 0 44
0 0 44
0 0 44
0 0 44
0 0 44
0 0 44
0 0 44
0 0 44
0 0 44
0 0 44
0 0 44
0 0 44
0 0 44
0 0 44
0 0 44
0 0 44
0 0 44
0 0 44
0 0 44
0 0 44
0 0 44
0 0 44
0 0 44
0 0 44
0 0 44
0 0 44
0 0 44
0 0 44
0 0 44
0 0 44
0 0 44
0 0 44
0 0 44
0 0 44
0 0 44
0 0 44
0 0 44
0 0 44
0 0 44
0 0 44
0 0 44
0 0 44
0 0 44
0 0 44
0 0 44
0 0 44
0 0 44
0 0 44
0 0 44
0 0 44
0 0 44
0 0 44
0 0 44
0 0 44
0 0 44
0 0 44
0 0 44
0 0 44
0 0 44
0 0 44
0 0 44
0 0 44
0 0 44
0 0 44
0 0 44
0 0 44
0 0 44
0 0 44
0 0 44
0 0 44
0 0 44
0 0 44
0 0 44
0 0 44
0 0 44
0 0 44
0 0 44
0 0 44
0 0 44
0 0 44
0 0 44
0 0 44
0 0 44
0 0 44
0 0 44
0 0 44
0 0 44
0 0 44
0 0 44
0 0 44
0 0 44
0 0 44
0 0 44
0 0 44
0 0 44
0 0 44
0 0 44
0 0 44
0 0 44
0 0 44
0 0 44
0 0 44
0 0 44
0 0 44
0 0 44
0 0 44
0 0 44
0 0 44
0 0 44
0 0 44
0 0 44
0 0 44
0 0 44
0 0 44
0 0 44
0 0 44
0 0 44
0 0 44
0 0 44
0 0 44
0 0 44
0 0 44
0 0 44
0 0 44
0 0 44
0 0 44
0 0 44
0 0 44
0 0 44
0 0 44
0 0 44
0 0 44
0 0 44
0 0 44
0 0 44
0 0 44
0 0 44
0 0 44
0 0 44
0 0 44
0 0 44
0 0 44
0 0 44
0 0 44
0 0 44
0 0 44
0 0 44
0 0 44
0 0 44
0 0 44
0 0 44
0 0 44
0 0 44
0 0 44
0 0 44
0 0 44
0 0 44
0 0 44
0 0 44
0 0 44
0 0 44
0 0 44
0 0 44
0 0 44
0 0 44
0 0 44
0 0 44
0 0 44
0 0 44
0 0 44
0 0 44
0 0 44
0 0 44
0 0 44
0 0 44
0 0 44
0 0 44
0 0 44
0 0 44
0 0 44
0 0 44
0 0 44
0 0 44
0 0 44
0 0 44
0 0 44
0 0 44
0 0 44
0 0 44
0 0 44
0 0 44
0 0 44
0 0 44
0 0 44
0 0 44
0 0 44
0 0 44
0 0 44
0 0 44
0 0 44
0 0 44
0 0 44
0 0 44
0 0 44
0 0 44
0 0 44
0 0 44
0 0 44
0 0 44
0 0 44
0 0 44
0 0 44
0 0 44
0 0 44
0 0 44
0 0 44
0 0 44
0 0 44
0 0 44
0 0 44
0 0 44
0 0 44
0 0 44
0 0 44
0 0 44
0 0 44
0 0 44
0 0 44
0 0 44
0 0 44
0 0 44
0 0 44
0 0 44
0 0 44
0 0 44
0 0 44
0 0 44
0 0 44
0 0 44
0 0 44
0 0 44
0 0 44
0 0 44
0 0 44
0 0 44
0 0 44
0 0 44
0 0 44
0 0 44
0 0 44
0 0 44
0 0 44
0 0 44
0 0 44
0 0 44
0 0 44
0 0 44
0 0 44
0 0 44
0 0 44
0 0 44
0 0 44
0 0 44
0 0 44
0 0 44
0 0 44
0 0 44
0 0 44
0 0 44
0 0 44
0 0 44
0 0 44
0 0 44
0 0 44
0 0 44
0 0 44
0 0 44
0 0 44
0 0 44
0 0 44
0 0 44
0 0 44
0 0 44
0 0 44
0 0 44
0 0 44
0 0 44
0 0 44
0 0 44
0 0 44
0 0 44
0 0 44
0 0 44
0 0 44
0 0 44
0 0 44
0 0 44
0 0 44
0 0 44
0 0 44
0 0 44
0 0 44
0 0 44
0 0 44
0 0 44
0 0 44
0 0 44
0 0 44
0 0 44
0 0 44
0 0 44
0 0 44
0 0 44
0 0 44
0 0 44
0 0 44
0 0 44
0 0 44
0 0 44
0 0 44
0 0 44
0 0 44
0 0 44
0 0 44
0 0 44
0 0 44
0 0 44
0 0 44
0 0 44
0 0 44
0 0 44
0 0 44
0 0 44
0 0 44
0 0 44
0 0 44
0 0 44
0 0 44
0 0 44
0 0 44
0 0 44
0 0 44
0 0 44
0 0 44
0 0 44
0 0 44
0 0 44
0 0 44
0 0 44
0 0 44
0 0 44
0 0 44
0 0 44
0 0 44
0 0 44
0 0 44
0 0 44
0 0 44
0 0 44
0 0 44
0 0 44
0 0 44
0 0 44
0 0 44
0 0 44
0 0 44
0 0 44
0 0 44
0 0 44
0 0 44
0 0 44
0 0 44
0 0 44
0 0 44
0 0 44
0 0 44
0 0 44
0 0 44
0 0 44
0 0 44
0 0 44
0 0 44
0 0 44
0 0 44
0 0 44
0 0 44
0 0 44
0 0 44
0 0 44
0 0 44
0 0 44
0 0 44
0 0 44
0 0 44
0 0 44
0 0 44
0 0 44
0 0 44
0 0 44
0 0 44
0 0 44
0 0 44
0 0 44
0 0 44
0 0 44
0 0 44
0 0 44
0 0 44
0 0 44
0 0 44
0 0 44
0 0 44
0 0 44
0 0 44
0 0 44
0 0 44
0 0 44
0 0 44
0 0 44
0 0 44
0 0 44
0 0 44
0 0 44
0 0 44
0 0 44
0 0 44
0 0 44
0 0 44
0 0 44
0 0 44
0 0 44
0 0 44
0 0 44
0 0 44
0 0 44
0 0 44
0 0 44
0 0 44
0 0 44
0 0 44
0 0 44
0 0 44
0 0 44
0 0 44
0 0 44
0 0 44
0 0 44
0 0 44
0 0 44
0 0 44
0 0 44
0 0 44
0 0 44
0 0 44
0 0 44
0 0 44
0 0 44
0 0 44
0 0 44
0 0 44
0 0 44
0 0 44
0 0 44
0 0 44
0 0 44
0 0 44
0 0 44
0 0 44
0 0 44
0 0 44
0 0 44
0 0 44
0 0 44
0 0 44
0 0 44
0 0 44
0 0 44
0 0 44
0 0 44
0 0 44
0 0 44
0 0 44
0 0 44
0 0 44
0 0 44
0 0 44
0 0 44
0 0 44
0 0 44
0 0 44
0 0 44
0 0 44
0 0 44
0 0 44
0 0 44
0 0 44
0 0 44
0 0 44
0 0 44
0 0 44
0 0 44
0 0 44
0 0 44
0 0 44
0 0 44
0 0 44
0 0 44
0 0 44
0 0 44
0 0 44
0 0 44
0 0 44
0 0 44
0 0 44
0 0 44
0 0 44
0 0 44
0 0 44
0 0 44
0 0 44
0 0 44
0 0 44
0 0 44
0 0 44
0 0 44
0 0 44
0 0 44
0 0 44
0 0 44
0 0 44
0 0 44
0 0 44
0 0 44
0 0 44
0 0 44
0 0 44
0 0 44
0 0 44
0 0 44
0 0 44
0 0 44
0 0 44
0 0 44
0 0 44
0 0 44
0 0 44
0 0 44
0 0 44
0 0 44
0 0 44
0 0 44
0 0 44
0 0 44
0 0 44
0 0 44
0 0 44
0 0 44
0 0 44
0 0 44
0 0 44
0 0 44
0 0 44
0 0 44
0 0 44
0 0 44
0 0 44
0 0 44
0 0 44
0 0 44
0 0 44
0 0 44
0 0 44
0 0 44
0 0 44
0 0 44
0 0 44
0 0 44
0 0 44
0 0 44
0 0 44
0 0 44
0 0 44
0 0 44
0 0 44
0 0 44
0 0 44
0 0 44
0 0 44
0 0 44
0 0 44
0 0 44
0 0 44
0 0 44
0 0 44
0 0 44
0 0 44
0 0 44
0 0 44
0 0 44
0 0 44
0 0 44
0 0 44
0 0 44
0 0 44
0 0 44
0 0 44
0 0 44
0 0 44
0 0 44
0 0 44
0 0 44
0 0 44
0 0 44
0 0 44
0 0 44
0 0 44
0 0 44
0 0 44
0 0 44
0 0 44
0 0 44
0 0 44
0 0 44
0 0 44
0 0 44
0 0 44
0 0 44
0 0 44
0 0 44
0 0 44
0 0 44
0 0 44
0 0 44
0 0 44
0 0 44
0 0 44
0 0 44
0 0 44
0 0 44
0 0 44
0 0 44
0 0 44
0 0 44
0 0 44
0 0 44
0 0 44
0 0 44
0 0 44
0 0 44
0 0 44
0 0 44
0 0 44
0 0 44
0 0 44
0 0 44
0 0 44
0 0 44
0 0 44
0 0 44
0 0 44
0 0 44
0 0 44
0 0 44
0 0 44
0 0 44
0 0 44
0 0 44
0 0 44
0 0 44
0 0 44
0 0 44
0 0 44
0 0 44
0 0 44
0 0 44
0 0 44
0 0 44
0 0 44
0 0 44
0 0 44
0 0 44
0 0 44
0 0 44
0 0 44
0 0 44
0 0 44
0 0 44
0 0 44
0 0 44
0 0 44
0 0 44
0 0 44
0 0 44
0 0 44
0 0 44
0 0 44
0 0 44
0 0 44
0 0 44
0 0 44
0 0 44
0 0 44
0 0 44
0 0 44
0 0 44
0 0 44
0 0 44
0 0 44
0 0 44
0 0 44
0 0 44
0 0 44
0 0 44
0 0 44
0 0 44
0 0 44
0 0 44
0 0 44
0 0 44
0 0 44
0 0 44
0 0 44
0 0 44
0 0 44
0 0 44
0 0 44
0 0 44
0 0 44
0 0 44
0 0 44
0 0 44
0 0 44
0 0 44
0 0 44
0 0 44
0 0 44
0 0 44
0 0 44
0 0 44
0 0 44
0 0 44
0 0 44
0 0 44
0 0 44
0 0 44
0 0 44
0 0 44
0 0 44
0 0 44
0 0 44
0 0 44
0 0 44
0 0 44
0 0 44
0 0 44
0 0 44
0 0 44
0 0 44
0 0 44
0 0 44
0 0 44
0 0 44
0 0 44
0 0 44
0 0 44
0 0 44
0 0 44
0 0 44
0 0 44
0 0 44
0 0 44
0 0 44
0 0 44
0 0 44
0 0 44
0 0 44
0 0 44
0 0 44
0 0 44
0 0 44
0 0 44
0 0 44
0 0 44
0 0 44
0 0 44
0 0 44
0 0 44
0 0 44
0 0 44
0 0 44
0 0 44
0 0 44
0 0 44
0 0 44
0 0 44
0 0 44
0 0 44
0 0 44
0 0 44
0 0 44
0 0 44
0 0 44
0 0 44
0 0 44
0 0 44
0 0 44
0 0 44
0 0 44
0 0 44
0 0 44
0 0 44
0 0 44
0 0 44
0 0 44
0 0 44
0 0 44
0 0 44
0 0 44
0 0 44
0 0 44
0 0 44
0 0 44
0 0 44
0 0 44
0 0 44
0 0 44
0 0 44
0 0 44
0 0 44
0 0 44
0 0 44
0 0 44
0 0 44
0 0 44
0 0 44
0 0 44
0 0 44
0 0 44
0 0 44
0 0 44
0 0 44
0 0 44
0 0 44
0 0 44
0 0 44
0 0 44
0 0 44
0 0 44
0 0 44
0 0 44
0 0 44
0 0 44
0 0 44
0 0 44
0 0 44
0 0 44
0 0 44
0 0 44
0 0 44
0 0 44
0 0 44
0 0 44
0 0 44
0 0 44
0 0 44
0 0 44
0 0 44
0 0 44
0 0 44
0 0 44
0 0 44
0 0 44
0 0 44
0 0 44
0 0 44
0 0 44
0 0 44
0 0 44
0 0 44
0 0 44
0 0 44
0 0 44
0 0 44
0 0 44
0 0 44
0 0 44
0 0 44
0 0 44
0 0 44
0 0 44
0 0 44
0 0 44
0 0 44
0 0 44
0 0 44
0 0 44
0 0 44
0 0 44
0 0 44
0 0 44
0 0 44
0 0 44
0 0 44
0 0 44
0 0 44
0 0 44
0 0 44
0 0 44
0 0 44
0 0 44
0 0 44
0 0 44
0 0 44
0 0 44
0 0 44
0 0 44
0 0 44
0 0 44
0 0 44
0 0 44
0 0 44
0 0 44
0 0 44
0 0 44
0 0 44
0 0 44
0 0 44
0 0 44
0 0 44
0 0 44
0 0 44
0 0 44
0 0 44
0 0 44
0 0 44
0 0 44
0 0 44
0 0 44
0 0 44
0 0 44
0 0 44
0 0 44
0 0 44
0 0 44
0 0 44
0 0 44
0 0 44
0 0 44
0 0 44
0 0 44
0 0 44
0 0 44
0 0 44
0 0 44
0 0 44
0 0 44
0 0 44
0 0 44
0 0 44
0 0 44
0 0 44
0 0 44
0 0 44
0 0 44
0 0 44
0 0 44
0 0 44
0 0 44
0 0 44
0 0 44
0 0 44
0 0 44
0 0 44
0 0 44
0 0 44
0 0 44
0 0 44
0 0 44
0 0 44
0 0 44
0 0 44
0 0 44
0 0 44
0 0 44
0 0 44
0 0 44
0 0 44
0 0 44
0 0 44
0 0 44
0 0 44
0 0 44
0 0 44
0 0 44
0 0 44
0 0 44
0 0 44
0 0 44
0 0 44
0 0 44
0 0 44
0 0 44
0 0 44
0 0 44
0 0 44
0 0 44
0 0 44
0 0 44
0 0 44
0 0 44
0 0 44
0 0 44
0 0 44
0 0 44
0 0 44
0 0 44
0 0 44
0 0 44
0 0 44
0 0 44
0 0 44
0 0 44
0 0 44
0 0 44
0 0 44
0 0 44
0 0 44
0 0 44
0 0 44
0 0 44
0 0 44
0 0 44
0 0 44
0 0 44
0 0 44
0 0 44
0 0 44
0 0 44
0 0 44
0 0 44
0 0 44
0 0 44
0 0 44
0 0 44
0 0 44
0 0 44
0 0 44
0 0 44
0 0 44
0 0 44
0 0 44
0 0 44
0 0 44
0 0 44
0 0 44
0 0 44
0 0 44
0 0 44
0 0 44
0 0 44
0 0 44
0 0 44
0 0 44
0 0 44
0 0 44
0 0 44
0 0 44
0 0 44
0 0 44
0 0 44
0 0 44
0 0 44
0 0 44
0 0 44
0 0 44
0 0 44
0 0 44
0 0 44
0 0 44
0 0 44
0 0 44
0 0 44
0 0 44
0 0 44
0 0 44
0 0 44
0 0 44
0 0 44
0 0 44
0 0 44
0 0 44
0 0 44
0 0 44
0 0 44
0 0 44
0 0 44
0 0 44
0 0 44
0 0 44
0 0 44
0 0 44
0 0 44
0 0 44
0 0 44
0 0 44
0 0 44
0 0 44
0 0 44
0 0 44
0 0 44
0 0 44
0 0 44
0 0 44
0 0 44
0 0 44
0 0 44
0 0 44
0 0 44
0 0 44
0 0 44
0 0 44
0 0 44
0 0 44
0 0 44
0 0 44
0 0 44
0 0 44
0 0 44
0 0 44
0 0 44
0 0 44
0 0 44
0 0 44
0 0 44
0 0 44
0 0 44
0 0 44
0 0 44
0 0 44
0 0 44
0 0 44
0 0 44
0 0 44
0 0 44
0 0 44
0 0 44
0 0 44
0 0 44
0 0 44
0 0 44
0 0 44
0 0 44
0 0 44
0 0 44
0 0 44
0 0 44
0 0 44
0 0 44
0 0 44
0 0 44
0 0 44
0 0 44
0 0 44
0 0 44
0 0 44
0 0 44
0 0 44
0 0 44
0 0 44
0 0 44
0 0 44
0 0 44
0 0 44
0 0 44
0 0 44
0 0 44
0 0 44
0 0 44
0 0 44
0 0 44
0 0 44
0 0 44
0 0 44
0 0 44
0 0 44
0 0 44
0 0 44
0 0 44
0 0 44
0 0 44
0 0 44
0 0 44
0 0 44
0 0 44
0 0 44
0 0 44
0 0 44
0 0 44
0 0 44
0 0 44
0 0 44
0 0 44
0 0 44
0 0 44
0 0 44
0 0 44
0 0 44
0 0 44
0 0 44
0 0 44
0 0 44
0 0 44
0 0 44
0 0 44
0 0 44
0 0 44
0 0 44
0 0 44
0 0 44
0 0 44
0 0 44
0 0 44
0 0 44
0 0 44
0 0 44
0 0 44
0 0 44
0 0 44
0 0 44
0 0 44
0 0 44
0 0 44
0 0 44
0 0 44
0 0 44
0 0 44
0 0 44
0 0 44
0 0 44
0 0 44
0 0 44
0 0 44
0 0 44
0 0 44
0 0 44
0 0 44
0 0 44
0 0 44
0 0 44
0 0 44
0 0 44
0 0 44
0 0 44
0 0 44
0 0 44
0 0 44
0 0 44
0 0 44
0 0 44
0 0 44
0 0 44
0 0 44
0 0 44
0 0 44
0 0 44
0 0 44
0 0 44
0 0 44
0 0 44
0 0 44
0 0 44
0 0 44
0 0 44
0 0 44
0 0 44
0 0 44
0 0 44
0 0 44
0 0 44
0 0 44
0 0 44
0 0 44
0 0 44
0 0 44
0 0 44
0 0 44
0 0 44
0 0 44
0 0 44
0 0 44
0 0 44
0 0 44
0 0 44
0 0 44
0 0 44
0 0 44
0 0 44
0 0 44
0 0 44
0 0 44
0 0 44
0 0 44
0 0 44
0 0 44
0 0 44
0 0 44
0 0 44
0 0 44
0 0 44
0 0 44
0 0 44
0 0 44
0 0 44
0 0 44
0 0 44
0 0 44
0 0 44
0 0 44
0 0 44
0 0 44
0 0 44
0 0 44
0 0 44
0 0 44
0 0 44
0 0 44
0 0 44
0 0 44
0 0 44
0 0 44
0 0 44
0 0 44
0 0 44
0 0 44
0 0 44
0 0 44
0 0 44
0 0 44
0 0 44
0 0 44
0 0 44
0 0 44
0 0 44
0 0 44
0 0 44
0 0 44
0 0 44
0 0 44
0 0 44
0 0 44
0 0 44
0 0 44
0 0 44
0 0 44
0 0 44
0 0 44
0 0 44
0 0 44
0 0 44
0 0 44
0 0 44
0 0 44
0 0 44
0 0 44
0 0 44
0 0 44
0 0 44
0 0 44
0 0 44
0 0 44
0 0 44
0 0 44
0 0 44
0 0 44
0 0 44
0 0 44
0 0 44
0 0 44
0 0 44
0 0 44
0 0 44
0 0 44
0 0 44
0 0 44
0 0 44
0 0 44
0 0 44
0 0 44
0 0 44
0 0 44
0 0 44
0 0 44
0 0 44
0 0 44
0 0 44
0 0 44
0 0 44
0 0 44
0 0 44
0 0 44
0 0 44
0 0 44
0 0 44
0 0 44
0 0 44
0 0 44
0 0 44
0 0 44
0 0 44
0 0 44
0 0 44
0 0 44
0 0 44
0 0 44
0 0 44
0 0 44
0 0 44
0 0 44
0 0 44
0 0 44
0 0 44
0 0 44
0 0 44
0 0 44
0 0 44
0 0 44
0 0 44
0 0 44
0 0 44
0 0 44
0 0 44
0 0 44
0 0 44
0 0 44
0 0 44
0 0 44
0 0 44
0 0 44
0 0 44
0 0 44
0 0 44
0 0 44
0 0 44
0 0 44
0 0 44
0 0 44
0 0 44
0 0 44
0 0 44
0 0 44
0 0 44
0 0 44
0 0 44
0 0 44
0 0 44
0 0 44
0 0 44
0 0 44
0 0 44
0 0 44
0 0 44
0 0 44
0 0 44
0 0 44
0 0 44
0 0 44
0 0 44
0 0 44
0 0 44
0 0 44
0 0 44
0 0 44
0 0 44
0 0 44
0 0 44
0 0 44
0 0 44
0 0 44
0 0 44
0 0 44
0 0 44
0 0 44
0 0 44
0 0 44
0 0 44
0 0 44
0 0 44
0 0 44
0 0 44
0 0 44
0 0 44
0 0 44
0 0 44
0 0 44
0 0 44
0 0 44
0 0 44
0 0 44
0 0 44
0 0 44
0 0 44
0 0 44
0 0 44
0 0 44
0 0 44
0 0 44
0 0 44
0 0 44
0 0 44
0 0 44
0 0 44
0 0 44
0 0 44
0 0 44
0 0 44
0 0 44
0 0 44
0 0 44
0 0 44
0 0 44
0 0 44
0 0 44
0 0 44
0 0 44
0 0 44
0 0 44
0 0 44
0 0 44
0 0 44
0 0 44
0 0 44
0 0 44
0 0 44
0 0 44
0 0 44
0 0 44
0 0 44
0 0 44
0 0 44
0 0 44
0 0 44
0 0 44
0 0 44
0 0 44
0 0 44
0 0 44
0 0 44
0 0 44
0 0 44
0 0 44
0 0 44
0 0 44
0 0 44
0 0 44
0 0 44
0 0 44
0 0 44
0 0 44
0 0 44
0 0 44
0 0 44
0 0 44
0 0 44
0 0 44
0 0 44
0 0 44
0 0 44
0 0 44
0 0 44
0 0 44
0 0 44
0 0 44
0 0 44
0 0 44
0 0 44
0 0 44
0 0 44
0 0 44
0 0 44
0 0 44
0 0 44
0 0 44
0 0 44
0 0 44
0 0 44
0 0 44
0 0 44
0 0 44
0 0 44
0 0 44
0 0 44
0 0 44
0 0 44
0 0 44
0 0 44
0 0 44
0 0 44
0 0 44
0 0 44
0 0 44
0 0 44
0 0 44
0 0 44
0 0 44
0 0 44
0 0 44
0 0 44
0 0 44
0 0 44
0 0 44
0 0 44
0 0 44
0 0 44
0 0 44
0 0 44
0 0 44
0 0 44
0 0 44
0 0 44
0 0 44
0 0 44
0 0 44
0 0 44
0 0 44
0 0 44
0 0 44
0 0 44
0 0 44
0 0 44
0 0 44
0 0 44
0 0 44
0 0 44
0 0 44
0 0 44
0 0 44
0 0 44
0 0 44
0 0 44
0 0 44
0 0 44
0 0 44
0 0 44
0 0 44
0 0 44
0 0 44
0 0 44
0 0 44
0 0 44
0 0 44
0 0 44
0 0 44
0 0 44
0 0 44
0 0 44
0 0 44
0 0 44
0 0 44
0 0 44
0 0 44
0 0 44
0 0 44
0 0 44
0 0 44
0 0 44
0 0 44
0 0 44
0 0 44
0 0 44
0 0 44
0 0 44
0 0 44
0 0 44
0 0 44
0 0 44
0 0 44
0 0 44
0 0 44
0 0 44
0 0 44
0 0 44
0 0 44
0 0 44
0 0 44
0 0 44
0 0 44
0 0 44
0 0 44
0 0 44
0 0 44
0 0 44
0 0 44
0 0 44
0 0 44
0 0 44
0 0 44
0 0 44
0 0 44
0 0 44
0 0 44
0 0 44
0 0 44
0 0 44
0 0 44
0 0 44
0 0 44
0 0 44
0 0 44
0 0 44
0 0 44
0 0 44
0 0 44
0 0 44
0 0 44
0 0 44
0 0 44
0 0 44
0 0 44
0 0 44
0 0 44
0 0 44
0 0 44
0 0 44
0 0 44
0 0 44
0 0 44
0 0 44
0 0 44
0 0 44
0 0 44
0 0 44
0 0 44
0 0 44
0 0 44
0 0 44
0 0 44
0 0 44
0 0 44
0 0 44
0 0 44
0 0 44
0 0 44
0 0 44
0 0 44
0 0 44
0 0 44
0 0 44
0 0 44
0 0 44
0 0 44
0 0 44
0 0 44
0 0 44
0 0 44
0 0 44
0 0 44
0 0 44
0 0 44
0 0 44
0 0 44
0 0 44
0 0 44
0 0 44
0 0 44
0 0 44
0 0 44
0 0 44
0 0 44
0 0 44
0 0 44
0 0 44
0 0 44
0 0 44
0 0 44
0 0 44
0 0 44
0 0 44
0 0 44
0 0 44
0 0 44
0 0 44
0 0 44
0 0 44
0 0 44
0 0 44
0 0 44
0 0 44
0 0 44
0 0 44
0 0 44
0 0 44
0 0 44
0 0 44
0 0 44
0 0 44
0 0 44
0 0 44
0 0 44
0 0 44
0 0 44
0 0 44
0 0 44
0 0 44
0 0 44
0 0 44
0 0 44
0 0 44
0 0 44
0 0 44
0 0 44
0 0 44
0 0 44
0 0 44
0 0 44
0 0 44
0 0 44
0 0 44
0 0 44
0 0 44
0 0 44
0 0 44
0 0 44
0 0 44
0 0 44
0 0 44
0 0 44
0 0 44
0 0 44
0 0 44
0 0 44
0 0 44
0 0 44
0 0 44
0 0 44
0 0 44
0 0 44
0 0 44
0 0 44
0 0 44
0 0 44
0 0 44
0 0 44
0 0 44
0 0 44
0 0 44
0 0 44
0 0 44
0 0 44
0 0 44
0 0 44
0 0 44
0 0 44
0 0 44
0 0 44
0 0 44
0 0 44
0 0 44
0 0 44
0 0 44
0 0 44
0 0 44
0 0 44
0 0 44
0 0 44
0 0 44
0 0 44
0 0 44
0 0 44
0 0 44
0 0 44
0 0 44
0 0 44
0 0 44
0 0 44
0 0 44
0 0 44
0 0 44
0 0 44
0 0 44
0 0 44
0 0 44
0 0 44
0 0 44
0 0 44
0 0 44
0 0 44
0 0 44
0 0 44
0 0 44
0 0 44
0 0 44
0 0 44
0 0 44
0 0 44
0 0 44
0 0 44
0 0 44
0 0 44
0 0 44
0 0 44
0 0 44
0 0 44
0 0 44
0 0 44
0 0 44
0 0 44
0 0 44
0 0 44
0 0 44
0 0 44
0 0 44
0 0 44
0 0 44
0 0 44
0 0 44
0 0 44
0 0 44
0 0 44
0 0 44
0 0 44
0 0 44
0 0 44
0 0 44
0 0 44
0 0 44
0 0 44
0 0 44
0 0 44
0 0 44
0 0 44
0 0 44
0 0 44
0 0 44
0 0 44
0 0 44
0 0 44
0 0 44
0 0 44
0 0 44
0 0 44
0 0 44
0 0 44
0 0 44
0 0 44
0 0 44
0 0 44
0 0 44
0 0 44
0 0 44
0 0 44
0 0 44
0 0 44
0 0 44
0 0 44
0 0 44
0 0 44
0 0 44
0 0 44
0 0 44
0 0 44
0 0 44
0 0 44
0 0 44
0 0 44
0 0 44
0 0 44
0 0 44
0 0 44
0 0 44
0 0 44
0 0 44
0 0 44
0 0 44
0 0 44
0 0 44
0 0 44
0 0 44
0 0 44
0 0 44
0 0 44
0 0 44
0 0 44
0 0 44
0 0 44
0 0 44
0 0 44
0 0 44
0 0 44
0 0 44
0 0 44
0 0 44
0 0 44
0 0 44
0 0 44
0 0 44
0 0 44
0 0 44
0 0 44
0 0 44
0 0 44
0 0 44
0 0 44
0 0 44
0 0 44
0 0 44
0 0 44
0 0 44
0 0 44
0 0 44
0 0 44
0 0 44
0 0 44
0 0 44
0 0 44
0 0 44
0 0 44
0 0 44
0 0 44
0 0 44
0 0 44
0 0 44
0 0 44
0 0 44
0 0 44
0 0 44
0 0 44
0 0 44
0 0 44
0 0 44
0 0 44
0 0 44
0 0 44
0 0 44
0 0 44
0 0 44
0 0 44
0 0 44
0 0 44
0 0 44
0 0 44
0 0 44
0 0 44
0 0 44
0 0 44
0 0 44
0 0 44
0 0 44
0 0 44
0 0 44
0 0 44
0 0 44
0 0 44
0 0 44
0 0 44
0 0 44
0 0 44
0 0 44
0 0 44
0 0 44
0 0 44
0 0 44
0 0 44
0 0 44
0 0 44
0 0 44
0 0 44
0 0 44
0 0 44
0 0 44
0 0 44
0 0 44
0 0 44
0 0 44
0 0 44
0 0 44
0 0 44
0 0 44
0 0 44
0 0 44
0 0 44
0 0 44
0 0 44
0 0 44
0 0 44
0 0 44
0 0 44
0 0 44
0 0 44
0 0 44
0 0 44
0 0 44
0 0 44
0 0 44
0 0 44
0 0 44
0 0 44
0 0 44
0 0 44
0 0 44
0 0 44
0 0 44
0 0 44
0 0 44
0 0 44
0 0 44
0 0 44
0 0 44
0 0 44
0 0 44
0 0 44
0 0 44
0 0 44
0 0 44
0 0 44
0 0 44
0 0 44
0 0 44
0 0 44
0 0 44
0 0 44
0 0 44
0 0 44
0 0 44
0 0 44
0 0 44
0 0 44
0 0 44
0 0 44
0 0 44
0 0 44
0 0 44
0 0 44
0 0 44
0 0 44
0 0 44
0 0 44
0 0 44
0 0 44
0 0 44
0 0 44
0 0 44
0 0 44
0 0 44
0 0 44
0 0 44
0 0 44
0 0 44
0 0 44
0 0 44
0 0 44
0 0 44
0 0 44
0 0 44
0 0 44
0 0 44
0 0 44
0 0 44
0 0 44
0 0 44
0 0 44
0 0 44
0 0 44
0 0 44
0 0 44
0 0 44
0 0 44
0 0 44
0 0 44
0 0 44
0 0 44
0 0 44
0 0 44
0 0 44
0 0 44
0 0 44
0 0 44
0 0 44
0 0 44
0 0 44
0 0 44
0 0 44
0 0 44
0 0 44
0 0 44
0 0 44
0 0 44
0 0 44
0 0 44
0 0 44
0 0 44
0 0 44
0 0 44
0 0 44
0 0 44
0 0 44
0 0 44
0 0 44
0 0 44
0 0 44
0 0 44
0 0 44
0 0 44
0 0 44
0 0 44
0 0 44
0 0 44
0 0 44
0 0 44
0 0 44
0 0 44
0 0 44
0 0 44
0 0 44
0 0 44
0 0 44
0 0 44
0 0 44
0 0 44
0 0 44
0 0 44
0 0 44
0 0 44
0 0 44
0 0 44
0 0 44
0 0 44
0 0 44
0 0 44
0 0 44
0 0 44
0 0 44
0 0 44
0 0 44
0 0 44
0 0 44
0 0 44
0 0 44
0 0 44
0 0 44
0 0 44
0 0 44
0 0 44
0 0 44
0 0 44
0 0 44
0 0 44
0 0 44
0 0 44
0 0 44
0 0 44
0 0 44
0 0 44
0 0 44
0 0 44
0 0 44
0 0 44
0 0 44
0 0 44
0 0 44
0 0 44
0 0 44
0 0 44
0 0 44
0 0 44
0 0 44
0 0 44
0 0 44
0 0 44
0 0 44
0 0 44
0 0 44
0 0 44
0 0 44
0 0 44
0 0 44
0 0 44
0 0 44
0 0 44
0 0 44
0 0 44
0 0 44
0 0 44
0 0 44
0 0 44
0 0 44
0 0 44
0 0 44
0 0 44
0 0 44
0 0 44
0 0 44
0 0 44
0 0 44
0 0 44
0 0 44
0 0 44
0 0 44
0 0 44
0 0 44
0 0 44
0 0 44
0 0 44
0 0 44
0 0 44
0 0 44
0 0 44
0 0 44
0 0 44
0 0 44
0 0 44
0 0 44
0 0 44
0 0 44
0 0 44
0 0 44
0 0 44
0 0 44
0 0 44
0 0 44
0 0 44
0 0 44
0 0 44
0 0 44
0 0 44
0 0 44
0 0 44
0 0 44
0 0 44
0 0 44
0 0 44
0 0 44
0 0 44
0 0 44
0 0 44
0 0 44
0 0 44
0 0 44
0 0 44
0 0 44
0 0 44
0 0 44
0 0 44
0 0 44
0 0 44
0 0 44
0 0 44
0 0 44
0 0 44
85 58 41
151 96 34
203 153 25
204 113 18
218 146 19
185 112 26
145 110 36
50 37 43
0 0 44
0 0 44
0 0 44
0 0 44
0 0 44
0 0 44
0 0 44
0 0 44
0 0 44
0 0 44
0 0 44
0 0 44
0 0 44
0 0 44
0 0 44
0 0 44
0 0 44
0 0 44
0 0 44
0 0 44
0 0 44
0 0 44
0 0 44
0 0 44
0 0 44
0 0 44
0 0 44
0 0 44
0 0 44
0 0 44
0 0 44
0 0 44
0 0 44
0 0 44
0 0 44
0 0 44
0 0 44
0 0 44
0 0 44
0 0 44
0 0 44
0 0 44
0 0 44
0 0 44
0 0 44
0 0 44
0 0 44
0 0 44
0 0 44
0 0 44
0 0 44
0 0 44
0 0 44
0 0 44
0 0 44
0 0 44
0 0 44
0 0 44
0 0 44
0 0 44
0 0 44
0 0 44
0 0 44
0 0 44
0 0 44
0 0 44
0 0 44
0 0 44
0 0 44
0 0 44
0 0 44
0 0 44
0 0 44
0 0 44
0 0 44
0 0 44
0 0 44
0 0 44
0 0 44
0 0 44
0 0 44
0 0 44
0 0 44
0 0 44
0 0 44
0 0 44
0 0 44
0 0 44
0 0 44
0 0 44
0 0 44
0 0 44
0 0 44
0 0 44
0 0 44
0 0 44
0 0 44
0 0 44
0 0 44
0 0 44
0 0 44
0 0 44
0 0 44
0 0 44
0 0 44
0 0 44
0 0 44
0 0 44
0 0 44
0 0 44
0 0 44
0 0 44
0 0 44
0 0 44
0 0 44
0 0 44
0 0 44
0 0 44
0 0 44
0 0 44
0 0 44
0 0 44
0 0 44
0 0 44
0 0 44
0 0 44
0 0 44
0 0 44
0 0 44
0 0 44
0 0 44
0 0 44
0 0 44
0 0 44
0 0 44
0 0 44
0 0 44
0 0 44
0 0 44
0 0 44
0 0 44
0 0 44
0 0 44
0 0 44
0 0 44
0 0 44
0 0 44
0 0 44
0 0 44
0 0 44
17 14 44
140 84 35
236 178 26
240 175 7
245 202 30
233 149 4
235 143 4
225 123 4
228 144 4
218 147 25
136 88 35
0 0 44
0 0 44
0 0 44
0 0 44
0 0 44
0 0 44
0 0 44
0 0 44
0 0 44
0 0 44
0 0 44
0 0 44
0 0 44
0 0 44
0 0 44
0 0 44
0 0 44
0 0 44
0 0 44
0 0 44
0 0 44
0 0 44
0 0 44
0 0 44
0 0 44
0 0 44
0 0 44
0 0 44
0 0 44
0 0 44
0 0 44
0 0 44
0 0 44
0 0 44
0 0 44
0 0 44
0 0 44
0 0 44
0 0 44
0 0 44
0 0 44
0 0 44
0 0 44
0 0 44
0 0 44
0 0 44
0 0 44
0 0 44
0 0 44
0 0 44
0 0 44
0 0 44
0 0 44
0 0 44
0 0 44
0 0 44
0 0 44
0 0 44
0 0 44
0 0 44
0 0 44
0 0 44
0 0 44
0 0 44
0 0 44
0 0 44
0 0 44
0 0 44
0 0 44
0 0 44
0 0 44
0 0 44
0 0 44
0 0 44
0 0 44
0 0 44
0 0 44
0 0 44
0 0 44
0 0 44
0 0 44
0 0 44
0 0 44
0 0 44
0 0 44
0 0 44
0 0 44
0 0 44
0 0 44
0 0 44
0 0 44
0 0 44
0 0 44
0 0 44
0 0 44
0 0 44
0 0 44
0 0 44
0 0 44
0 0 44
0 0 44
0 0 44
0 0 44
0 0 44
0 0 44
0 0 44
0 0 44
0 0 44
0 0 44
0 0 44
0 0 44
0 0 44
0 0 44
0 0 44
0 0 44
0 0 44
0 0 44
0 0 44
0 0 44
0 0 44
0 0 44
0 0 44
0 0 44
0 0 44
0 0 44
0 0 44
0 0 44
0 0 44
0 0 44
0 0 44
0 0 44
0 0 44
0 0 44
0 0 44
0 0 44
0 0 44
0 0 44
0 0 44
0 0 44
0 0 44
0 0 44
0 0 44
0 0 44
0 0 44
0 0 44
0 0 44
0 0 44
0 0 44
0 0 44
183 128 28
227 132 8
228 136 6
240 172 6
241 182 4
239 167 7
224 125 4
242 168 2
245 188 1
236 158 12
233 168 26
172 118 32
0 0 44
0 0 44
0 0 44
0 0 44
0 0 44
0 0 44
0 0 44
0 0 44
0 0 44
0 0 44
0 0 44
0 0 44
0 0 44
0 0 44
0 0 44
0 0 44
0 0 44
0 0 44
0 0 44
0 0 44
0 0 44
0 0 44
0 0 44
0 0 44
0 0 44
0 0 44
0 0 44
0 0 44
0 0 44
0 0 44
0 0 44
0 0 44
0 0 44
0 0 44
0 0 44
0 0 44
0 0 44
0 0 44
0 0 44
0 0 44
0 0 44
0 0 44
0 0 44
0 0 44
0 0 44
0 0 44
0 0 44
0 0 44
0 0 44
0 0 44
0 0 44
0 0 44
0 0 44
0 0 44
0 0 44
0 0 44
0 0 44
0 0 44
0 0 44
0 0 44
0 0 44
0 0 44
0 0 44
0 0 44
0 0 44
0 0 44
0 0 44
0 0 44
0 0 44
0 0 44
0 0 44
0 0 44
0 0 44
0 0 44
0 0 44
0 0 44
0 0 44
0 0 44
0 0 44
0 0 44
0 0 44
0 0 44
0 0 44
0 0 44
0 0 44
0 0 44
0 0 44
0 0 44
0 0 44
0 0 44
0 0 44
0 0 44
0 0 44
0 0 44
0 0 44
0 0 44
0 0 44
0 0 44
0 0 44
0 0 44
0 0 44
0 0 44
0 0 44
0 0 44
0 0 44
0 0 44
0 0 44
0 0 44
0 0 44
0 0 44
0 0 44
0 0 44
0 0 44
0 0 44
0 0 44
0 0 44
0 0 44
0 0 44
0 0 44
0 0 44
0 0 44
0 0 44
0 0 44
0 0 44
0 0 44
0 0 44
0 0 44
0 0 44
0 0 44
0 0 44
0 0 44
0 0 44
0 0 44
0 0 44
0 0 44
0 0 44
0 0 44
0 0 44
0 0 44
0 0 44
0 0 44
0 0 44
0 0 44
0 0 44
0 0 44
0 0 44
0 0 44
152 113 34
234 153 5
224 127 3
237 158 3
233 146 2
236 158 4
232 154 12
222 119 4
239 159 5
233 161 8
235 141 5
226 145 7
246 193 23
133 87 36
0 0 44
0 0 44
0 0 44
0 0 44
0 0 44
0 0 44
0 0 44
0 0 44
0 0 44
0 0 44
0 0 44
0 0 44
0 0 44
0 0 44
0 0 44
0 0 44
0 0 44
0 0 44
0 0 44
0 0 44
0 0 44
0 0 44
0 0 44
0 0 44
0 0 44
0 0 44
0 0 44
0 0 44
0 0 44
0 0 44
0 0 44
0 0 44
0 0 44
0 0 44
0 0 44
0 0 44
0 0 44
0 0 44
0 0 44
0 0 44
0 0 44
0 0 44
0 0 44
0 0 44
0 0 44
0 0 44
0 0 44
0 0 44
0 0 44
0 0 44
0 0 44
0 0 44
0 0 44
0 0 44
0 0 44
0 0 44
0 0 44
0 0 44
0 0 44
0 0 44
0 0 44
0 0 44
0 0 44
0 0 44
0 0 44
0 0 44
0 0 44
0 0 44
0 0 44
0 0 44
0 0 44
0 0 44
0 0 44
0 0 44
0 0 44
0 0 44
0 0 44
0 0 44
0 0 44
0 0 44
0 0 44
0 0 44
0 0 44
0 0 44
0 0 44
0 0 44
0 0 44
0 0 44
0 0 44
0 0 44
0 0 44
0 0 44
0 0 44
0 0 44
0 0 44
0 0 44
0 0 44
0 0 44
0 0 44
0 0 44
0 0 44
0 0 44
0 0 44
0 0 44
0 0 44
0 0 44
0 0 44
0 0 44
0 0 44
0 0 44
0 0 44
0 0 44
0 0 44
0 0 44
0 0 44
0 0 44
0 0 44
0 0 44
0 0 44
0 0 44
0 0 44
0 0 44
0 0 44
0 0 44
0 0 44
0 0 44
0 0 44
0 0 44
0 0 44
0 0 44
0 0 44
0 0 44
0 0 44
0 0 44
0 0 44
0 0 44
0 0 44
0 0 44
0 0 44
0 0 44
0 0 44
0 0 44
0 0 44
0 0 44
0 0 44
30 13 43
223 134 13
244 197 11
238 151 5
233 147 8
215 107 1
240 169 2
242 184 4
224 120 1
246 203 23
238 162 6
220 112 3
201 101 8
241 183 28
233 180 48
69 56 43
0 0 44
0 0 44
0 0 44
0 0 44
0 0 44
0 0 44
0 0 44
0 0 44
0 0 44
0 0 44
0 0 44
0 0 44
0 0 44
0 0 44
0 0 44
0 0 44
0 0 44
0 0 44
0 0 44
0 0 44
0 0 44
0 0 44
0 0 44
0 0 44
0 0 44
0 0 44
0 0 44
0 0 44
0 0 44
0 0 44
0 0 44
0 0 44
0 0 44
0 0 44
0 0 44
0 0 44
0 0 44
0 0 44
0 0 44
0 0 44
0 0 44
0 0 44
0 0 44
0 0 44
0 0 44
0 0 44
0 0 44
0 0 44
0 0 44
0 0 44
0 0 44
0 0 44
0 0 44
0 0 44
0 0 44
0 0 44
0 0 44
0 0 44
0 0 44
0 0 44
0 0 44
0 0 44
0 0 44
0 0 44
0 0 44
0 0 44
0 0 44
0 0 44
0 0 44
0 0 44
0 0 44
0 0 44
0 0 44
0 0 44
0 0 44
0 0 44
0 0 44
0 0 44
0 0 44
0 0 44
0 0 44
0 0 44
0 0 44
0 0 44
0 0 44
0 0 44
0 0 44
0 0 44
0 0 44
0 0 44
0 0 44
0 0 44
0 0 44
0 0 44
0 0 44
0 0 44
0 0 44
0 0 44
0 0 44
0 0 44
0 0 44
0 0 44
0 0 44
0 0 44
0 0 44
0 0 44
0 0 44
0 0 44
0 0 44
0 0 44
0 0 44
0 0 44
0 0 44
0 0 44
0 0 44
0 0 44
0 0 44
0 0 44
0 0 44
0 0 44
0 0 44
0 0 44
0 0 44
0 0 44
0 0 44
0 0 44
0 0 44
0 0 44
0 0 44
0 0 44
0 0 44
0 0 44
0 0 44
0 0 44
0 0 44
0 0 44
0 0 44
0 0 44
0 0 44
0 0 44
0 0 44
0 0 44
0 0 44
0 0 44
144 104 36
237 159 5
246 203 21
233 148 15
234 173 30
239 163 6
246 176 2
237 155 3
244 183 1
242 173 1
236 152 4
233 146 5
230 174 13
236 163 31
226 127 2
163 101 31
0 0 44
0 0 44
0 0 44
0 0 44
0 0 44
0 0 44
0 0 44
0 0 44
0 0 44
0 0 44
0 0 44
0 0 44
0 0 44
0 0 44
0 0 44
0 0 44
0 0 44
0 0 44
0 0 44
0 0 44
0 0 44
0 0 44
0 0 44
0 0 44
0 0 44
0 0 44
0 0 44
0 0 44
0 0 44
0 0 44
0 0 44
0 0 44
0 0 44
0 0 44
0 0 44
0 0 44
0 0 44
0 0 44
0 0 44
0 0 44
0 0 44
0 0 44
0 0 44
0 0 44
0 0 44
0 0 44
0 0 44
0 0 44
0 0 44
0 0 44
0 0 44
0 0 44
0 0 44
0 0 44
0 0 44
0 0 44
0 0 44
0 0 44
0 0 44
0 0 44
0 0 44
0 0 44
0 0 44
0 0 44
0 0 44
0 0 44
0 0 44
0 0 44
0 0 44
0 0 44
0 0 44
0 0 44
0 0 44
0 0 44
0 0 44
0 0 44
0 0 44
0 0 44
0 0 44
0 0 44
0 0 44
0 0 44
0 0 44
0 0 44
0 0 44
0 0 44
0 0 44
0 0 44
0 0 44
0 0 44
0 0 44
0 0 44
0 0 44
0 0 44
0 0 44
0 0 44
0 0 44
0 0 44
0 0 44
0 0 44
0 0 44
0 0 44
0 0 44
0 0 44
0 0 44
0 0 44
0 0 44
0 0 44
0 0 44
0 0 44
0 0 44
0 0 44
0 0 44
0 0 44
0 0 44
0 0 44
0 0 44
0 0 44
0 0 44
0 0 44
0 0 44
0 0 44
0 0 44
0 0 44
0 0 44
0 0 44
0 0 44
0 0 44
0 0 44
0 0 44
0 0 44
0 0 44
0 0 44
0 0 44
0 0 44
0 0 44
0 0 44
0 0 44
0 0 44
0 0 44
0 0 44
0 0 44
0 0 44
0 0 44
179 104 27
235 151 11
232 147 8
225 123 4
239 149 4
239 163 3
232 142 18
231 149 8
246 199 17
246 214 24
240 162 1
248 210 4
236 169 3
234 161 36
226 125 5
202 121 29
0 0 44
0 0 44
0 0 44
0 0 44
0 0 44
0 0 44
0 0 44
0 0 44
0 0 44
0 0 44
0 0 44
0 0 44
0 0 44
0 0 44
0 0 44
0 0 44
0 0 44
0 0 44
0 0 44
0 0 44
0 0 44
0 0 44
0 0 44
0 0 44
0 0 44
0 0 44
0 0 44
0 0 44
0 0 44
0 0 44
0 0 44
0 0 44
0 0 44
0 0 44
0 0 44
0 0 44
0 0 44
0 0 44
0 0 44
0 0 44
0 0 44
0 0 44
0 0 44
0 0 44
0 0 44
0 0 44
0 0 44
0 0 44
0 0 44
0 0 44
0 0 44
0 0 44
0 0 44
0 0 44
0 0 44
0 0 44
0 0 44
0 0 44
0 0 44
0 0 44
0 0 44
0 0 44
0 0 44
0 0 44
0 0 44
0 0 44
0 0 44
0 0 44
0 0 44
0 0 44
0 0 44
0 0 44
0 0 44
0 0 44
0 0 44
0 0 44
0 0 44
0 0 44
0 0 44
0 0 44
0 0 44
0 0 44
0 0 44
0 0 44
0 0 44
0 0 44
0 0 44
0 0 44
0 0 44
0 0 44
0 0 44
0 0 44
0 0 44
0 0 44
0 0 44
0 0 44
0 0 44
0 0 44
0 0 44
0 0 44
0 0 44
0 0 44
0 0 44
0 0 44
0 0 44
0 0 44
0 0 44
0 0 44
0 0 44
0 0 44
0 0 44
0 0 44
0 0 44
0 0 44
0 0 44
0 0 44
0 0 44
0 0 44
0 0 44
0 0 44
0 0 44
0 0 44
0 0 44
0 0 44
0 0 44
0 0 44
0 0 44
0 0 44
0 0 44
0 0 44
0 0 44
0 0 44
0 0 44
0 0 44
0 0 44
0 0 44
0 0 44
0 0 44
0 0 44
0 0 44
0 0 44
0 0 44
0 0 44
0 0 44
188 105 25
239 177 33
220 129 4
224 120 5
222 112 1
226 118 2
234 158 20
244 194 26
241 167 5
238 158 5
228 140 3
233 149 2
222 117 1
244 205 16
234 150 11
225 157 20
0 0 44
0 0 44
0 0 44
0 0 44
0 0 44
0 0 44
0 0 44
0 0 44
0 0 44
0 0 44
0 0 44
0 0 44
0 0 44
0 0 44
0 0 44
0 0 44
0 0 44
0 0 44
0 0 44
0 0 44
0 0 44
0 0 44
0 0 44
0 0 44
0 0 44
0 0 44
0 0 44
0 0 44
0 0 44
0 0 44
0 0 44
0 0 44
0 0 44
0 0 44
0 0 44
0 0 44
0 0 44
0 0 44
0 0 44
0 0 44
0 0 44
0 0 44
0 0 44
0 0 44
0 0 44
0 0 44
0 0 44
0 0 44
0 0 44
0 0 44
0 0 44
0 0 44
0 0 44
0 0 44
0 0 44
0 0 44
0 0 44
0 0 44
0 0 44
0 0 44
0 0 44
0 0 44
0 0 44
0 0 44
0 0 44
0 0 44
0 0 44
0 0 44
0 0 44
0 0 44
0 0 44
0 0 44
0 0 44
0 0 44
0 0 44
0 0 44
0 0 44
0 0 44
0 0 44
0 0 44
0 0 44
0 0 44
0 0 44
0 0 44
0 0 44
0 0 44
0 0 44
0 0 44
0 0 44
0 0 44
0 0 44
0 0 44
0 0 44
0 0 44
0 0 44
0 0 44
0 0 44
0 0 44
0 0 44
0 0 44
0 0 44
0 0 44
0 0 44
0 0 44
0 0 44
0 0 44
0 0 44
0 0 44
0 0 44
0 0 44
0 0 44
0 0 44
0 0 44
0 0 44
0 0 44
0 0 44
0 0 44
0 0 44
0 0 44
0 0 44
0 0 44
0 0 44
0 0 44
0 0 44
0 0 44
0 0 44
0 0 44
0 0 44
0 0 44
0 0 44
0 0 44
0 0 44
0 0 44
0 0 44
0 0 44
0 0 44
0 0 44
0 0 44
0 0 44
0 0 44
0 0 44
0 0 44
0 0 44
0 0 44
193 116 28
233 152 5
242 195 45
240 174 9
226 130 1
230 145 7
229 132 4
236 152 8
219 110 2
239 154 4
243 177 9
223 127 2
212 116 20
237 163 20
241 175 15
241 185 22
17 14 44
0 0 44
0 0 44
0 0 44
0 0 44
0 0 44
0 0 44
0 0 44
0 0 44
0 0 44
0 0 44
0 0 44
0 0 44
0 0 44
0 0 44
0 0 44
0 0 44
0 0 44
0 0 44
0 0 44
0 0 44
0 0 44
0 0 44
0 0 44
0 0 44
0 0 44
0 0 44
0 0 44
0 0 44
0 0 44
0 0 44
0 0 44
0 0 44
0 0 44
0 0 44
0 0 44
0 0 44
0 0 44
0 0 44
0 0 44
0 0 44
0 0 44
0 0 44
0 0 44
0 0 44
0 0 44
0 0 44
0 0 44
0 0 44
0 0 44
0 0 44
0 0 44
0 0 44
0 0 44
0 0 44
0 0 44
0 0 44
0 0 44
0 0 44
0 0 44
0 0 44
0 0 44
0 0 44
0 0 44
0 0 44
0 0 44
0 0 44
0 0 44
0 0 44
0 0 44
0 0 44
0 0 44
0 0 44
0 0 44
0 0 44
0 0 44
0 0 44
0 0 44
0 0 44
0 0 44
0 0 44
0 0 44
0 0 44
0 0 44
0 0 44
0 0 44
0 0 44
0 0 44
0 0 44
0 0 44
0 0 44
0 0 44
0 0 44
0 0 44
0 0 44
0 0 44
0 0 44
0 0 44
0 0 44
0 0 44
0 0 44
0 0 44
0 0 44
0 0 44
0 0 44
0 0 44
0 0 44
0 0 44
0 0 44
0 0 44
0 0 44
0 0 44
0 0 44
0 0 44
0 0 44
0 0 44
0 0 44
0 0 44
0 0 44
0 0 44
0 0 44
0 0 44
0 0 44
0 0 44
0 0 44
0 0 44
0 0 44
0 0 44
0 0 44
0 0 44
0 0 44
0 0 44
0 0 44
0 0 44
0 0 44
0 0 44
0 0 44
0 0 44
0 0 44
0 0 44
0 0 44
0 0 44
0 0 44
0 0 44
179 129 31
222 117 3
245 195 37
236 150 15
227 133 5
231 148 11
243 200 30
250 232 104
228 140 11
230 135 10
238 165 8
220 121 4
229 174 30
230 145 21
232 153 12
231 166 13
0 0 44
0 0 44
0 0 44
0 0 44
0 0 44
0 0 44
0 0 44
0 0 44
0 0 44
0 0 44
0 0 44
0 0 44
0 0 44
0 0 44
0 0 44
0 0 44
0 0 44
0 0 44
0 0 44
0 0 44
0 0 44
0 0 44
0 0 44
0 0 44
0 0 44
0 0 44
0 0 44
0 0 44
0 0 44
0 0 44
0 0 44
0 0 44
0 0 44
0 0 44
0 0 44
0 0 44
0 0 44
0 0 44
0 0 44
0 0 44
0 0 44
0 0 44
0 0 44
0 0 44
0 0 44
0 0 44
0 0 44
0 0 44
0 0 44
0 0 44
0 0 44
0 0 44
0 0 44
0 0 44
0 0 44
0 0 44
0 0 44
0 0 44
0 0 44
0 0 44
0 0 44
0 0 44
0 0 44
0 0 44
0 0 44
0 0 44
0 0 44
0 0 44
0 0 44
0 0 44
0 0 44
0 0 44
0 0 44
0 0 44
0 0 44
0 0 44
0 0 44
0 0 44
0 0 44
0 0 44
0 0 44
0 0 44
0 0 44
0 0 44
0 0 44
0 0 44
0 0 44
0 0 44
0 0 44
0 0 44
0 0 44
0 0 44
0 0 44
0 0 44
0 0 44
0 0 44
0 0 44
0 0 44
0 0 44
0 0 44
0 0 44
0 0 44
0 0 44
0 0 44
0 0 44
0 0 44
0 0 44
0 0 44
0 0 44
0 0 44
0 0 44
0 0 44
0 0 44
0 0 44
0 0 44
0 0 44
0 0 44
0 0 44
0 0 44
0 0 44
0 0 44
0 0 44
0 0 44
0 0 44
0 0 44
0 0 44
0 0 44
0 0 44
0 0 44
0 0 44
0 0 44
0 0 44
0 0 44
0 0 44
0 0 44
0 0 44
0 0 44
0 0 44
0 0 44
0 0 44
0 0 44
0 0 44
0 0 44
0 0 44
119 88 39
231 138 3
245 186 2
232 146 8
244 186 20
228 130 5
246 185 2
243 174 7
243 180 18
241 179 17
236 168 6
220 116 1
232 159 9
223 122 5
231 151 5
200 120 23
0 0 44
0 0 44
0 0 44
0 0 44
0 0 44
0 0 44
0 0 44
0 0 44
0 0 44
0 0 44
0 0 44
0 0 44
0 0 44
0 0 44
0 0 44
0 0 44
0 0 44
0 0 44
0 0 44
0 0 44
0 0 44
0 0 44
0 0 44
0 0 44
0 0 44
0 0 44
0 0 44
0 0 44
0 0 44
0 0 44
0 0 44
0 0 44
0 0 44
0 0 44
0 0 44
0 0 44
0 0 44
0 0 44
0 0 44
0 0 44
0 0 44
0 0 44
0 0 44
0 0 44
0 0 44
0 0 44
0 0 44
0 0 44
0 0 44
0 0 44
0 0 44
0 0 44
0 0 44
0 0 44
0 0 44
0 0 44
0 0 44
0 0 44
0 0 44
0 0 44
0 0 44
0 0 44
0 0 44
0 0 44
0 0 44
0 0 44
0 0 44
0 0 44
0 0 44
0 0 44
0 0 44
0 0 44
0 0 44
0 0 44
0 0 44
0 0 44
0 0 44
0 0 44
0 0 44
0 0 44
0 0 44
0 0 44
0 0 44
0 0 44
0 0 44
0 0 44
0 0 44
0 0 44
0 0 44
0 0 44
0 0 44
0 0 44
0 0 44
0 0 44
0 0 44
0 0 44
0 0 44
0 0 44
0 0 44
0 0 44
0 0 44
0 0 44
0 0 44
0 0 44
0 0 44
0 0 44
0 0 44
0 0 44
0 0 44
0 0 44
0 0 44
0 0 44
0 0 44
0 0 44
0 0 44
0 0 44
0 0 44
0 0 44
0 0 44
0 0 44
0 0 44
0 0 44
0 0 44
0 0 44
0 0 44
0 0 44
0 0 44
0 0 44
0 0 44
0 0 44
0 0 44
0 0 44
0 0 44
0 0 44
0 0 44
0 0 44
0 0 44
0 0 44
0 0 44
0 0 44
0 0 44
0 0 44
0 0 44
0 0 44
22 13 44
217 149 17
233 147 4
234 154 7
247 219 36
233 144 6
225 129 1
244 198 8
235 148 4
235 133 2
234 137 2
232 133 2
226 141 7
230 149 12
237 171 20
140 89 35
0 0 44
0 0 44
0 0 44
0 0 44
0 0 44
0 0 44
0 0 44
0 0 44
0 0 44
0 0 44
0 0 44
0 0 44
0 0 44
0 0 44
0 0 44
0 0 44
0 0 44
0 0 44
0 0 44
0 0 44
0 0 44
0 0 44
0 0 44
0 0 44
0 0 44
0 0 44
0 0 44
0 0 44
0 0 44
0 0 44
0 0 44
0 0 44
0 0 44
0 0 44
0 0 44
0 0 44
0 0 44
0 0 44
0 0 44
0 0 44
0 0 44
0 0 44
0 0 44
0 0 44
0 0 44
0 0 44
0 0 44
0 0 44
0 0 44
0 0 44
0 0 44
0 0 44
0 0 44
0 0 44
0 0 44
0 0 44
0 0 44
0 0 44
0 0 44
0 0 44
0 0 44
0 0 44
0 0 44
0 0 44
0 0 44
0 0 44
0 0 44
0 0 44
0 0 44
0 0 44
0 0 44
0 0 44
0 0 44
0 0 44
0 0 44
0 0 44
0 0 44
0 0 44
0 0 44
0 0 44
0 0 44
0 0 44
0 0 44
0 0 44
0 0 44
0 0 44
0 0 44
0 0 44
0 0 44
0 0 44
0 0 44
0 0 44
0 0 44
0 0 44
0 0 44
0 0 44
0 0 44
0 0 44
0 0 44
0 0 44
0 0 44
0 0 44
0 0 44
0 0 44
0 0 44
0 0 44
0 0 44
0 0 44
0 0 44
0 0 44
0 0 44
0 0 44
0 0 44
0 0 44
0 0 44
0 0 44
0 0 44
0 0 44
0 0 44
0 0 44
0 0 44
0 0 44
0 0 44
0 0 44
0 0 44
0 0 44
0 0 44
0 0 44
0 0 44
0 0 44
0 0 44
0 0 44
0 0 44
0 0 44
0 0 44
0 0 44
0 0 44
0 0 44
0 0 44
0 0 44
0 0 44
0 0 44
0 0 44
0 0 44
0 0 44
119 84 44
231 161 14
243 184 53
236 159 3
235 151 14
242 177 16
236 173 18
232 145 7
230 134 5
239 151 3
231 158 10
233 139 2
230 146 7
207 126 20
25 20 44
0 0 44
0 0 44
0 0 44
0 0 44
0 0 44
0 0 44
0 0 44
0 0 44
0 0 44
0 0 44
0 0 44
0 0 44
0 0 44
0 0 44
0 0 44
0 0 44
0 0 44
0 0 44
0 0 44
0 0 44
0 0 44
0 0 44
0 0 44
0 0 44
0 0 44
0 0 44
0 0 44
0 0 44
0 0 44
0 0 44
0 0 44
0 0 44
0 0 44
0 0 44
0 0 44
0 0 44
0 0 44
0 0 44
0 0 44
0 0 44
0 0 44
0 0 44
0 0 44
0 0 44
0 0 44
0 0 44
0 0 44
0 0 44
0 0 44
0 0 44
0 0 44
0 0 44
0 0 44
0 0 44
0 0 44
0 0 44
0 0 44
0 0 44
0 0 44
0 0 44
0 0 44
0 0 44
0 0 44
0 0 44
0 0 44
0 0 44
0 0 44
0 0 44
0 0 44
0 0 44
0 0 44
0 0 44
0 0 44
0 0 44
0 0 44
0 0 44
0 0 44
0 0 44
0 0 44
0 0 44
0 0 44
0 0 44
0 0 44
0 0 44
0 0 44
0 0 44
0 0 44
0 0 44
0 0 44
0 0 44
0 0 44
0 0 44
0 0 44
0 0 44
0 0 44
0 0 44
0 0 44
0 0 44
0 0 44
0 0 44
0 0 44
0 0 44
0 0 44
0 0 44
0 0 44
0 0 44
0 0 44
0 0 44
0 0 44
0 0 44
0 0 44
0 0 44
0 0 44
0 0 44
0 0 44
0 0 44
0 0 44
0 0 44
0 0 44
0 0 44
0 0 44
0 0 44
0 0 44
0 0 44
0 0 44
0 0 44
0 0 44
0 0 44
0 0 44
0 0 44
0 0 44
0 0 44
0 0 44
0 0 44
0 0 44
0 0 44
0 0 44
0 0 44
0 0 44
0 0 44
0 0 44
0 0 44
0 0 44
0 0 44
0 0 44
0 0 44
157 112 34
234 167 50
237 170 18
230 142 16
246 197 15
235 155 16
224 119 3
230 136 3
238 155 6
216 118 7
225 137 6
234 168 26
101 61 39
0 0 44
0 0 44
0 0 44
0 0 44
0 0 44
0 0 44
0 0 44
0 0 44
0 0 44
0 0 44
0 0 44
0 0 44
0 0 44
0 0 44
0 0 44
0 0 44
0 0 44
0 0 44
0 0 44
0 0 44
0 0 44
0 0 44
0 0 44
0 0 44
0 0 44
0 0 44
0 0 44
0 0 44
0 0 44
0 0 44
0 0 44
0 0 44
0 0 44
0 0 44
0 0 44
0 0 44
0 0 44
0 0 44
0 0 44
0 0 44
0 0 44
0 0 44
0 0 44
0 0 44
0 0 44
0 0 44
0 0 44
0 0 44
0 0 44
0 0 44
0 0 44
0 0 44
0 0 44
0 0 44
0 0 44
0 0 44
0 0 44
0 0 44
0 0 44
0 0 44
0 0 44
0 0 44
0 0 44
0 0 44
0 0 44
0 0 44
0 0 44
0 0 44
0 0 44
0 0 44
0 0 44
0 0 44
0 0 44
0 0 44
0 0 44
0 0 44
0 0 44
0 0 44
0 0 44
0 0 44
0 0 44
0 0 44
0 0 44
0 0 44
0 0 44
0 0 44
0 0 44
0 0 44
0 0 44
0 0 44
0 0 44
0 0 44
0 0 44
0 0 44
0 0 44
0 0 44
0 0 44
0 0 44
0 0 44
0 0 44
0 0 44
0 0 44
0 0 44
0 0 44
0 0 44
0 0 44
0 0 44
0 0 44
0 0 44
0 0 44
0 0 44
0 0 44
0 0 44
0 0 44
0 0 44
0 0 44
0 0 44
0 0 44
0 0 44
0 0 44
0 0 44
0 0 44
0 0 44
0 0 44
0 0 44
0 0 44
0 0 44
0 0 44
0 0 44
0 0 44
0 0 44
0 0 44
0 0 44
0 0 44
0 0 44
0 0 44
0 0 44
0 0 44
0 0 44
0 0 44
0 0 44
0 0 44
0 0 44
0 0 44
0 0 44
0 0 44
0 0 44
0 0 44
133 95 37
224 136 11
232 148 5
238 165 15
236 158 8
226 143 10
232 145 6
233 166 7
226 139 3
216 145 18
95 75 43
0 0 44
0 0 44
0 0 44
0 0 44
0 0 44
0 0 44
0 0 44
0 0 44
0 0 44
0 0 44
0 0 44
0 0 44
0 0 44
0 0 44
0 0 44
0 0 44
0 0 44
0 0 44
0 0 44
0 0 44
0 0 44
0 0 44
0 0 44
0 0 44
0 0 44
0 0 44
0 0 44
0 0 44
0 0 44
0 0 44
0 0 44
0 0 44
0 0 44
0 0 44
0 0 44
0 0 44
0 0 44
0 0 44
0 0 44
0 0 44
0 0 44
0 0 44
0 0 44
0 0 44
0 0 44
0 0 44
0 0 44
0 0 44
0 0 44
0 0 44
0 0 44
0 0 44
0 0 44
0 0 44
0 0 44
0 0 44
0 0 44
0 0 44
0 0 44
0 0 44
0 0 44
0 0 44
0 0 44
0 0 44
0 0 44
0 0 44
0 0 44
0 0 44
0 0 44
0 0 44
0 0 44
0 0 44
0 0 44
0 0 44
0 0 44
0 0 44
0 0 44
0 0 44
0 0 44
0 0 44
0 0 44
0 0 44
0 0 44
0 0 44
0 0 44
0 0 44
0 0 44
0 0 44
0 0 44
0 0 44
0 0 44
0 0 44
0 0 44
0 0 44
0 0 44
0 0 44
0 0 44
0 0 44
0 0 44
0 0 44
0 0 44
0 0 44
0 0 44
0 0 44
0 0 44
0 0 44
0 0 44
0 0 44
0 0 44
0 0 44
0 0 44
0 0 44
0 0 44
0 0 44
0 0 44
0 0 44
0 0 44
0 0 44
0 0 44
0 0 44
0 0 44
0 0 44
0 0 44
0 0 44
0 0 44
0 0 44
0 0 44
0 0 44
0 0 44
0 0 44
0 0 44
0 0 44
0 0 44
0 0 44
0 0 44
0 0 44
0 0 44
0 0 44
0 0 44
0 0 44
0 0 44
0 0 44
0 0 44
0 0 44
0 0 44
0 0 44
0 0 44
0 0 44
0 0 44
0 0 44
84 64 42
159 106 39
216 142 21
232 154 16
235 153 10
233 168 18
206 136 22
152 112 35
36 22 43
0 0 44
0 0 44
0 0 44
0 0 44
0 0 44
0 0 44
0 0 44
0 0 44
0 0 44
0 0 44
0 0 44
0 0 44
0 0 44
0 0 44
0 0 44
0 0 44
0 0 44
0 0 44
0 0 44
0 0 44
0 0 44
0 0 44
0 0 44
0 0 44
0 0 44
0 0 44
0 0 44
0 0 44
0 0 44
0 0 44
0 0 44
0 0 44
0 0 44
0 0 44
0 0 44
0 0 44
0 0 44
0 0 44
0 0 44
0 0 44
0 0 44
0 0 44
0 0 44
0 0 44
0 0 44
0 0 44
0 0 44
0 0 44
0 0 44
0 0 44
0 0 44
0 0 44
0 0 44
0 0 44
0 0 44
0 0 44
0 0 44
0 0 44
0 0 44
0 0 44
0 0 44
0 0 44
0 0 44
0 0 44
0 0 44
0 0 44
0 0 44
0 0 44
0 0 44
0 0 44
0 0 44
0 0 44
0 0 44
0 0 44
0 0 44
0 0 44
0 0 44
0 0 44
0 0 44
0 0 44
0 0 44
0 0 44
0 0 44
0 0 44
0 0 44
0 0 44
0 0 44
0 0 44
0 0 44
0 0 44
0 0 44
0 0 44
0 0 44
0 0 44
0 0 44
0 0 44
0 0 44
0 0 44
0 0 44
0 0 44
0 0 44
0 0 44
0 0 44
0 0 44
0 0 44
0 0 44
0 0 44
0 0 44
0 0 44
0 0 44
0 0 44
0 0 44
0 0 44
0 0 44
0 0 44
0 0 44
0 0 44
0 0 44
0 0 44
0 0 44
0 0 44
0 0 44
0 0 44
0 0 44
0 0 44
0 0 44
0 0 44
0 0 44
0 0 44
0 0 44
0 0 44
0 0 44
0 0 44
0 0 44
0 0 44
0 0 44
0 0 44
0 0 44
0 0 44
0 0 44
0 0 44
0 0 44
0 0 44
0 0 44
0 0 44
0 0 44
0 0 44
0 0 44
0 0 44
0 0 44
0 0 44
0 0 44
0 0 44
0 0 44
46 29 43
57 38 43
27 13 44
0 0 44
0 0 44
0 0 44
0 0 44
0 0 44
0 0 44
0 0 44
0 0 44
0 0 44
0 0 44
0 0 44
0 0 44
0 0 44
0 0 44
0 0 44
0 0 44
0 0 44
0 0 44
0 0 44
0 0 44
0 0 44
0 0 44
0 0 44
0 0 44
0 0 44
0 0 44
0 0 44
0 0 44
0 0 44
0 0 44
0 0 44
0 0 44
0 0 44
0 0 44
0 0 44
0 0 44
0 0 44
0 0 44
0 0 44
0 0 44
0 0 44
0 0 44
0 0 44
0 0 44
0 0 44
0 0 44
0 0 44
0 0 44
0 0 44
0 0 44
0 0 44
0 0 44
0 0 44
0 0 44
0 0 44
0 0 44
0 0 44
0 0 44
0 0 44
0 0 44
0 0 44
0 0 44
0 0 44
0 0 44
0 0 44
0 0 44
0 0 44
0 0 44
0 0 44
0 0 44
0 0 44
0 0 44
0 0 44
0 0 44
0 0 44
0 0 44
0 0 44
0 0 44
0 0 44
0 0 44
0 0 44
0 0 44
0 0 44
0 0 44
0 0 44
0 0 44
0 0 44
0 0 44
0 0 44
0 0 44
0 0 44
0 0 44
0 0 44
0 0 44
0 0 44
0 0 44
0 0 44
0 0 44
0 0 44
0 0 44
0 0 44
0 0 44
0 0 44
0 0 44
0 0 44
0 0 44
0 0 44
0 0 44
0 0 44
0 0 44
0 0 44
0 0 44
0 0 44
0 0 44
0 0 44
0 0 44
0 0 44
0 0 44
0 0 44
0 0 44
0 0 44
0 0 44
0 0 44
0 0 44
0 0 44
0 0 44
0 0 44
0 0 44
0 0 44
0 0 44
0 0 44
0 0 44
0 0 44
0 0 44
0 0 44
0 0 44
0 0 44
0 0 44
0 0 44
0 0 44
0 0 44
0 0 44
0 0 44
0 0 44
0 0 44
0 0 44
0 0 44
0 0 44
0 0 44
0 0 44
0 0 44
0 0 44
0 0 44
0 0 44
0 0 44
0 0 44
0 0 44
0 0 44
0 0 44
0 0 44
0 0 44
0 0 44
0 0 44
0 0 44
0 0 44
0 0 44
0 0 44
0 0 44
0 0 44
0 0 44
0 0 44
0 0 44
0 0 44
0 0 44
0 0 44
0 0 44
0 0 44
0 0 44
0 0 44
0 0 44
0 0 44
0 0 44
0 0 44
0 0 44
0 0 44
0 0 44
0 0 44
0 0 44
0 0 44
0 0 44
0 0 44
0 0 44
0 0 44
0 0 44
0 0 44
0 0 44
0 0 44
0 0 44
0 0 44
0 0 44
0 0 44
0 0 44
0 0 44
0 0 44
0 0 44
0 0 44
0 0 44
0 0 44
0 0 44
0 0 44
0 0 44
0 0 44
0 0 44
0 0 44
0 0 44
0 0 44
0 0 44
0 0 44
0 0 44
0 0 44
0 0 44
0 0 44
0 0 44
0 0 44
0 0 44
0 0 44
0 0 44
0 0 44
0 0 44
0 0 44
0 0 44
0 0 44
0 0 44
0 0 44
0 0 44
0 0 44
0 0 44
0 0 44
0 0 44
0 0 44
0 0 44
0 0 44
0 0 44
0 0 44
0 0 44
0 0 44
0 0 44
0 0 44
0 0 44
0 0 44
0 0 44
0 0 44
0 0 44
0 0 44
0 0 44
0 0 44
0 0 44
0 0 44
0 0 44
0 0 44
0 0 44
0 0 44
0 0 44
0 0 44
0 0 44
0 0 44
0 0 44
0 0 44
0 0 44
0 0 44
0 0 44
0 0 44
0 0 44
0 0 44
0 0 44
0 0 44
0 0 44
0 0 44
0 0 44
0 0 44
0 0 44
0 0 44
0 0 44
0 0 44
0 0 44
0 0 44
0 0 44
0 0 44
0 0 44
0 0 44
0 0 44
0 0 44
0 0 44
0 0 44
0 0 44
0 0 44
0 0 44
0 0 44
0 0 44
0 0 44
0 0 44
0 0 44
0 0 44
0 0 44
0 0 44
0 0 44
0 0 44
0 0 44
0 0 44
0 0 44
0 0 44
0 0 44
0 0 44
0 0 44
0 0 44
0 0 44
0 0 44
0 0 44
0 0 44
0 0 44
0 0 44
0 0 44
0 0 44
0 0 44
0 0 44
0 0 44
0 0 44
0 0 44
0 0 44
0 0 44
0 0 44
0 0 44
0 0 44
0 0 44
0 0 44
0 0 44
0 0 44
0 0 44
0 0 44
0 0 44
0 0 44
0 0 44
0 0 44
0 0 44
0 0 44
0 0 44
0 0 44
0 0 44
0 0 44
0 0 44
0 0 44
0 0 44
0 0 44
0 0 44
0 0 44
0 0 44
0 0 44
0 0 44
0 0 44
0 0 44
0 0 44
0 0 44
0 0 44
0 0 44
0 0 44
0 0 44
0 0 44
0 0 44
0 0 44
0 0 44
0 0 44
0 0 44
0 0 44
0 0 44
0 0 44
0 0 44
0 0 44
0 0 44
0 0 44
0 0 44
0 0 44
0 0 44
0 0 44
0 0 44
0 0 44
0 0 44
0 0 44
0 0 44
0 0 44
0 0 44
0 0 44
0 0 44
0 0 44
0 0 44
0 0 44
0 0 44
0 0 44
0 0 44
0 0 44
0 0 44
0 0 44
0 0 44
0 0 44
0 0 44
0 0 44
0 0 44
0 0 44
0 0 44
0 0 44
0 0 44
0 0 44
0 0 44
0 0 44
0 0 44
0 0 44
0 0 44
0 0 44
0 0 44
0 0 44
0 0 44
0 0 44
0 0 44
0 0 44
0 0 44
0 0 44
0 0 44
0 0 44
0 0 44
0 0 44
0 0 44
0 0 44
0 0 44
0 0 44
0 0 44
0 0 44
0 0 44
0 0 44
0 0 44
0 0 44
0 0 44
0 0 44
0 0 44
0 0 44
0 0 44
0 0 44
0 0 44
0 0 44
0 0 44
0 0 44
0 0 44
0 0 44
0 0 44
0 0 44
0 0 44
0 0 44
0 0 44
0 0 44
0 0 44
0 0 44
0 0 44
0 0 44
0 0 44
0 0 44
0 0 44
0 0 44
0 0 44
0 0 44
0 0 44
0 0 44
0 0 44
0 0 44
0 0 44
0 0 44
0 0 44
0 0 44
0 0 44
0 0 44
0 0 44
0 0 44
0 0 44
0 0 44
0 0 44
0 0 44
0 0 44
0 0 44
0 0 44
0 0 44
0 0 44
0 0 44
0 0 44
0 0 44
0 0 44
0 0 44
0 0 44
0 0 44
0 0 44
0 0 44
0 0 44
0 0 44
0 0 44
0 0 44
0 0 44
0 0 44
0 0 44
0 0 44
0 0 44
0 0 44
0 0 44
0 0 44
0 0 44
0 0 44
0 0 44
0 0 44
0 0 44
0 0 44
0 0 44
0 0 44
0 0 44
0 0 44
0 0 44
0 0 44
0 0 44
0 0 44
0 0 44
0 0 44
0 0 44
0 0 44
0 0 44
0 0 44
0 0 44
0 0 44
0 0 44
0 0 44
0 0 44
0 0 44
0 0 44
0 0 44
0 0 44
0 0 44
0 0 44
0 0 44
0 0 44
0 0 44
0 0 44
0 0 44
0 0 44
0 0 44
0 0 44
0 0 44
0 0 44
0 0 44
0 0 44
0 0 44
0 0 44
0 0 44
0 0 44
0 0 44
0 0 44
0 0 44
0 0 44
0 0 44
0 0 44
0 0 44
0 0 44
0 0 44
0 0 44
0 0 44
0 0 44
0 0 44
0 0 44
0 0 44
0 0 44
0 0 44
0 0 44
0 0 44
0 0 44
0 0 44
0 0 44
0 0 44
0 0 44
0 0 44
0 0 44
0 0 44
0 0 44
0 0 44
0 0 44
0 0 44
0 0 44
0 0 44
0 0 44
0 0 44
0 0 44
0 0 44
0 0 44
0 0 44
0 0 44
0 0 44
0 0 44
0 0 44
0 0 44
0 0 44
0 0 44
0 0 44
0 0 44
0 0 44
0 0 44
0 0 44
0 0 44
0 0 44
0 0 44
0 0 44
0 0 44
0 0 44
0 0 44
0 0 44
0 0 44
0 0 44
0 0 44
0 0 44
0 0 44
0 0 44
0 0 44
0 0 44
0 0 44
0 0 44
0 0 44
0 0 44
0 0 44
0 0 44
0 0 44
0 0 44
0 0 44
0 0 44
0 0 44
0 0 44
0 0 44
0 0 44
0 0 44
0 0 44
0 0 44
0 0 44
0 0 44
0 0 44
0 0 44
0 0 44
0 0 44
0 0 44
0 0 44
0 0 44
0 0 44
0 0 44
0 0 44
0 0 44
0 0 44
0 0 44
0 0 44
0 0 44
0 0 44
0 0 44
0 0 44
0 0 44
0 0 44
0 0 44
0 0 44
0 0 44
0 0 44
0 0 44
0 0 44
0 0 44
0 0 44
0 0 44
0 0 44
0 0 44
0 0 44
0 0 44
0 0 44
0 0 44
0 0 44
0 0 44
0 0 44
0 0 44
0 0 44
0 0 44
0 0 44
0 0 44
0 0 44
0 0 44
0 0 44
0 0 44
0 0 44
0 0 44
0 0 44
0 0 44
0 0 44
0 0 44
0 0 44
0 0 44
0 0 44
0 0 44
0 0 44
0 0 44
0 0 44
0 0 44
0 0 44
0 0 44
0 0 44
0 0 44
0 0 44
0 0 44
0 0 44
0 0 44
0 0 44
0 0 44
0 0 44
0 0 44
0 0 44
0 0 44
0 0 44
0 0 44
0 0 44
0 0 44
0 0 44
0 0 44
0 0 44
0 0 44
0 0 44
0 0 44
0 0 44
0 0 44
0 0 44
0 0 44
0 0 44
0 0 44
0 0 44
0 0 44
0 0 44
0 0 44
0 0 44
0 0 44
0 0 44
0 0 44
0 0 44
0 0 44
0 0 44
0 0 44
0 0 44
0 0 44
0 0 44
0 0 44
0 0 44
0 0 44
0 0 44
0 0 44
0 0 44
0 0 44
0 0 44
0 0 44
0 0 44
0 0 44
0 0 44
0 0 44
0 0 44
0 0 44
0 0 44
0 0 44
0 0 44
0 0 44
0 0 44
0 0 44
0 0 44
0 0 44
0 0 44
0 0 44
0 0 44
0 0 44
0 0 44
0 0 44
0 0 44
0 0 44
0 0 44
0 0 44
0 0 44
0 0 44
0 0 44
0 0 44
0 0 44
0 0 44
0 0 44
0 0 44
0 0 44
0 0 44
0 0 44
0 0 44
0 0 44
0 0 44
0 0 44
0 0 44
0 0 44
0 0 44
0 0 44
0 0 44
0 0 44
0 0 44
0 0 44
0 0 44
0 0 44
0 0 44
0 0 44
0 0 44
0 0 44
0 0 44
0 0 44
0 0 44
0 0 44
0 0 44
0 0 44
0 0 44
0 0 44
0 0 44
0 0 44
0 0 44
0 0 44
0 0 44
0 0 44
0 0 44
0 0 44
0 0 44
0 0 44
0 0 44
0 0 44
0 0 44
0 0 44
0 0 44
0 0 44
0 0 44
0 0 44
0 0 44
0 0 44
0 0 44
0 0 44
0 0 44
0 0 44
0 0 44
0 0 44
0 0 44
0 0 44
0 0 44
0 0 44
0 0 44
0 0 44
0 0 44
0 0 44
0 0 44
0 0 44
0 0 44
0 0 44
0 0 44
0 0 44
0 0 44
0 0 44
0 0 44
0 0 44
0 0 44
0 0 44
0 0 44
0 0 44
0 0 44
0 0 44
0 0 44
0 0 44
0 0 44
0 0 44
0 0 44
0 0 44
0 0 44
0 0 44
0 0 44
0 0 44
0 0 44
0 0 44
0 0 44
0 0 44
0 0 44
0 0 44
0 0 44
0 0 44
0 0 44
0 0 44
0 0 44
0 0 44
0 0 44
0 0 44
0 0 44
0 0 44
0 0 44
0 0 44
0 0 44
0 0 44
0 0 44
0 0 44
0 0 44
0 0 44
0 0 44
0 0 44
0 0 44
0 0 44
0 0 44
0 0 44
0 0 44
0 0 44
0 0 44
0 0 44
0 0 44
0 0 44
0 0 44
0 0 44
0 0 44
0 0 44
0 0 44
0 0 44
0 0 44
0 0 44
0 0 44
0 0 44
0 0 44
0 0 44
0 0 44
0 0 44
0 0 44
0 0 44
0 0 44
0 0 44
0 0 44
0 0 44
0 0 44
0 0 44
0 0 44
0 0 44
0 0 44
0 0 44
0 0 44
0 0 44
0 0 44
0 0 44
0 0 44
0 0 44
0 0 44
0 0 44
0 0 44
0 0 44
0 0 44
0 0 44
0 0 44
0 0 44
0 0 44
0 0 44
0 0 44
0 0 44
0 0 44
0 0 44
0 0 44
0 0 44
0 0 44
0 0 44
0 0 44
0 0 44
0 0 44
0 0 44
0 0 44
0 0 44
0 0 44
0 0 44
0 0 44
0 0 44
0 0 44
0 0 44
0 0 44
0 0 44
0 0 44
0 0 44
0 0 44
0 0 44
0 0 44
0 0 44
0 0 44
0 0 44
0 0 44
0 0 44
0 0 44
0 0 44
0 0 44
0 0 44
0 0 44
0 0 44
0 0 44
0 0 44
0 0 44
0 0 44
0 0 44
0 0 44
0 0 44
0 0 44
0 0 44
0 0 44
0 0 44
0 0 44
0 0 44
0 0 44
0 0 44
0 0 44
0 0 44
0 0 44
0 0 44
0 0 44
0 0 44
0 0 44
0 0 44
0 0 44
0 0 44
0 0 44
0 0 44
0 0 44
0 0 44
0 0 44
0 0 44
0 0 44
0 0 44
0 0 44
0 0 44
0 0 44
0 0 44
0 0 44
0 0 44
0 0 44
0 0 44
0 0 44
0 0 44
0 0 44
0 0 44
0 0 44
0 0 44
0 0 44
0 0 44
0 0 44
0 0 44
0 0 44
0 0 44
0 0 44
0 0 44
0 0 44
0 0 44
0 0 44
0 0 44
0 0 44
0 0 44
0 0 44
0 0 44
0 0 44
0 0 44
0 0 44
0 0 44
0 0 44
0 0 44
0 0 44
0 0 44
0 0 44
0 0 44
0 0 44
0 0 44
0 0 44
0 0 44
0 0 44
0 0 44
0 0 44
0 0 44
0 0 44
0 0 44
0 0 44
0 0 44
0 0 44
0 0 44
0 0 44
0 0 44
0 0 44
0 0 44
0 0 44
0 0 44
0 0 44
0 0 44
0 0 44
0 0 44
0 0 44
0 0 44
0 0 44
0 0 44
0 0 44
0 0 44
0 0 44
0 0 44
0 0 44
0 0 44
0 0 44
0 0 44
0 0 44
0 0 44
0 0 44
0 0 44
0 0 44
0 0 44
0 0 44
0 0 44
0 0 44
0 0 44
0 0 44
0 0 44
0 0 44
0 0 44
0 0 44
0 0 44
0 0 44
0 0 44
0 0 44
0 0 44
0 0 44
0 0 44
0 0 44
0 0 44
0 0 44
0 0 44
0 0 44
0 0 44
0 0 44
0 0 44
0 0 44
0 0 44
0 0 44
0 0 44
0 0 44
0 0 44
0 0 44
0 0 44
0 0 44
0 0 44
0 0 44
0 0 44
0 0 44
0 0 44
0 0 44
0 0 44
0 0 44
0 0 44
0 0 44
0 0 44
0 0 44
0 0 44
0 0 44
0 0 44
0 0 44
0 0 44
0 0 44
0 0 44
0 0 44
0 0 44
0 0 44
0 0 44
0 0 44
0 0 44
0 0 44
0 0 44
0 0 44
0 0 44
0 0 44
0 0 44
0 0 44
0 0 44
0 0 44
0 0 44
0 0 44
0 0 44
0 0 44
0 0 44
0 0 44
0 0 44
0 0 44
0 0 44
0 0 44
0 0 44
0 0 44
0 0 44
0 0 44
0 0 44
0 0 44
0 0 44
0 0 44
0 0 44
0 0 44
0 0 44
0 0 44
0 0 44
0 0 44
0 0 44
0 0 44
0 0 44
0 0 44
0 0 44
0 0 44
0 0 44
0 0 44
0 0 44
0 0 44
0 0 44
0 0 44
0 0 44
0 0 44
0 0 44
0 0 44
0 0 44
0 0 44
0 0 44
0 0 44
0 0 44
0 0 44
0 0 44
0 0 44
0 0 44
0 0 44
0 0 44
0 0 44
0 0 44
0 0 44
0 0 44
0 0 44
0 0 44
0 0 44
0 0 44
0 0 44
0 0 44
0 0 44
0 0 44
0 0 44
0 0 44
0 0 44
0 0 44
0 0 44
0 0 44
0 0 44
0 0 44
0 0 44
0 0 44
0 0 44
0 0 44
0 0 44
0 0 44
0 0 44
0 0 44
0 0 44
0 0 44
0 0 44
0 0 44
0 0 44
0 0 44
0 0 44
0 0 44
0 0 44
0 0 44
0 0 44
0 0 44
0 0 44
0 0 44
0 0 44
0 0 44
0 0 44
0 0 44
0 0 44
0 0 44
0 0 44
0 0 44
0 0 44
0 0 44
0 0 44
0 0 44
0 0 44
0 0 44
0 0 44
0 0 44
0 0 44
0 0 44
0 0 44
0 0 44
0 0 44
0 0 44
0 0 44
0 0 44
0 0 44
0 0 44
0 0 44
0 0 44
0 0 44
0 0 44
0 0 44
0 0 44
0 0 44
0 0 44
0 0 44
0 0 44
0 0 44
0 0 44
0 0 44
0 0 44
0 0 44
0 0 44
0 0 44
0 0 44
0 0 44
0 0 44
0 0 44
0 0 44
0 0 44
0 0 44
0 0 44
0 0 44
0 0 44
0 0 44
0 0 44
0 0 44
0 0 44
0 0 44
0 0 44
0 0 44
0 0 44
0 0 44
0 0 44
0 0 44
0 0 44
0 0 44
0 0 44
0 0 44
0 0 44
0 0 44
0 0 44
0 0 44
0 0 44
0 0 44
0 0 44
0 0 44
0 0 44
0 0 44
0 0 44
0 0 44
0 0 44
0 0 44
0 0 44
0 0 44
0 0 44
0 0 44
0 0 44
0 0 44
0 0 44
0 0 44
0 0 44
0 0 44
0 0 44
0 0 44
0 0 44
0 0 44
0 0 44
0 0 44
0 0 44
0 0 44
0 0 44
0 0 44
0 0 44
0 0 44
0 0 44
0 0 44
0 0 44
0 0 44
0 0 44
0 0 44
0 0 44
0 0 44
0 0 44
0 0 44
0 0 44
0 0 44
0 0 44
0 0 44
0 0 44
0 0 44
0 0 44
0 0 44
0 0 44
0 0 44
0 0 44
0 0 44
0 0 44
0 0 44
0 0 44
0 0 44
0 0 44
0 0 44
0 0 44
0 0 44
0 0 44
0 0 44
0 0 44
0 0 44
0 0 44
0 0 44
0 0 44
0 0 44
0 0 44
0 0 44
0 0 44
0 0 44
0 0 44
0 0 44
0 0 44
0 0 44
0 0 44
0 0 44
0 0 44
0 0 44
0 0 44
0 0 44
0 0 44
0 0 44
0 0 44
0 0 44
0 0 44
0 0 44
0 0 44
0 0 44
0 0 44
0 0 44
0 0 44
0 0 44
0 0 44
0 0 44
0 0 44
0 0 44
0 0 44
0 0 44
0 0 44
0 0 44
0 0 44
0 0 44
0 0 44
0 0 44
0 0 44
0 0 44
0 0 44
0 0 44
0 0 44
0 0 44
0 0 44
0 0 44
0 0 44
0 0 44
0 0 44
0 0 44
0 0 44
0 0 44
0 0 44
0 0 44
0 0 44
0 0 44
0 0 44
0 0 44
0 0 44
0 0 44
0 0 44
0 0 44
0 0 44
0 0 44
0 0 44
0 0 44
0 0 44
0 0 44
0 0 44
0 0 44
0 0 44
0 0 44
0 0 44
0 0 44
0 0 44
0 0 44
0 0 44
0 0 44
0 0 44
0 0 44
0 0 44
0 0 44
0 0 44
0 0 44
0 0 44
0 0 44
0 0 44
0 0 44
0 0 44
0 0 44
0 0 44
0 0 44
0 0 44
0 0 44
0 0 44
0 0 44
0 0 44
0 0 44
0 0 44
0 0 44
0 0 44
0 0 44
0 0 44
0 0 44
0 0 44
0 0 44
0 0 44
0 0 44
0 0 44
0 0 44
0 0 44
0 0 44
0 0 44
0 0 44
0 0 44
0 0 44
0 0 44
0 0 44
0 0 44
0 0 44
0 0 44
0 0 44
0 0 44
0 0 44
0 0 44
0 0 44
0 0 44
0 0 44
0 0 44
0 0 44
0 0 44
0 0 44
0 0 44
0 0 44
0 0 44
0 0 44
0 0 44
0 0 44
0 0 44
0 0 44
0 0 44
0 0 44
0 0 44
0 0 44
0 0 44
0 0 44
0 0 44
0 0 44
0 0 44
0 0 44
0 0 44
0 0 44
0 0 44
0 0 44
0 0 44
0 0 44
0 0 44
0 0 44
0 0 44
0 0 44
0 0 44
0 0 44
0 0 44
0 0 44
0 0 44
0 0 44
0 0 44
0 0 44
0 0 44
0 0 44
0 0 44
0 0 44
0 0 44
0 0 44
0 0 44
0 0 44
0 0 44
0 0 44
0 0 44
0 0 44
0 0 44
0 0 44
0 0 44
0 0 44
0 0 44
0 0 44
0 0 44
0 0 44
0 0 44
0 0 44
0 0 44
0 0 44
0 0 44
0 0 44
0 0 44
0 0 44
0 0 44
0 0 44
0 0 44
0 0 44
0 0 44
0 0 44
0 0 44
0 0 44
0 0 44
0 0 44
0 0 44
0 0 44
0 0 44
0 0 44
0 0 44
0 0 44
0 0 44
0 0 44
0 0 44
0 0 44
0 0 44
0 0 44
0 0 44
0 0 44
0 0 44
0 0 44
0 0 44
0 0 44
0 0 44
0 0 44
0 0 44
0 0 44
0 0 44
0 0 44
0 0 44
0 0 44
0 0 44
0 0 44
0 0 44
0 0 44
0 0 44
0 0 44
0 0 44
0 0 44
0 0 44
0 0 44
0 0 44
0 0 44
0 0 44
0 0 44
0 0 44
0 0 44
0 0 44
0 0 44
0 0 44
0 0 44
0 0 44
0 0 44
0 0 44
0 0 44
0 0 44
0 0 44
0 0 44
0 0 44
0 0 44
0 0 44
0 0 44
0 0 44
0 0 44
0 0 44
0 0 44
0 0 44
0 0 44
0 0 44
0 0 44
0 0 44
0 0 44
0 0 44
0 0 44
0 0 44
0 0 44
0 0 44
0 0 44
0 0 44
0 0 44
0 0 44
0 0 44
0 0 44
0 0 44
0 0 44
0 0 44
0 0 44
0 0 44
0 0 44
0 0 44
0 0 44
0 0 44
0 0 44
0 0 44
0 0 44
0 0 44
0 0 44
0 0 44
0 0 44
0 0 44
0 0 44
0 0 44
0 0 44
0 0 44
0 0 44
0 0 44
0 0 44
0 0 44
0 0 44
0 0 44
0 0 44
0 0 44
0 0 44
0 0 44
0 0 44
0 0 44
0 0 44
0 0 44
0 0 44
0 0 44
0 0 44
0 0 44
0 0 44
0 0 44
0 0 44
0 0 44
0 0 44
0 0 44
0 0 44
0 0 44
0 0 44
0 0 44
0 0 44
0 0 44
0 0 44
0 0 44
0 0 44
0 0 44
0 0 44
0 0 44
0 0 44
0 0 44
0 0 44
0 0 44
0 0 44
0 0 44
0 0 44
0 0 44
0 0 44
0 0 44
0 0 44
0 0 44
0 0 44
0 0 44
0 0 44
0 0 44
0 0 44
0 0 44
0 0 44
0 0 44
0 0 44
0 0 44
0 0 44
0 0 44
0 0 44
0 0 44
0 0 44
0 0 44
0 0 44
0 0 44
0 0 44
0 0 44
0 0 44
0 0 44
0 0 44
0 0 44
0 0 44
0 0 44
0 0 44
0 0 44
0 0 44
0 0 44
0 0 44
0 0 44
0 0 44
0 0 44
0 0 44
0 0 44
0 0 44
0 0 44
0 0 44
0 0 44
0 0 44
0 0 44
0 0 44
0 0 44
0 0 44
0 0 44
0 0 44
0 0 44
0 0 44
0 0 44
0 0 44
0 0 44
0 0 44
0 0 44
0 0 44
0 0 44
0 0 44
0 0 44
0 0 44
0 0 44
0 0 44
0 0 44
0 0 44
0 0 44
0 0 44
0 0 44
0 0 44
0 0 44
0 0 44
0 0 44
0 0 44
0 0 44
0 0 44
0 0 44
0 0 44
0 0 44
0 0 44
0 0 44
0 0 44
0 0 44
0 0 44
0 0 44
0 0 44
0 0 44
0 0 44
0 0 44
0 0 44
0 0 44
0 0 44
0 0 44
0 0 44
0 0 44
0 0 44
0 0 44
0 0 44
0 0 44
0 0 44
0 0 44
0 0 44
0 0 44
0 0 44
0 0 44
0 0 44
0 0 44
0 0 44
0 0 44
0 0 44
0 0 44
0 0 44
0 0 44
0 0 44
0 0 44
0 0 44
0 0 44
0 0 44
0 0 44
0 0 44
0 0 44
0 0 44
0 0 44
0 0 44
0 0 44
0 0 44
0 0 44
0 0 44
0 0 44
0 0 44
0 0 44
0 0 44
0 0 44
0 0 44
0 0 44
0 0 44
0 0 44
0 0 44
0 0 44
0 0 44
0 0 44
0 0 44
0 0 44
0 0 44
0 0 44
0 0 44
0 0 44
0 0 44
0 0 44
0 0 44
0 0 44
0 0 44
0 0 44
0 0 44
0 0 44
0 0 44
0 0 44
0 0 44
0 0 44
0 0 44
0 0 44
0 0 44
0 0 44
0 0 44
0 0 44
0 0 44
0 0 44
0 0 44
0 0 44
0 0 44
0 0 44
0 0 44
0 0 44
0 0 44
0 0 44
0 0 44
0 0 44
0 0 44
0 0 44
0 0 44
0 0 44
0 0 44
0 0 44
0 0 44
0 0 44
0 0 44
0 0 44
0 0 44
0 0 44
0 0 44
0 0 44
0 0 44
0 0 44
0 0 44
0 0 44
0 0 44
0 0 44
0 0 44
0 0 44
0 0 44
0 0 44
0 0 44
0 0 44
0 0 44
0 0 44
0 0 44
0 0 44
0 0 44
0 0 44
0 0 44
0 0 44
0 0 44
0 0 44
0 0 44
0 0 44
0 0 44
0 0 44
0 0 44
0 0 44
0 0 44
0 0 44
0 0 44
0 0 44
0 0 44
0 0 44
0 0 44
0 0 44
0 0 44
0 0 44
0 0 44
0 0 44
0 0 44
0 0 44
0 0 44
0 0 44
0 0 44
0 0 44
0 0 44
0 0 44
0 0 44
0 0 44
0 0 44
0 0 44
0 0 44
0 0 44
0 0 44
0 0 44
0 0 44
0 0 44
0 0 44
0 0 44
0 0 44
0 0 44
0 0 44
0 0 44
0 0 44
0 0 44
0 0 44
0 0 44
0 0 44
0 0 44
0 0 44
0 0 44
0 0 44
0 0 44
0 0 44
0 0 44
0 0 44
0 0 44
0 0 44
0 0 44
0 0 44
0 0 44
0 0 44
0 0 44
0 0 44
0 0 44
0 0 44
0 0 44
0 0 44
0 0 44
0 0 44
0 0 44
0 0 44
0 0 44
0 0 44
0 0 44
0 0 44
0 0 44
0 0 44
0 0 44
0 0 44
0 0 44
0 0 44
0 0 44
0 0 44
0 0 44
0 0 44
0 0 44
0 0 44
0 0 44
0 0 44
0 0 44
0 0 44
0 0 44
0 0 44
0 0 44
0 0 44
0 0 44
0 0 44
0 0 44
0 0 44
0 0 44
0 0 44
0 0 44
0 0 44
0 0 44
0 0 44
0 0 44
0 0 44
0 0 44
0 0 44
0 0 44
0 0 44
0 0 44
0 0 44
0 0 44
0 0 44
0 0 44
0 0 44
0 0 44
0 0 44
0 0 44
0 0 44
0 0 44
0 0 44
0 0 44
0 0 44
0 0 44
0 0 44
0 0 44
0 0 44
0 0 44
0 0 44
0 0 44
0 0 44
0 0 44
0 0 44
0 0 44
0 0 44
0 0 44
0 0 44
0 0 44
0 0 44
0 0 44
0 0 44
0 0 44
0 0 44
0 0 44
0 0 44
0 0 44
0 0 44
0 0 44
0 0 44
0 0 44
0 0 44
0 0 44
0 0 44
0 0 44
0 0 44
0 0 44
0 0 44
0 0 44
0 0 44
0 0 44
0 0 44
0 0 44
0 0 44
0 0 44
0 0 44
0 0 44
0 0 44
0 0 44
0 0 44
0 0 44
0 0 44
0 0 44
0 0 44
0 0 44
0 0 44
0 0 44
0 0 44
0 0 44
0 0 44
0 0 44
0 0 44
0 0 44
0 0 44
0 0 44
0 0 44
0 0 44
0 0 44
0 0 44
0 0 44
0 0 44
0 0 44
0 0 44
0 0 44
0 0 44
0 0 44
0 0 44
0 0 44
0 0 44
0 0 44
0 0 44
0 0 44
0 0 44
0 0 44
0 0 44
0 0 44
0 0 44
0 0 44
0 0 44
0 0 44
0 0 44
0 0 44
0 0 44
0 0 44
0 0 44
0 0 44
0 0 44
0 0 44
0 0 44
0 0 44
0 0 44
0 0 44
0 0 44
0 0 44
0 0 44
0 0 44
0 0 44
0 0 44
0 0 44
0 0 44
0 0 44
0 0 44
0 0 44
0 0 44
0 0 44
0 0 44
0 0 44
0 0 44
0 0 44
0 0 44
0 0 44
0 0 44
0 0 44
0 0 44
0 0 44
0 0 44
0 0 44
0 0 44
0 0 44
0 0 44
0 0 44
0 0 44
0 0 44
0 0 44
0 0 44
0 0 44
0 0 44
0 0 44
0 0 44
0 0 44
0 0 44
0 0 44
0 0 44
0 0 44
0 0 44
0 0 44
0 0 44
0 0 44
0 0 44
0 0 44
0 0 44
0 0 44
0 0 44
0 0 44
0 0 44
0 0 44
0 0 44
0 0 44
0 0 44
0 0 44
0 0 44
0 0 44
0 0 44
0 0 44
0 0 44
0 0 44
0 0 44
0 0 44
0 0 44
0 0 44
0 0 44
0 0 44
0 0 44
0 0 44
0 0 44
0 0 44
0 0 44
0 0 44
0 0 44
0 0 44
0 0 44
0 0 44
0 0 44
0 0 44
0 0 44
0 0 44
0 0 44
0 0 44
0 0 44
0 0 44
0 0 44
0 0 44
0 0 44
0 0 44
0 0 44
0 0 44
0 0 44
0 0 44
0 0 44
0 0 44
0 0 44
0 0 44
0 0 44
0 0 44
0 0 44
0 0 44
0 0 44
0 0 44
0 0 44
0 0 44
0 0 44
0 0 44
0 0 44
0 0 44
0 0 44
0 0 44
0 0 44
0 0 44
0 0 44
0 0 44
0 0 44
0 0 44
0 0 44
0 0 44
0 0 44
0 0 44
0 0 44
0 0 44
0 0 44
0 0 44
0 0 44
0 0 44
0 0 44
0 0 44
0 0 44
0 0 44
0 0 44
0 0 44
0 0 44
0 0 44
0 0 44
0 0 44
0 0 44
0 0 44
0 0 44
0 0 44
0 0 44
0 0 44
0 0 44
0 0 44
0 0 44
0 0 44
0 0 44
0 0 44
0 0 44
0 0 44
0 0 44
0 0 44
0 0 44
0 0 44
0 0 44
0 0 44
0 0 44
0 0 44
0 0 44
0 0 44
0 0 44
0 0 44
0 0 44
0 0 44
0 0 44
0 0 44
0 0 44
0 0 44
0 0 44
0 0 44
0 0 44
0 0 44
0 0 44
0 0 44
0 0 44
0 0 44
0 0 44
0 0 44
0 0 44
0 0 44
0 0 44
0 0 44
0 0 44
0 0 44
0 0 44
0 0 44
0 0 44
0 0 44
0 0 44
0 0 44
0 0 44
0 0 44
0 0 44
0 0 44
0 0 44
0 0 44
0 0 44
0 0 44
0 0 44
0 0 44
0 0 44
0 0 44
0 0 44
0 0 44
0 0 44
0 0 44
0 0 44
0 0 44
0 0 44
0 0 44
0 0 44
0 0 44
0 0 44
0 0 44
0 0 44
0 0 44
0 0 44
0 0 44
0 0 44
0 0 44
0 0 44
0 0 44
0 0 44
0 0 44
0 0 44
0 0 44
0 0 44
0 0 44
0 0 44
0 0 44
0 0 44
0 0 44
0 0 44
0 0 44
0 0 44
0 0 44
0 0 44
0 0 44
0 0 44
0 0 44
0 0 44
0 0 44
0 0 44
0 0 44
0 0 44
0 0 44
0 0 44
0 0 44
0 0 44
0 0 44
0 0 44
0 0 44
0 0 44
0 0 44
0 0 44
0 0 44
0 0 44
0 0 44
0 0 44
0 0 44
0 0 44
0 0 44
0 0 44
0 0 44
0 0 44
0 0 44
0 0 44
0 0 44
0 0 44
0 0 44
0 0 44
0 0 44
0 0 44
0 0 44
0 0 44
0 0 44
0 0 44
0 0 44
0 0 44
0 0 44
0 0 44
0 0 44
0 0 44
0 0 44
0 0 44
0 0 44
0 0 44
0 0 44
0 0 44
0 0 44
0 0 44
0 0 44
0 0 44
0 0 44
0 0 44
0 0 44
0 0 44
0 0 44
0 0 44
0 0 44
0 0 44
0 0 44
0 0 44
0 0 44
0 0 44
0 0 44
0 0 44
0 0 44
0 0 44
0 0 44
0 0 44
0 0 44
0 0 44
0 0 44
0 0 44
0 0 44
0 0 44
0 0 44
0 0 44
0 0 44
0 0 44
0 0 44
0 0 44
0 0 44
0 0 44
0 0 44
0 0 44
0 0 44
0 0 44
0 0 44
0 0 44
0 0 44
0 0 44
0 0 44
0 0 44
0 0 44
0 0 44
0 0 44
0 0 44
0 0 44
0 0 44
0 0 44
0 0 44
0 0 44
0 0 44
0 0 44
0 0 44
0 0 44
0 0 44
0 0 44
0 0 44
0 0 44
0 0 44
0 0 44
0 0 44
0 0 44
0 0 44
0 0 44
0 0 44
0 0 44
0 0 44
0 0 44
0 0 44
0 0 44
0 0 44
0 0 44
0 0 44
0 0 44
0 0 44
0 0 44
0 0 44
0 0 44
0 0 44
0 0 44
0 0 44
0 0 44
0 0 44
0 0 44
0 0 44
0 0 44
0 0 44
0 0 44
0 0 44
0 0 44
0 0 44
0 0 44
0 0 44
0 0 44
0 0 44
0 0 44
0 0 44
0 0 44
0 0 44
0 0 44
0 0 44
0 0 44
0 0 44
0 0 44
0 0 44
0 0 44
0 0 44
0 0 44
0 0 44
0 0 44
0 0 44
0 0 44
0 0 44
0 0 44
0 0 44
0 0 44
0 0 44
0 0 44
0 0 44
0 0 44
0 0 44
0 0 44
0 0 44
0 0 44
0 0 44
0 0 44
0 0 44
0 0 44
0 0 44
0 0 44
0 0 44
0 0 44
0 0 44
0 0 44
0 0 44
0 0 44
0 0 44
0 0 44
0 0 44
0 0 44
0 0 44
0 0 44
0 0 44
0 0 44
0 0 44
0 0 44
0 0 44
0 0 44
0 0 44
0 0 44
0 0 44
0 0 44
0 0 44
0 0 44
0 0 44
0 0 44
0 0 44
0 0 44
0 0 44
0 0 44
0 0 44
0 0 44
0 0 44
0 0 44
0 0 44
0 0 44
0 0 44
0 0 44
0 0 44
0 0 44
0 0 44
0 0 44
0 0 44
0 0 44
0 0 44
0 0 44
0 0 44
0 0 44
0 0 44
0 0 44
0 0 44
0 0 44
0 0 44
0 0 44
0 0 44
0 0 44
0 0 44
0 0 44
0 0 44
0 0 44
0 0 44
0 0 44
0 0 44
0 0 44
0 0 44
0 0 44
0 0 44
0 0 44
0 0 44
0 0 44
0 0 44
0 0 44
0 0 44
0 0 44
0 0 44
0 0 44
0 0 44
0 0 44
0 0 44
0 0 44
0 0 44
0 0 44
0 0 44
0 0 44
0 0 44
0 0 44
0 0 44
0 0 44
0 0 44
0 0 44
0 0 44
0 0 44
0 0 44
0 0 44
0 0 44
0 0 44
0 0 44
0 0 44
0 0 44
0 0 44
0 0 44
0 0 44
0 0 44
0 0 44
0 0 44
0 0 44
0 0 44
0 0 44
0 0 44
0 0 44
0 0 44
0 0 44
0 0 44
0 0 44
0 0 44
0 0 44
0 0 44
0 0 44
0 0 44
0 0 44
0 0 44
0 0 44
0 0 44
0 0 44
0 0 44
0 0 44
0 0 44
0 0 44
0 0 44
0 0 44
0 0 44
0 0 44
0 0 44
0 0 44
0 0 44
0 0 44
0 0 44
0 0 44
0 0 44
0 0 44
0 0 44
0 0 44
0 0 44
0 0 44
0 0 44
0 0 44
0 0 44
0 0 44
0 0 44
0 0 44
0 0 44
0 0 44
0 0 44
0 0 44
0 0 44
0 0 44
0 0 44
0 0 44
0 0 44
0 0 44
0 0 44
0 0 44
0 0 44
0 0 44
0 0 44
0 0 44
0 0 44
0 0 44
0 0 44
0 0 44
0 0 44
0 0 44
0 0 44
0 0 44
0 0 44
0 0 44
0 0 44
0 0 44
0 0 44
0 0 44
0 0 44
0 0 44
0 0 44
0 0 44
0 0 44
0 0 44
0 0 44
0 0 44
0 0 44
0 0 44
0 0 44
0 0 44
0 0 44
0 0 44
0 0 44
0 0 44
0 0 44
0 0 44
0 0 44
0 0 44
0 0 44
0 0 44
0 0 44
0 0 44
0 0 44
0 0 44
0 0 44
0 0 44
0 0 44
0 0 44
0 0 44
0 0 44
0 0 44
0 0 44
0 0 44
0 0 44
0 0 44
0 0 44
0 0 44
0 0 44
0 0 44
0 0 44
0 0 44
0 0 44
0 0 44
0 0 44
0 0 44
0 0 44
0 0 44
0 0 44
0 0 44
0 0 44
0 0 44
0 0 44
0 0 44
0 0 44
0 0 44
0 0 44
0 0 44
0 0 44
0 0 44
0 0 44
0 0 44
0 0 44
0 0 44
0 0 44
0 0 44
0 0 44
0 0 44
0 0 44
0 0 44
0 0 44
0 0 44
0 0 44
0 0 44
0 0 44
0 0 44
0 0 44
0 0 44
0 0 44
0 0 44
0 0 44
0 0 44
0 0 44
0 0 44
0 0 44
0 0 44
0 0 44
0 0 44
0 0 44
0 0 44
0 0 44
0 0 44
0 0 44
0 0 44
0 0 44
0 0 44
0 0 44
0 0 44
0 0 44
0 0 44
0 0 44
0 0 44
0 0 44
0 0 44
0 0 44
0 0 44
0 0 44
0 0 44
0 0 44
0 0 44
0 0 44
0 0 44
0 0 44
0 0 44
0 0 44
0 0 44
0 0 44
0 0 44
0 0 44
0 0 44
0 0 44
0 0 44
0 0 44
0 0 44
0 0 44
0 0 44
0 0 44
0 0 44
0 0 44
0 0 44
0 0 44
0 0 44
0 0 44
0 0 44
0 0 44
0 0 44
0 0 44
0 0 44
0 0 44
0 0 44
0 0 44
0 0 44
0 0 44
0 0 44
0 0 44
0 0 44
0 0 44
0 0 44
0 0 44
0 0 44
0 0 44
0 0 44
0 0 44
0 0 44
0 0 44
0 0 44
0 0 44
0 0 44
0 0 44
0 0 44
0 0 44
0 0 44
0 0 44
0 0 44
0 0 44
0 0 44
0 0 44
0 0 44
0 0 44
0 0 44
0 0 44
0 0 44
0 0 44
0 0 44
0 0 44
0 0 44
0 0 44
0 0 44
0 0 44
0 0 44
0 0 44
0 0 44
0 0 44
0 0 44
0 0 44
0 0 44
0 0 44
0 0 44
0 0 44
0 0 44
0 0 44
0 0 44
0 0 44
0 0 44
0 0 44
0 0 44
0 0 44
0 0 44
0 0 44
0 0 44
0 0 44
0 0 44
0 0 44
0 0 44
0 0 44
0 0 44
0 0 44
0 0 44
0 0 44
0 0 44
0 0 44
0 0 44
0 0 44
0 0 44
0 0 44
0 0 44
0 0 44
0 0 44
0 0 44
0 0 44
0 0 44
0 0 44
0 0 44
0 0 44
0 0 44
0 0 44
0 0 44
0 0 44
0 0 44
0 0 44
0 0 44
0 0 44
0 0 44
0 0 44
0 0 44
0 0 44
0 0 44
0 0 44
0 0 44
0 0 44
0 0 44
0 0 44
0 0 44
0 0 44
0 0 44
0 0 44
0 0 44
0 0 44
0 0 44
0 0 44
0 0 44
0 0 44
0 0 44
0 0 44
0 0 44
0 0 44
0 0 44
0 0 44
0 0 44
0 0 44
0 0 44
0 0 44
0 0 44
0 0 44
0 0 44
0 0 44
0 0 44
0 0 44
0 0 44
0 0 44
0 0 44
0 0 44
0 0 44
0 0 44
0 0 44
0 0 44
0 0 44
0 0 44
0 0 44
0 0 44
0 0 44
0 0 44
0 0 44
0 0 44
0 0 44
0 0 44
0 0 44
0 0 44
0 0 44
0 0 44
0 0 44
0 0 44
0 0 44
0 0 44
0 0 44
0 0 44
0 0 44
0 0 44
0 0 44
0 0 44
0 0 44
0 0 44
0 0 44
0 0 44
0 0 44
0 0 44
0 0 44
0 0 44
0 0 44
0 0 44
0 0 44
0 0 44
0 0 44
0 0 44
0 0 44
0 0 44
0 0 44
0 0 44
0 0 44
0 0 44
0 0 44
0 0 44
0 0 44
0 0 44
0 0 44
0 0 44
0 0 44
0 0 44
0 0 44
0 0 44
0 0 44
0 0 44
0 0 44
0 0 44
0 0 44
0 0 44
0 0 44
0 0 44
0 0 44
0 0 44
0 0 44
0 0 44
0 0 44
0 0 44
0 0 44
0 0 44
0 0 44
0 0 44
0 0 44
0 0 44
0 0 44
0 0 44
0 0 44
0 0 44
0 0 44
0 0 44
0 0 44
0 0 44
0 0 44
0 0 44
0 0 44
0 0 44
0 0 44
0 0 44
0 0 44
0 0 44
0 0 44
0 0 44
0 0 44
0 0 44
0 0 44
0 0 44
0 0 44
0 0 44
0 0 44
0 0 44
0 0 44
0 0 44
0 0 44
0 0 44
0 0 44
0 0 44
0 0 44
0 0 44
0 0 44
0 0 44
0 0 44
0 0 44
0 0 44
0 0 44
0 0 44
0 0 44
0 0 44
0 0 44
0 0 44
0 0 44
0 0 44
0 0 44
0 0 44
0 0 44
0 0 44
0 0 44
0 0 44
0 0 44
0 0 44
0 0 44
0 0 44
0 0 44
0 0 44
0 0 44
0 0 44
0 0 44
0 0 44
0 0 44
0 0 44
0 0 44
0 0 44
0 0 44
0 0 44
0 0 44
0 0 44
0 0 44
0 0 44
0 0 44
0 0 44
0 0 44
0 0 44
0 0 44
0 0 44
0 0 44
0 0 44
0 0 44
0 0 44
0 0 44
0 0 44
0 0 44
0 0 44
0 0 44
0 0 44
0 0 44
0 0 44
0 0 44
0 0 44
0 0 44
0 0 44
0 0 44
0 0 44
0 0 44
0 0 44
0 0 44
0 0 44
0 0 44
0 0 44
0 0 44
0 0 44
0 0 44
0 0 44
0 0 44
0 0 44
0 0 44
0 0 44
0 0 44
0 0 44
0 0 44
0 0 44
0 0 44
0 0 44
0 0 44
0 0 44
0 0 44
0 0 44
0 0 44
0 0 44
0 0 44
0 0 44
0 0 44
0 0 44
0 0 44
0 0 44
0 0 44
0 0 44
0 0 44
0 0 44
0 0 44
0 0 44
0 0 44
0 0 44
0 0 44
0 0 44
0 0 44
0 0 44
0 0 44
0 0 44
0 0 44
0 0 44
0 0 44
0 0 44
0 0 44
0 0 44
0 0 44
0 0 44
0 0 44
0 0 44
0 0 44
0 0 44
0 0 44
0 0 44
0 0 44
0 0 44
0 0 44
0 0 44
0 0 44
0 0 44
0 0 44
0 0 44
0 0 44
0 0 44
0 0 44
0 0 44
0 0 44
0 0 44
0 0 44
0 0 44
0 0 44
0 0 44
0 0 44
0 0 44
0 0 44
0 0 44
0 0 44
0 0 44
0 0 44
0 0 44
0 0 44
0 0 44
0 0 44
0 0 44
0 0 44
0 0 44
0 0 44
0 0 44
0 0 44
0 0 44
0 0 44
0 0 44
0 0 44
0 0 44
0 0 44
0 0 44
0 0 44
0 0 44
0 0 44
0 0 44
0 0 44
0 0 44
0 0 44
0 0 44
0 0 44
0 0 44
0 0 44
0 0 44
0 0 44
0 0 44
0 0 44
0 0 44
0 0 44
0 0 44
0 0 44
0 0 44
0 0 44
0 0 44
0 0 44
0 0 44
0 0 44
0 0 44
0 0 44
0 0 44
0 0 44
0 0 44
0 0 44
0 0 44
0 0 44
0 0 44
0 0 44
0 0 44
0 0 44
0 0 44
0 0 44
0 0 44
0 0 44
0 0 44
0 0 44
0 0 44
0 0 44
0 0 44
0 0 44
0 0 44
0 0 44
0 0 44
0 0 44
0 0 44
0 0 44
0 0 44
0 0 44
0 0 44
0 0 44
0 0 44
0 0 44
0 0 44
0 0 44
0 0 44
0 0 44
0 0 44
0 0 44
0 0 44
0 0 44
0 0 44
0 0 44
0 0 44
0 0 44
0 0 44
0 0 44
0 0 44
0 0 44
0 0 44
0 0 44
0 0 44
0 0 44
0 0 44
0 0 44
0 0 44
0 0 44
0 0 44
0 0 44
0 0 44
0 0 44
0 0 44
0 0 44
0 0 44
0 0 44
0 0 44
0 0 44
0 0 44
0 0 44
0 0 44
0 0 44
0 0 44
0 0 44
0 0 44
0 0 44
0 0 44
0 0 44
0 0 44
0 0 44
0 0 44
0 0 44
0 0 44
0 0 44
0 0 44
0 0 44
0 0 44
0 0 44
0 0 44
0 0 44
0 0 44
0 0 44
0 0 44
0 0 44
0 0 44
0 0 44
0 0 44
0 0 44
0 0 44
0 0 44
0 0 44
0 0 44
0 0 44
0 0 44
0 0 44
0 0 44
0 0 44
0 0 44
0 0 44
0 0 44
0 0 44
0 0 44
0 0 44
0 0 44
0 0 44
0 0 44
0 0 44
0 0 44
0 0 44
0 0 44
0 0 44
0 0 44
0 0 44
0 0 44
0 0 44
0 0 44
0 0 44
0 0 44
0 0 44
0 0 44
0 0 44
0 0 44
0 0 44
0 0 44
0 0 44
0 0 44
0 0 44
0 0 44
0 0 44
0 0 44
0 0 44
0 0 44
0 0 44
0 0 44
0 0 44
0 0 44
0 0 44
0 0 44
0 0 44
0 0 44
0 0 44
0 0 44
0 0 44
0 0 44
0 0 44
0 0 44
0 0 44
0 0 44
0 0 44
0 0 44
0 0 44
0 0 44
0 0 44
0 0 44
0 0 44
0 0 44
0 0 44
0 0 44
0 0 44
0 0 44
0 0 44
0 0 44
0 0 44
0 0 44
0 0 44
0 0 44
0 0 44
0 0 44
0 0 44
0 0 44
0 0 44
0 0 44
0 0 44
0 0 44
0 0 44
0 0 44
0 0 44
0 0 44
0 0 44
0 0 44
0 0 44
0 0 44
0 0 44
0 0 44
0 0 44
0 0 44
0 0 44
0 0 44
0 0 44
0 0 44
0 0 44
0 0 44
0 0 44
0 0 44
0 0 44
0 0 44
0 0 44
0 0 44
0 0 44
0 0 44
0 0 44
0 0 44
0 0 44
0 0 44
0 0 44
0 0 44
0 0 44
0 0 44
0 0 44
0 0 44
0 0 44
0 0 44
0 0 44
0 0 44
0 0 44
0 0 44
0 0 44
0 0 44
0 0 44
0 0 44
0 0 44
0 0 44
0 0 44
0 0 44
0 0 44
0 0 44
0 0 44
0 0 44
0 0 44
0 0 44
0 0 44
0 0 44
0 0 44
0 0 44
0 0 44
0 0 44
0 0 44
0 0 44
0 0 44
0 0 44
0 0 44
0 0 44
0 0 44
0 0 44
0 0 44
0 0 44
0 0 44
0 0 44
0 0 44
0 0 44
0 0 44
0 0 44
0 0 44
0 0 44
0 0 44
0 0 44
0 0 44
0 0 44
0 0 44
0 0 44
0 0 44
0 0 44
0 0 44
0 0 44
0 0 44
0 0 44
0 0 44
0 0 44
0 0 44
0 0 44
0 0 44
0 0 44
0 0 44
0 0 44
0 0 44
0 0 44
0 0 44
0 0 44
0 0 44
0 0 44
0 0 44
0 0 44
0 0 44
0 0 44
0 0 44
0 0 44
0 0 44
0 0 44
0 0 44
0 0 44
0 0 44
0 0 44
0 0 44
0 0 44
0 0 44
0 0 44
0 0 44
0 0 44
0 0 44
0 0 44
0 0 44
0 0 44
0 0 44
0 0 44
0 0 44
0 0 44
0 0 44
0 0 44
0 0 44
0 0 44
0 0 44
0 0 44
0 0 44
0 0 44
0 0 44
0 0 44
0 0 44
0 0 44
0 0 44
0 0 44
0 0 44
0 0 44
0 0 44
0 0 44
0 0 44
0 0 44
0 0 44
0 0 44
0 0 44
0 0 44
0 0 44
0 0 44
0 0 44
0 0 44
0 0 44
0 0 44
0 0 44
0 0 44
0 0 44
0 0 44
0 0 44
0 0 44
0 0 44
0 0 44
0 0 44
0 0 44
0 0 44
0 0 44
0 0 44
0 0 44
0 0 44
0 0 44
0 0 44
0 0 44
0 0 44
0 0 44
0 0 44
0 0 44
0 0 44
0 0 44
0 0 44
0 0 44
0 0 44
0 0 44
0 0 44
0 0 44
0 0 44
0 0 44
0 0 44
0 0 44
0 0 44
0 0 44
0 0 44
0 0 44
0 0 44
0 0 44
0 0 44
0 0 44
0 0 44
0 0 44
0 0 44
0 0 44
0 0 44
0 0 44
0 0 44
0 0 44
0 0 44
0 0 44
0 0 44
0 0 44
0 0 44
0 0 44
0 0 44
0 0 44
0 0 44
0 0 44
0 0 44
0 0 44
0 0 44
0 0 44
0 0 44
0 0 44
0 0 44
0 0 44
0 0 44
0 0 44
0 0 44
0 0 44
0 0 44
0 0 44
0 0 44
0 0 44
0 0 44
0 0 44
0 0 44
0 0 44
0 0 44
0 0 44
0 0 44
0 0 44
0 0 44
0 0 44
0 0 44
0 0 44
0 0 44
0 0 44
0 0 44
0 0 44
0 0 44
0 0 44
0 0 44
0 0 44
0 0 44
0 0 44
0 0 44
0 0 44
0 0 44
0 0 44
0 0 44
0 0 44
0 0 44
0 0 44
0 0 44
0 0 44
0 0 44
0 0 44
0 0 44
0 0 44
0 0 44
0 0 44
0 0 44
0 0 44
0 0 44
0 0 44
0 0 44
0 0 44
0 0 44
0 0 44
0 0 44
0 0 44
0 0 44
0 0 44
0 0 44
0 0 44
0 0 44
0 0 44
0 0 44
0 0 44
0 0 44
0 0 44
0 0 44
0 0 44
0 0 44
0 0 44
11 17 49
25 37 63
38 56 83
44 63 90
47 69 96
45 66 92
42 62 88
42 62 88
46 68 95
45 66 94
37 54 79
39 58 84
36 51 77
34 51 77
26 37 63
8 12 46
0 0 44
0 0 44
0 0 44
0 0 44
0 0 44
0 0 44
0 0 44
0 0 44
0 0 44
0 0 44
0 0 44
0 0 44
0 0 44
0 0 44
0 0 44
0 0 44
0 0 44
0 0 44
0 0 44
0 0 44
0 0 44
0 0 44
0 0 44
0 0 44
0 0 44
0 0 44
0 0 44
0 0 44
0 0 44
0 0 44
0 0 44
0 0 44
0 0 44
0 0 44
0 0 44
0 0 44
0 0 44
0 0 44
0 0 44
0 0 44
0 0 44
0 0 44
0 0 44
0 0 44
0 0 44
0 0 44
0 0 44
0 0 44
0 0 44
0 0 44
0 0 44
0 0 44
0 0 44
0 0 44
0 0 44
0 0 44
0 0 44
0 0 44
0 0 44
0 0 44
0 0 44
0 0 44
0 0 44
0 0 44
0 0 44
0 0 44
0 0 44
0 0 44
0 0 44
0 0 44
0 0 44
0 0 44
0 0 44
0 0 44
0 0 44
0 0 44
0 0 44
0 0 44
0 0 44
0 0 44
0 0 44
0 0 44
0 0 44
0 0 44
0 0 44
0 0 44
0 0 44
0 0 44
0 0 44
0 0 44
0 0 44
0 0 44
0 0 44
0 0 44
0 0 44
0 0 44
0 0 44
0 0 44
0 0 44
0 0 44
0 0 44
0 0 44
0 0 44
0 0 44
0 0 44
0 0 44
0 0 44
0 0 44
0 0 44
0 0 44
0 0 44
0 0 44
0 0 44
0 0 44
0 0 44
0 0 44
0 0 44
0 0 44
0 0 44
0 0 44
0 0 44
0 0 44
0 0 44
0 0 44
0 0 44
0 0 44
0 0 44
0 0 44
0 0 44
0 0 44
0 0 44
0 0 44
0 0 44
0 0 44
0 0 44
0 0 44
0 0 44
0 0 44
0 0 44
8 12 46
31 45 71
43 63 90
48 70 97
66 96 127
68 100 132
64 94 125
59 87 117
65 96 127
64 93 121
59 87 117
61 90 120
58 84 113
64 93 123
63 92 123
59 87 116
61 89 119
59 87 117
55 81 110
50 73 100
54 80 109
56 83 112
42 62 88
31 46 72
23 35 61
8 12 46
0 0 44
0 0 44
0 0 44
0 0 44
0 0 44
0 0 44
0 0 44
0 0 44
0 0 44
0 0 44
0 0 44
0 0 44
0 0 44
0 0 44
0 0 44
0 0 44
0 0 44
0 0 44
0 0 44
0 0 44
0 0 44
0 0 44
0 0 44
0 0 44
0 0 44
0 0 44
0 0 44
0 0 44
0 0 44
0 0 44
0 0 44
0 0 44
0 0 44
0 0 44
0 0 44
0 0 44
0 0 44
0 0 44
0 0 44
0 0 44
0 0 44
0 0 44
0 0 44
0 0 44
0 0 44
0 0 44
0 0 44
0 0 44
0 0 44
0 0 44
0 0 44
0 0 44
0 0 44
0 0 44
0 0 44
0 0 44
0 0 44
0 0 44
0 0 44
0 0 44
0 0 44
0 0 44
0 0 44
0 0 44
0 0 44
0 0 44
0 0 44
0 0 44
0 0 44
0 0 44
0 0 44
0 0 44
0 0 44
0 0 44
0 0 44
0 0 44
0 0 44
0 0 44
0 0 44
0 0 44
0 0 44
0 0 44
0 0 44
0 0 44
0 0 44
0 0 44
0 0 44
0 0 44
0 0 44
0 0 44
0 0 44
0 0 44
0 0 44
0 0 44
0 0 44
0 0 44
0 0 44
0 0 44
0 0 44
0 0 44
0 0 44
0 0 44
0 0 44
0 0 44
0 0 44
0 0 44
0 0 44
0 0 44
0 0 44
0 0 44
0 0 44
0 0 44
0 0 44
0 0 44
0 0 44
0 0 44
0 0 44
0 0 44
0 0 44
0 0 44
0 0 44
0 0 44
0 0 44
0 0 44
0 0 44
0 0 44
0 0 44
0 0 44
0 0 44
0 0 44
0 0 44
14 21 51
47 69 97
54 80 109
56 82 111
70 103 136
68 100 133
67 98 130
62 90 120
72 105 138
72 106 140
67 99 130
65 96 127
65 96 127
69 101 134
64 94 125
63 92 123
61 90 120
68 100 133
58 86 115
66 96 128
61 89 119
65 96 127
58 86 115
54 79 107
56 82 111
58 85 114
59 86 116
52 77 105
53 78 106
34 51 76
23 35 61
14 21 51
0 0 44
0 0 44
0 0 44
0 0 44
0 0 44
0 0 44
0 0 44
0 0 44
0 0 44
0 0 44
0 0 44
0 0 44
0 0 44
0 0 44
0 0 44
0 0 44
0 0 44
0 0 44
0 0 44
0 0 44
0 0 44
0 0 44
0 0 44
0 0 44
0 0 44
0 0 44
0 0 44
0 0 44
0 0 44
0 0 44
0 0 44
0 0 44
0 0 44
0 0 44
0 0 44
0 0 44
0 0 44
0 0 44
0 0 44
0 0 44
0 0 44
0 0 44
0 0 44
0 0 44
0 0 44
0 0 44
0 0 44
0 0 44
0 0 44
0 0 44
0 0 44
0 0 44
0 0 44
0 0 44
0 0 44
0 0 44
0 0 44
0 0 44
0 0 44
0 0 44
0 0 44
0 0 44
0 0 44
0 0 44
0 0 44
0 0 44
0 0 44
0 0 44
0 0 44
0 0 44
0 0 44
0 0 44
0 0 44
0 0 44
0 0 44
0 0 44
0 0 44
0 0 44
0 0 44
0 0 44
0 0 44
0 0 44
0 0 44
0 0 44
0 0 44
0 0 44
0 0 44
0 0 44
0 0 44
0 0 44
0 0 44
0 0 44
0 0 44
0 0 44
0 0 44
0 0 44
0 0 44
0 0 44
0 0 44
0 0 44
0 0 44
0 0 44
0 0 44
0 0 44
0 0 44
0 0 44
0 0 44
0 0 44
0 0 44
0 0 44
0 0 44
0 0 44
0 0 44
0 0 44
0 0 44
0 0 44
0 0 44
0 0 44
0 0 44
0 0 44
0 0 44
0 0 44
0 0 44
0 0 44
0 0 44
0 0 44
36 54 80
54 79 108
69 101 133
67 99 131
67 98 130
75 111 145
70 103 137
70 103 136
70 103 135
76 111 146
64 94 125
65 95 126
67 99 131
62 91 121
69 102 135
69 102 135
69 101 134
71 104 138
64 94 125
65 95 126
62 92 122
63 92 123
64 94 124
57 84 113
59 87 117
58 86 115
57 84 113
58 85 114
57 84 113
56 82 111
46 68 94
55 81 110
54 80 109
49 72 99
44 64 91
20 30 57
0 0 44
0 0 44
0 0 44
0 0 44
0 0 44
0 0 44
0 0 44
0 0 44
0 0 44
0 0 44
0 0 44
0 0 44
0 0 44
0 0 44
0 0 44
0 0 44
0 0 44
0 0 44
0 0 44
0 0 44
0 0 44
0 0 44
0 0 44
0 0 44
0 0 44
0 0 44
0 0 44
0 0 44
0 0 44
0 0 44
0 0 44
0 0 44
0 0 44
0 0 44
0 0 44
0 0 44
0 0 44
0 0 44
0 0 44
0 0 44
0 0 44
0 0 44
0 0 44
0 0 44
0 0 44
0 0 44
0 0 44
0 0 44
0 0 44
0 0 44
0 0 44
0 0 44
0 0 44
0 0 44
0 0 44
0 0 44
0 0 44
0 0 44
0 0 44
0 0 44
0 0 44
0 0 44
0 0 44
0 0 44
0 0 44
0 0 44
0 0 44
0 0 44
0 0 44
0 0 44
0 0 44
0 0 44
0 0 44
0 0 44
0 0 44
0 0 44
0 0 44
0 0 44
0 0 44
0 0 44
0 0 44
0 0 44
0 0 44
0 0 44
0 0 44
0 0 44
0 0 44
0 0 44
0 0 44
0 0 44
0 0 44
0 0 44
0 0 44
0 0 44
0 0 44
0 0 44
0 0 44
0 0 44
0 0 44
0 0 44
0 0 44
0 0 44
0 0 44
0 0 44
0 0 44
0 0 44
0 0 44
0 0 44
0 0 44
0 0 44
0 0 44
0 0 44
0 0 44
0 0 44
0 0 44
0 0 44
0 0 44
0 0 44
0 0 44
0 0 44
0 0 44
14 21 51
50 74 103
65 96 128
70 103 136
73 107 140
71 104 137
72 106 140
81 119 156
74 109 144
79 115 151
70 103 137
76 110 144
67 98 130
69 101 134
68 100 132
71 104 138
69 101 134
71 105 138
69 101 134
66 96 128
69 102 135
74 109 144
62 92 122
65 95 126
61 89 119
63 92 123
64 93 124
63 92 123
61 89 119
59 87 117
54 79 107
59 87 117
49 72 99
48 71 98
55 81 110
54 80 109
54 79 107
54 79 107
46 68 94
33 49 74
26 39 65
0 0 44
0 0 44
0 0 44
0 0 44
0 0 44
0 0 44
0 0 44
0 0 44
0 0 44
0 0 44
0 0 44
0 0 44
0 0 44
0 0 44
0 0 44
0 0 44
0 0 44
0 0 44
0 0 44
0 0 44
0 0 44
0 0 44
0 0 44
0 0 44
0 0 44
0 0 44
0 0 44
0 0 44
0 0 44
0 0 44
0 0 44
0 0 44
0 0 44
0 0 44
0 0 44
0 0 44
0 0 44
0 0 44
0 0 44
0 0 44
0 0 44
18 18 47
49 49 62
71 71 78
83 83 88
96 96 101
104 104 109
89 89 95
75 75 82
50 50 63
4 4 43
0 0 44
0 0 44
0 0 44
0 0 44
0 0 44
0 0 44
0 0 44
0 0 44
0 0 44
0 0 44
0 0 44
0 0 44
0 0 44
0 0 44
0 0 44
0 0 44
0 0 44
0 0 44
0 0 44
0 0 44
0 0 44
0 0 44
0 0 44
0 0 44
0 0 44
0 0 44
0 0 44
0 0 44
0 0 44
0 0 44
0 0 44
0 0 44
0 0 44
0 0 44
0 0 44
0 0 44
0 0 44
0 0 44
0 0 44
0 0 44
0 0 44
0 0 44
0 0 44
0 0 44
0 0 44
0 0 44
0 0 44
0 0 44
0 0 44
0 0 44
0 0 44
0 0 44
0 0 44
0 0 44
0 0 44
0 0 44
0 0 44
0 0 44
0 0 44
0 0 44
0 0 44
0 0 44
0 0 44
0 0 44
0 0 44
0 0 44
0 0 44
52 76 105
67 99 131
69 102 135
76 111 145
76 111 145
76 112 147
80 117 153
71 104 138
74 108 143
78 114 150
69 101 134
71 104 138
76 111 146
78 114 149
76 112 147
69 102 135
74 109 144
74 109 144
68 100 133
76 112 147
68 100 133
68 100 132
64 94 125
71 104 138
69 102 135
71 105 138
65 95 126
66 96 128
64 93 124
72 106 139
60 88 118
63 92 123
56 83 112
64 94 126
55 81 110
54 79 107
55 80 109
53 78 106
56 83 112
48 71 98
47 70 97
52 76 104
42 62 87
31 46 72
0 0 44
0 0 44
0 0 44
0 0 44
0 0 44
0 0 44
0 0 44
0 0 44
0 0 44
0 0 44
0 0 44
0 0 44
0 0 44
0 0 44
0 0 44
0 0 44
0 0 44
0 0 44
0 0 44
0 0 44
0 0 44
0 0 44
0 0 44
0 0 44
0 0 44
0 0 44
0 0 44
0 0 44
0 0 44
0 0 44
0 0 44
0 0 44
0 0 44
0 0 44
0 0 44
0 0 44
0 0 44
26 26 50
68 68 76
105 105 107
106 106 108
123 123 124
115 115 118
134 134 136
133 133 136
128 128 131
116 116 119
111 111 114
90 90 94
61 61 68
16 16 44
0 0 44
0 0 44
0 0 44
0 0 44
0 0 44
0 0 44
0 0 44
0 0 44
0 0 44
0 0 44
0 0 44
0 0 44
0 0 44
0 0 44
0 0 44
0 0 44
0 0 44
0 0 44
0 0 44
0 0 44
0 0 44
0 0 44
0 0 44
0 0 44
0 0 44
0 0 44
0 0 44
0 0 44
0 0 44
0 0 44
0 0 44
0 0 44
0 0 44
0 0 44
0 0 44
0 0 44
0 0 44
0 0 44
0 0 44
0 0 44
0 0 44
0 0 44
0 0 44
0 0 44
0 0 44
0 0 44
0 0 44
0 0 44
0 0 44
0 0 44
0 0 44
0 0 44
0 0 44
0 0 44
0 0 44
0 0 44
0 0 44
0 0 44
0 0 44
0 0 44
0 0 44
0 0 44
0 0 44
43 63 90
69 102 135
74 109 143
74 108 142
79 116 151
70 103 137
72 106 140
72 105 139
74 109 144
82 120 156
75 111 145
72 106 140
73 108 142
78 115 150
83 122 159
78 115 151
73 108 142
77 113 148
72 106 139
74 108 143
73 107 141
70 103 137
71 104 138
69 102 135
69 102 135
68 100 133
74 109 144
67 99 131
69 102 135
69 101 133
67 99 131
66 97 129
64 93 124
63 93 124
62 92 122
56 83 112
61 90 120
53 78 106
54 80 109
50 73 100
63 92 123
53 78 106
56 83 112
47 70 97
47 70 97
52 76 104
36 54 79
28 41 66
0 0 44
0 0 44
0 0 44
0 0 44
0 0 44
0 0 44
0 0 44
0 0 44
0 0 44
0 0 44
0 0 44
0 0 44
0 0 44
0 0 44
0 0 44
0 0 44
0 0 44
0 0 44
0 0 44
0 0 44
0 0 44
0 0 44
0 0 44
0 0 44
0 0 44
0 0 44
0 0 44
0 0 44
0 0 44
0 0 44
0 0 44
0 0 44
0 0 44
0 0 44
61 60 71
96 96 99
111 111 113
122 122 124
119 119 121
131 131 133
136 136 138
130 130 132
131 131 133
123 123 126
130 130 132
113 113 116
114 114 117
102 102 105
84 84 88
22 22 38
0 0 44
0 0 44
0 0 44
0 0 44
0 0 44
0 0 44
0 0 44
0 0 44
0 0 44
0 0 44
0 0 44
0 0 44
0 0 44
0 0 44
0 0 44
0 0 44
0 0 44
0 0 44
0 0 44
0 0 44
0 0 44
0 0 44
0 0 44
0 0 44
0 0 44
0 0 44
0 0 44
0 0 44
0 0 44
0 0 44
0 0 44
0 0 44
0 0 44
0 0 44
0 0 44
0 0 44
0 0 44
0 0 44
0 0 44
0 0 44
0 0 44
0 0 44
0 0 44
0 0 44
0 0 44
0 0 44
0 0 44
0 0 44
0 0 44
0 0 44
0 0 44
0 0 44
0 0 44
0 0 44
0 0 44
0 0 44
0 0 44
0 0 44
0 0 44
0 0 44
31 46 73
62 92 123
70 102 134
76 111 145
77 113 149
81 118 154
79 116 151
79 116 151
83 121 158
78 115 150
78 114 150
83 121 158
79 115 151
81 119 155
73 108 142
80 118 154
83 122 159
71 105 138
77 113 149
76 111 146
77 112 147
82 121 158
78 115 150
75 111 145
72 106 140
76 111 146
75 110 144
77 113 149
70 103 136
69 102 135
65 95 126
66 97 129
68 100 133
69 102 135
72 106 139
62 92 122
61 90 120
63 92 123
63 92 123
59 86 116
61 90 120
65 95 126
59 86 116
54 80 109
58 85 114
54 79 107
52 76 104
48 71 98
48 71 98
44 64 90
34 51 76
16 24 53
0 0 44
0 0 44
0 0 44
0 0 44
0 0 44
0 0 44
0 0 44
0 0 44
0 0 44
0 0 44
0 0 44
0 0 44
0 0 44
0 0 44
0 0 44
0 0 44
0 0 44
0 0 44
0 0 44
0 0 44
0 0 44
0 0 44
0 0 44
0 0 44
0 0 44
0 0 44
0 0 44
0 0 44
0 0 44
0 0 44
0 0 44
62 62 71
105 105 106
119 119 120
119 119 120
120 120 122
123 123 125
139 139 141
134 134 136
132 132 134
129 129 131
130 130 132
130 130 132
136 136 138
120 120 122
116 116 119
116 116 119
95 95 99
28 28 40
0 0 43
0 0 44
0 0 44
0 0 44
0 0 44
0 0 44
0 0 44
0 0 44
0 0 44
0 0 44
0 0 44
0 0 44
0 0 44
0 0 44
0 0 44
0 0 44
0 0 44
0 0 44
0 0 44
0 0 44
0 0 44
0 0 44
0 0 44
0 0 44
0 0 44
0 0 44
0 0 44
0 0 44
0 0 44
0 0 44
0 0 44
0 0 44
0 0 44
0 0 44
0 0 44
0 0 44
0 0 44
0 0 44
0 0 44
0 0 44
0 0 44
0 0 44
0 0 44
0 0 44
0 0 44
0 0 44
0 0 44
0 0 44
0 0 44
0 0 44
0 0 44
0 0 44
0 0 44
0 0 44
0 0 44
0 0 44
0 0 44
0 0 44
53 77 106
79 115 151
78 113 148
86 126 164
81 119 156
76 112 147
80 117 153
81 119 155
84 123 160
80 118 154
78 115 150
81 119 156
81 119 155
81 119 155
80 117 153
82 120 157
83 122 159
81 119 155
83 121 158
80 117 154
79 116 152
76 111 146
78 115 150
80 118 154
82 120 157
75 110 144
72 106 140
72 106 139
77 113 149
70 103 137
78 115 150
73 108 142
67 99 131
68 100 133
68 100 133
67 98 130
67 99 131
65 96 127
59 87 117
63 92 123
68 100 133
61 89 119
59 87 117
62 91 121
57 84 113
52 77 105
52 76 104
52 77 105
53 78 106
45 66 93
46 68 94
49 72 99
41 60 86
28 41 66
0 0 44
0 0 44
0 0 44
0 0 44
0 0 44
0 0 44
0 0 44
0 0 44
0 0 44
0 0 44
0 0 44
0 0 44
0 0 44
0 0 44
0 0 44
0 0 44
0 0 44
0 0 44
0 0 44
0 0 44
0 0 44
0 0 44
0 0 44
0 0 44
0 0 44
0 0 44
0 0 44
0 0 44
0 0 44
78 78 86
104 104 106
113 113 114
114 114 115
113 113 115
112 112 113
122 122 123
134 134 135
130 130 131
130 130 131
129 129 130
129 129 130
129 129 131
135 135 137
122 122 125
116 116 118
123 123 126
128 128 132
88 88 92
16 16 33
0 0 44
0 0 44
0 0 44
0 0 44
0 0 44
0 0 44
0 0 44
0 0 44
0 0 44
0 0 44
0 0 44
0 0 44
0 0 44
0 0 44
0 0 44
0 0 44
0 0 44
0 0 44
0 0 44
0 0 44
0 0 44
0 0 44
0 0 44
0 0 44
0 0 44
0 0 44
0 0 44
0 0 44
0 0 44
0 0 44
0 0 44
0 0 44
0 0 44
0 0 44
0 0 44
0 0 44
0 0 44
0 0 44
0 0 44
0 0 44
0 0 44
0 0 44
0 0 44
0 0 44
0 0 44
0 0 44
0 0 44
0 0 44
0 0 44
0 0 44
0 0 44
0 0 44
0 0 44
0 0 44
0 0 44
32 48 74
66 97 130
78 114 150
75 110 144
73 107 141
83 121 158
81 119 155
82 120 157
79 115 151
85 124 162
84 123 161
86 127 165
83 122 160
80 117 154
78 115 150
80 117 153
86 127 165
78 114 150
79 116 152
86 126 164
81 118 155
80 118 154
80 117 154
72 106 140
84 123 161
76 112 147
76 112 147
72 106 139
74 109 144
82 120 157
74 109 144
70 103 136
72 106 139
67 99 131
68 100 133
67 99 131
66 96 128
69 102 135
70 103 136
68 100 133
65 96 127
67 99 131
66 97 129
65 96 127
64 94 125
61 89 119
59 86 116
57 84 113
52 77 105
55 81 110
53 78 106
47 70 97
48 71 98
47 70 97
47 69 96
38 56 81
38 56 82
14 21 51
0 0 44
0 0 44
0 0 44
0 0 44
0 0 44
0 0 44
0 0 44
0 0 44
0 0 44
0 0 44
0 0 44
0 0 44
0 0 44
0 0 44
0 0 44
0 0 44
0 0 44
0 0 44
0 0 44
0 0 44
0 0 44
0 0 44
0 0 44
0 0 44
0 0 44
0 0 44
41 41 58
127 127 129
109 109 111
111 111 112
107 107 108
109 109 110
115 115 116
116 116 117
123 123 124
121 121 122
132 132 134
132 132 134
138 138 139
139 139 141
133 133 135
125 125 128
127 127 129
117 117 120
128 128 132
121 121 124
66 66 70
20 20 39
0 0 44
0 0 44
0 0 44
0 0 44
0 0 44
0 0 44
0 0 44
0 0 44
0 0 44
0 0 44
0 0 44
0 0 44
0 0 44
0 0 44
0 0 44
0 0 44
0 0 44
0 0 44
0 0 44
0 0 44
0 0 44
0 0 44
0 0 44
0 0 44
0 0 44
0 0 44
0 0 44
0 0 44
0 0 44
0 0 44
0 0 44
0 0 44
0 0 44
0 0 44
0 0 44
0 0 44
0 0 44
0 0 44
0 0 44
0 0 44
0 0 44
0 0 44
0 0 44
0 0 44
0 0 44
0 0 44
0 0 44
0 0 44
0 0 44
0 0 44
0 0 44
0 0 44
0 0 44
42 62 89
77 113 148
82 120 157
80 118 154
85 124 162
79 115 150
82 121 158
81 119 156
80 118 154
88 129 167
80 117 153
90 132 171
87 127 166
78 114 150
82 121 158
82 121 158
83 122 159
79 116 152
78 115 150
82 121 158
83 122 159
76 111 146
81 119 155
83 121 158
80 117 154
80 117 154
75 111 145
78 114 150
78 115 150
69 102 135
71 105 138
74 109 144
73 107 141
70 103 136
81 119 156
70 103 136
77 113 149
72 106 140
72 106 140
66 97 129
69 102 135
69 101 134
62 91 121
67 98 130
64 93 124
68 100 133
61 89 119
56 82 111
61 89 119
51 75 103
57 84 113
51 75 103
61 89 119
51 75 103
54 79 107
50 74 102
35 52 77
41 60 86
35 52 77
29 43 68
0 0 44
0 0 44
0 0 44
0 0 44
0 0 44
0 0 44
0 0 44
0 0 44
0 0 44
0 0 44
0 0 44
0 0 44
0 0 44
0 0 44
0 0 44
0 0 44
0 0 44
0 0 44
0 0 44
0 0 44
0 0 44
0 0 44
0 0 44
0 0 44
20 20 48
105 105 109
129 129 130
133 133 134
131 131 132
115 115 116
114 114 115
119 119 120
114 114 115
124 124 125
128 128 129
128 128 129
141 141 141
138 138 139
125 125 127
139 139 140
146 146 147
135 135 137
119 119 122
120 120 124
115 115 119
94 94 98
30 30 33
6 6 41
0 0 44
0 0 44
0 0 44
0 0 44
0 0 44
0 0 44
0 0 44
0 0 44
0 0 44
0 0 44
0 0 44
0 0 44
0 0 44
0 0 44
0 0 44
0 0 44
0 0 44
0 0 44
0 0 44
0 0 44
0 0 44
0 0 44
0 0 44
0 0 44
0 0 44
0 0 44
0 0 44
0 0 44
0 0 44
0 0 44
0 0 44
0 0 44
0 0 44
0 0 44
0 0 44
0 0 44
0 0 44
0 0 44
0 0 44
0 0 44
0 0 44
0 0 44
0 0 44
0 0 44
0 0 44
0 0 44
0 0 44
0 0 44
0 0 44
0 0 44
0 0 44
50 73 101
72 106 139
80 117 154
84 124 161
85 125 163
83 121 158
85 124 161
79 115 151
86 126 164
82 120 157
83 121 158
82 121 158
86 126 164
79 116 152
86 126 164
84 124 161
84 123 161
82 121 158
81 119 156
86 126 164
88 129 168
87 128 167
83 122 159
80 117 153
84 124 161
76 111 146
86 127 165
79 115 151
80 117 153
73 107 141
67 98 130
68 100 133
75 110 144
76 111 146
78 114 150
74 108 143
74 109 144
78 115 150
66 96 128
68 100 133
72 106 139
74 109 144
72 106 140
71 104 138
65 96 127
64 93 124
64 93 124
64 93 124
61 89 120
68 100 132
60 88 118
64 93 124
52 77 105
56 83 112
49 72 99
54 80 109
54 80 109
48 71 98
39 58 83
45 66 93
38 56 81
28 41 66
0 0 44
0 0 44
0 0 44
0 0 44
0 0 44
0 0 44
0 0 44
0 0 44
0 0 44
0 0 44
0 0 44
0 0 44
0 0 44
0 0 44
0 0 44
0 0 44
0 0 44
0 0 44
0 0 44
0 0 44
0 0 44
0 0 44
0 0 44
55 55 68
124 124 125
132 132 133
135 135 136
124 124 124
118 118 119
121 121 122
126 126 126
119 119 120
126 126 127
131 131 132
131 131 132
125 125 126
124 124 125
122 122 124
108 108 109
122 122 123
135 135 137
133 133 135
125 125 128
122 122 126
111 111 115
60 60 63
17 17 35
0 0 44
0 0 44
0 0 44
0 0 44
0 0 44
0 0 44
0 0 44
0 0 44
0 0 44
0 0 44
0 0 44
0 0 44
0 0 44
0 0 44
0 0 44
0 0 44
0 0 44
0 0 44
0 0 44
0 0 44
0 0 44
0 0 44
0 0 44
0 0 44
0 0 44
0 0 44
0 0 44
0 0 44
0 0 44
0 0 44
0 0 44
0 0 44
0 0 44
0 0 44
0 0 44
0 0 44
0 0 44
0 0 44
0 0 44
0 0 44
0 0 44
0 0 44
0 0 44
0 0 44
0 0 44
0 0 44
0 0 44
0 0 44
0 0 44
11 17 49
60 88 119
77 112 146
80 117 154
82 120 157
84 123 161
87 128 167
87 127 166
82 120 157
86 126 164
85 124 162
82 121 158
84 124 161
87 128 167
82 121 158
86 126 165
86 127 165
85 125 163
80 118 154
83 122 160
84 123 161
86 127 165
83 121 158
83 122 159
82 121 158
81 119 156
83 122 160
78 114 150
78 114 150
78 114 149
78 115 150
80 118 154
82 121 158
81 119 155
78 115 150
80 117 153
76 112 147
73 108 142
78 114 149
73 108 142
76 111 146
68 100 133
67 99 131
69 102 135
67 98 130
72 106 140
74 109 144
63 92 123
56 82 111
60 88 118
65 96 127
61 89 119
61 89 119
62 91 121
62 92 122
59 87 117
53 78 107
49 72 99
52 77 104
44 64 90
44 64 90
46 68 94
42 62 87
29 43 66
25 37 62
8 12 46
0 0 44
0 0 44
0 0 44
0 0 44
0 0 44
0 0 44
0 0 44
0 0 44
0 0 44
0 0 44
0 0 44
0 0 44
0 0 44
0 0 44
0 0 44
0 0 44
0 0 44
0 0 44
0 0 44
0 0 44
0 0 44
97 97 102
124 124 125
128 128 129
121 121 122
117 117 117
114 114 114
121 121 121
120 120 121
134 134 135
134 134 135
132 132 132
123 123 124
128 128 129
124 124 124
121 121 122
127 127 128
135 135 136
121 121 123
126 126 128
114 114 118
108 108 112
112 112 116
87 87 91
20 20 25
0 0 44
0 0 44
0 0 44
0 0 44
0 0 44
0 0 44
0 0 44
0 0 44
0 0 44
0 0 44
0 0 44
0 0 44
0 0 44
0 0 44
0 0 44
0 0 44
0 0 44
0 0 44
0 0 44
0 0 44
0 0 44
0 0 44
0 0 44
0 0 44
0 0 44
0 0 44
0 0 44
0 0 44
0 0 44
0 0 44
0 0 44
0 0 44
0 0 44
0 0 44
0 0 44
0 0 44
0 0 44
0 0 44
0 0 44
0 0 44
0 0 44
0 0 44
0 0 44
0 0 44
0 0 44
0 0 44
0 0 44
0 0 44
16 24 54
63 91 122
78 113 149
87 128 167
83 121 158
94 138 179
85 125 163
86 126 164
88 129 167
90 132 171
91 133 173
81 119 156
84 124 162
80 117 154
86 126 164
86 127 165
88 129 168
87 127 166
85 125 163
83 121 158
86 126 164
83 122 160
87 127 166
83 122 159
84 124 161
75 111 145
87 128 167
84 123 161
83 121 158
82 121 158
80 118 154
83 122 159
86 126 164
75 111 145
75 110 144
82 121 158
73 107 141
76 112 147
74 109 143
76 111 146
80 118 154
72 106 140
78 115 150
78 115 150
74 108 143
67 99 131
70 103 137
69 101 134
71 104 138
64 93 124
64 94 125
65 96 127
58 86 115
64 93 124
62 91 121
56 83 112
60 88 118
57 84 113
56 83 112
51 75 103
52 76 104
52 77 105
53 78 106
44 64 90
39 58 83
38 56 81
33 49 74
8 12 46
0 0 44
0 0 44
0 0 44
0 0 44
0 0 44
0 0 44
0 0 44
0 0 44
0 0 44
0 0 44
0 0 44
0 0 44
0 0 44
0 0 44
0 0 44
0 0 44
0 0 44
0 0 44
0 0 44
11 11 45
122 122 123
119 119 120
126 126 126
117 117 118
119 119 120
118 118 119
127 127 128
123 123 124
133 133 134
137 137 137
131 131 132
135 135 136
134 134 135
127 127 128
122 122 123
121 121 122
129 129 131
132 132 134
138 138 140
140 140 142
135 135 137
108 108 111
91 91 95
33 33 35
0 0 40
0 0 44
0 0 44
0 0 44
0 0 44
0 0 44
0 0 44
0 0 44
0 0 44
0 0 44
0 0 44
0 0 44
0 0 44
0 0 44
0 0 44
0 0 44
0 0 44
0 0 44
0 0 44
0 0 44
0 0 44
0 0 44
0 0 44
0 0 44
0 0 44
0 0 44
0 0 44
0 0 44
0 0 44
0 0 44
0 0 44
0 0 44
0 0 44
0 0 44
0 0 44
0 0 44
0 0 44
0 0 44
0 0 44
0 0 44
0 0 44
0 0 44
0 0 44
0 0 44
0 0 44
0 0 44
0 0 44
8 12 46
68 99 132
81 119 155
89 131 170
87 128 167
84 124 161
84 123 161
88 128 167
83 122 159
80 117 153
85 125 163
88 129 167
87 128 167
85 125 163
82 120 157
88 130 169
88 129 168
94 137 178
86 126 164
87 128 167
88 129 168
90 132 171
82 121 158
85 125 163
84 123 161
81 119 156
84 124 161
81 119 156
85 125 163
79 116 152
81 119 155
83 122 160
76 112 147
85 125 163
77 113 148
81 119 155
78 114 150
86 126 164
78 115 151
77 113 149
78 115 150
80 118 154
76 112 147
70 103 136
67 99 131
77 113 149
70 103 136
68 100 133
70 103 137
73 107 141
67 99 131
66 96 128
68 100 132
65 96 127
64 93 124
59 86 116
55 81 110
58 85 114
53 78 106
58 85 114
52 77 105
52 77 105
52 76 104
55 81 110
43 63 89
31 46 70
44 64 90
42 62 87
25 37 62
0 0 44
0 0 44
0 0 44
0 0 44
0 0 44
0 0 44
0 0 44
0 0 44
0 0 44
0 0 44
0 0 44
0 0 44
0 0 44
0 0 44
0 0 44
0 0 44
0 0 44
0 0 44
0 0 44
40 40 58
119 120 122
121 121 122
116 116 117
117 117 118
110 110 111
113 113 114
115 115 115
123 123 123
131 131 132
133 133 134
130 130 131
134 134 135
136 136 137
139 139 140
136 136 137
134 134 135
135 135 137
137 137 139
139 139 140
121 121 123
128 128 131
124 124 127
107 107 111
46 46 48
15 15 38
0 0 44
0 0 44
0 0 44
0 0 44
0 0 44
0 0 44
0 0 44
0 0 44
0 0 44
0 0 44
0 0 44
0 0 44
0 0 44
0 0 44
0 0 44
0 0 44
0 0 44
0 0 44
0 0 44
0 0 44
0 0 44
0 0 44
0 0 44
0 0 44
0 0 44
0 0 44
0 0 44
0 0 44
0 0 44
0 0 44
0 0 44
0 0 44
0 0 44
0 0 44
0 0 44
0 0 44
0 0 44
0 0 44
0 0 44
0 0 44
0 0 44
0 0 44
0 0 44
0 0 44
0 0 44
11 17 49
62 91 122
84 123 161
83 121 158
88 129 167
94 138 179
87 127 166
87 128 167
89 131 170
94 138 179
91 133 173
91 134 174
88 129 167
93 137 177
88 130 169
87 128 167
90 132 172
89 131 170
94 138 179
89 130 170
87 127 166
86 126 164
91 133 173
85 125 163
84 124 161
87 127 166
81 119 155
89 130 170
80 117 153
83 121 158
80 118 154
83 122 159
84 123 161
83 121 159
85 125 163
76 112 147
79 115 151
80 117 154
75 110 144
74 108 143
74 109 144
76 111 146
83 121 158
76 112 147
77 113 149
75 110 144
73 108 142
70 103 137
73 108 142
72 106 139
70 103 136
67 99 131
65 96 127
73 107 141
68 100 133
66 96 128
55 81 110
58 86 116
59 87 117
54 79 107
57 84 113
56 82 111
55 81 110
56 83 112
54 80 109
45 66 93
44 64 90
52 77 105
50 73 100
39 58 83
32 48 73
0 0 44
0 0 44
0 0 44
0 0 44
0 0 44
0 0 44
0 0 44
0 0 44
0 0 44
0 0 44
0 0 44
0 0 44
0 0 44
0 0 44
0 0 44
0 0 44
0 0 44
0 0 44
50 50 64
116 117 118
119 119 120
122 122 123
118 118 119
118 118 119
125 125 125
128 128 129
130 130 130
129 129 130
138 138 138
131 131 132
136 136 136
140 140 141
131 131 132
131 131 132
132 132 134
153 153 155
156 156 158
131 131 133
121 121 124
121 121 124
124 124 128
120 120 123
40 40 44
14 14 35
0 0 44
0 0 44
0 0 44
0 0 44
0 0 44
0 0 44
0 0 44
0 0 44
0 0 44
0 0 44
0 0 44
0 0 44
0 0 44
0 0 44
0 0 44
0 0 44
0 0 44
0 0 44
0 0 44
0 0 44
0 0 44
0 0 44
0 0 44
0 0 44
0 0 44
0 0 44
0 0 44
0 0 44
0 0 44
0 0 44
0 0 44
0 0 44
0 0 44
0 0 44
0 0 44
0 0 44
0 0 44
0 0 44
0 0 44
0 0 44
0 0 44
0 0 44
0 0 44
0 0 44
0 0 44
67 99 132
84 123 161
88 129 168
83 121 158
88 130 169
88 128 167
90 131 170
91 133 173
88 129 168
86 126 164
89 131 170
90 132 172
92 135 175
92 135 175
91 133 173
92 136 176
89 130 169
86 126 164
92 134 175
90 133 172
86 126 164
89 130 169
88 130 169
87 128 167
84 123 161
80 117 153
84 123 161
91 134 174
87 127 166
88 129 168
80 118 154
87 128 167
83 122 160
80 117 153
85 125 163
85 124 162
79 116 152
79 115 151
83 122 159
78 115 150
80 118 154
74 108 143
74 109 144
78 114 149
79 116 152
75 110 144
74 108 143
76 112 147
68 100 132
76 111 146
67 99 131
69 102 135
61 90 120
73 108 142
58 86 115
72 106 139
58 85 114
63 92 123
54 79 108
62 91 121
61 89 119
60 88 118
52 76 104
58 86 115
54 79 107
47 70 97
52 76 104
41 60 86
49 72 99
40 59 84
33 49 73
20 30 56
0 0 44
0 0 44
0 0 44
0 0 44
0 0 44
0 0 44
0 0 44
0 0 44
0 0 44
0 0 44
0 0 44
0 0 44
0 0 44
0 0 44
0 0 44
0 0 44
0 0 44
45 45 61
100 101 103
110 110 111
113 113 113
118 118 119
126 126 127
132 132 132
128 128 129
136 136 136
135 135 135
135 135 136
138 138 139
142 142 143
138 138 139
140 140 141
132 132 133
137 137 138
140 140 142
140 140 142
134 134 136
123 123 126
126 126 129
114 114 118
120 120 125
61 61 64
17 17 38
0 0 44
0 0 44
0 0 44
0 0 44
0 0 44
0 0 44
0 0 44
0 0 44
0 0 44
0 0 44
0 0 44
0 0 44
0 0 44
0 0 44
0 0 44
0 0 44
0 0 44
0 0 44
0 0 44
0 0 44
0 0 44
0 0 44
0 0 44
0 0 44
0 0 44
0 0 44
0 0 44
0 0 44
0 0 44
0 0 44
0 0 44
0 0 44
0 0 44
0 0 44
0 0 44
0 0 44
0 0 44
0 0 44
0 0 44
0 0 44
0 0 44
0 0 44
0 0 44
0 0 44
51 75 104
87 127 166
87 128 167
87 127 166
93 136 177
90 132 172
88 129 168
95 140 181
88 130 169
85 125 163
92 136 176
91 133 173
94 138 179
94 137 178
93 137 177
94 137 178
91 133 173
84 124 161
86 127 165
88 130 169
91 134 174
88 129 168
89 130 170
89 130 170
94 138 179
85 125 163
80 117 153
89 131 170
94 137 178
86 126 164
87 128 167
85 124 162
83 122 159
84 124 161
85 125 163
86 126 164
86 126 164
82 121 158
84 123 160
80 117 153
77 113 148
87 128 167
77 113 149
79 115 151
70 103 137
73 108 142
77 113 148
77 113 148
71 104 138
70 103 137
79 115 151
69 101 133
70 103 136
70 103 136
70 103 137
65 96 127
68 100 132
68 100 133
64 93 124
61 90 120
62 92 122
61 90 120
57 84 113
52 76 104
57 84 113
47 69 95
52 76 104
54 80 109
41 60 86
46 68 94
48 71 98
38 56 81
41 60 86
22 32 58
0 0 44
0 0 44
0 0 44
0 0 44
0 0 44
0 0 44
0 0 44
0 0 44
0 0 44
0 0 44
0 0 44
0 0 44
0 0 44
0 0 44
0 0 44
0 0 44
36 37 57
110 110 112
117 117 117
119 119 120
113 113 114
117 117 118
120 120 120
119 119 120
127 127 128
128 128 129
129 129 130
135 135 136
143 143 143
132 132 133
126 126 127
126 126 128
125 125 127
147 147 149
152 152 154
139 139 142
122 122 125
116 116 119
98 98 102
109 109 113
29 29 33
11 11 35
0 0 44
0 0 44
0 0 44
0 0 44
0 0 44
0 0 44
0 0 44
0 0 44
0 0 44
0 0 44
0 0 44
0 0 44
0 0 44
0 0 44
0 0 44
0 0 44
0 0 44
0 0 44
0 0 44
0 0 44
0 0 44
0 0 44
0 0 44
0 0 44
0 0 44
0 0 44
0 0 44
0 0 44
0 0 44
0 0 44
0 0 44
0 0 44
0 0 44
0 0 44
0 0 44
0 0 44
0 0 44
0 0 44
0 0 44
0 0 44
0 0 44
0 0 44
0 0 44
48 71 99
82 120 157
87 128 166
86 126 164
87 127 166
87 128 167
91 133 173
92 135 175
93 136 177
93 136 177
94 138 179
90 132 171
92 135 175
92 136 176
90 132 172
88 130 169
94 138 179
95 140 181
90 132 171
90 133 172
90 132 171
91 134 174
89 131 170
90 132 172
83 122 159
93 137 177
85 125 163
89 130 170
94 137 178
83 121 158
88 129 167
90 133 172
84 124 161
88 130 169
83 121 158
80 118 154
83 122 159
75 111 145
85 125 163
78 114 150
82 120 157
79 116 152
83 121 159
79 116 152
82 121 158
76 111 146
72 105 139
58 85 115
65 95 127
69 102 135
73 107 141
74 108 143
76 111 146
71 105 138
61 90 120
68 100 133
66 96 128
66 96 128
67 98 130
58 86 115
67 99 131
64 93 124
55 81 110
58 86 115
57 84 113
61 89 119
52 77 105
59 86 116
52 76 104
49 72 99
51 75 103
44 65 91
44 65 91
34 51 75
29 43 67
16 24 53
0 0 44
0 0 44
0 0 44
0 0 44
0 0 44
0 0 44
0 0 44
0 0 44
0 0 44
0 0 44
0 0 44
0 0 44
0 0 44
0 0 44
0 0 44
0 0 44
106 107 110
109 109 110
120 120 121
120 120 120
119 119 120
119 119 120
128 128 129
127 127 128
126 126 126
130 130 131
127 127 128
128 128 128
123 123 124
121 121 122
124 124 125
130 130 131
159 159 160
155 155 157
131 131 133
124 124 127
124 124 127
105 105 109
100 100 103
22 22 24
14 14 42
0 0 44
0 0 44
0 0 44
0 0 44
0 0 44
0 0 44
0 0 44
0 0 44
0 0 44
0 0 44
0 0 44
0 0 44
0 0 44
0 0 44
0 0 44
0 0 44
0 0 44
0 0 44
0 0 44
0 0 44
0 0 44
0 0 44
0 0 44
0 0 44
0 0 44
0 0 44
0 0 44
0 0 44
0 0 44
0 0 44
0 0 44
0 0 44
0 0 44
0 0 44
0 0 44
0 0 44
0 0 44
0 0 44
0 0 44
0 0 44
0 0 44
0 0 44
26 39 66
79 115 151
86 126 164
86 126 164
87 128 167
87 127 165
91 134 174
89 131 170
90 132 172
97 142 184
93 136 177
95 139 180
92 135 175
96 141 182
94 137 178
92 134 175
91 134 174
93 136 177
92 136 176
90 132 171
94 138 179
92 135 175
93 137 177
94 137 178
90 132 172
90 132 171
92 135 175
87 128 167
85 125 163
88 130 169
86 127 165
88 129 167
85 124 162
86 126 164
90 133 172
89 131 170
80 117 153
90 132 172
87 127 166
77 114 149
83 122 160
80 117 154
86 126 164
82 121 158
79 115 151
80 117 153
74 109 144
32 45 75
17 22 53
20 26 58
61 89 121
71 104 138
77 113 148
75 110 144
67 98 130
72 106 140
73 107 141
67 98 130
74 109 144
60 88 118
67 99 131
61 90 120
58 85 114
54 79 107
62 92 122
58 86 115
51 75 103
58 85 114
51 75 103
56 83 112
49 72 99
52 76 104
50 73 100
52 76 104
44 65 91
36 54 78
32 48 72
8 12 46
0 0 44
0 0 44
0 0 44
0 0 44
0 0 44
0 0 44
0 0 44
0 0 44
0 0 44
0 0 44
0 0 44
0 0 44
0 0 44
0 0 44
0 0 44
88 89 94
115 115 116
121 121 122
120 120 121
124 124 124
120 120 120
117 117 118
127 127 127
132 132 133
127 127 127
120 120 121
113 113 114
117 117 118
116 116 117
122 122 124
143 143 145
145 145 147
137 137 139
134 134 136
140 140 143
116 116 119
98 98 101
76 76 79
21 21 27
0 0 44
0 0 44
0 0 44
0 0 44
0 0 44
0 0 44
0 0 44
0 0 44
0 0 44
0 0 44
0 0 44
0 0 44
0 0 44
0 0 44
0 0 44
0 0 44
0 0 44
0 0 44
0 0 44
0 0 44
0 0 44
0 0 44
0 0 44
0 0 44
0 0 44
0 0 44
0 0 44
0 0 44
0 0 44
0 0 44
0 0 44
0 0 44
0 0 44
0 0 44
0 0 44
0 0 44
0 0 44
0 0 44
0 0 44
0 0 44
0 0 44
0 0 44
0 0 44
77 113 149
84 123 160
90 132 171
83 122 160
89 130 170
94 138 179
95 139 181
90 132 171
89 131 170
95 139 181
98 144 186
88 129 168
91 134 174
95 139 180
92 135 175
91 134 174
96 141 183
87 128 167
90 132 171
96 141 183
88 129 168
94 137 178
93 137 177
88 129 167
86 126 164
88 130 169
91 134 174
91 133 173
92 136 176
84 124 161
88 130 169
90 132 171
88 129 168
90 133 172
83 122 159
82 121 158
86 126 164
83 121 158
89 130 170
82 121 158
86 126 164
77 113 148
81 119 155
82 120 157
80 117 153
82 121 158
54 79 109
18 23 56
18 23 56
17 21 52
18 24 55
64 94 126
77 113 148
67 98 130
69 102 135
71 104 137
68 100 133
70 103 137
73 107 141
57 84 113
68 99 131
65 96 127
66 97 129
59 86 116
55 81 110
61 90 120
56 82 111
62 91 121
52 77 105
55 81 110
55 81 110
50 73 100
48 71 98
48 71 98
43 63 89
44 64 90
39 58 83
30 44 69
0 0 44
0 0 44
0 0 44
0 0 44
0 0 44
0 0 44
0 0 44
0 0 44
0 0 44
0 0 44
0 0 44
0 0 44
0 0 44
0 0 44
0 0 44
55 55 67
105 106 109
114 114 115
119 119 119
119 119 120
125 125 126
124 124 124
128 128 129
120 120 121
120 120 121
116 116 117
119 119 120
109 109 110
117 117 118
126 126 128
139 139 141
151 151 153
142 142 144
131 131 133
143 143 146
124 124 127
93 93 96
57 57 60
13 13 33
0 0 44
0 0 44
0 0 44
0 0 44
0 0 44
0 0 44
0 0 44
0 0 44
0 0 44
0 0 44
0 0 44
0 0 44
0 0 44
0 0 44
0 0 44
0 0 44
0 0 44
0 0 44
0 0 44
0 0 44
0 0 44
0 0 44
0 0 44
0 0 44
0 0 44
0 0 44
0 0 44
0 0 44
0 0 44
0 0 44
0 0 44
0 0 44
0 0 44
0 0 44
0 0 44
0 0 44
0 0 44
0 0 44
0 0 44
0 0 44
0 0 44
0 0 44
59 86 117
83 122 159
91 133 173
91 133 172
92 135 175
94 138 179
93 136 177
90 132 172
95 139 181
94 138 179
96 141 182
92 134 175
94 137 178
91 133 173
95 139 181
96 141 182
90 133 172
95 139 181
93 136 177
88 130 169
90 132 172
89 131 170
97 143 185
93 137 178
95 139 180
90 132 171
94 138 179
91 133 173
86 126 164
88 129 168
87 127 166
90 133 172
88 130 169
87 128 167
85 125 163
91 134 174
86 127 165
84 123 161
81 119 155
82 121 157
85 124 162
83 122 159
85 124 162
82 121 158
81 119 155
74 109 144
82 120 157
33 46 76
18 24 56
18 23 55
17 22 53
17 22 52
32 46 74
76 112 147
73 107 141
71 104 137
70 103 136
75 110 144
74 109 144
66 97 129
69 101 134
63 92 123
62 91 122
66 96 128
65 96 127
58 86 115
55 81 110
52 77 105
56 82 111
59 86 116
57 84 113
53 78 106
50 74 102
52 76 104
43 63 89
47 70 97
47 70 97
42 62 87
38 56 81
18 27 54
0 0 44
0 0 44
0 0 44
0 0 44
0 0 44
0 0 44
0 0 44
0 0 44
0 0 44
0 0 44
0 0 44
0 0 44
0 0 44
0 0 44
9 9 45
98 98 102
110 111 112
103 103 105
120 120 121
123 123 124
141 141 141
125 125 125
117 117 118
114 114 115
108 108 109
120 120 120
110 110 111
112 112 113
116 116 117
128 128 130
140 140 142
130 130 132
120 120 123
127 127 130
114 114 117
82 82 85
34 34 37
3 3 42
0 0 44
0 0 44
0 0 44
0 0 44
0 0 44
0 0 44
0 0 44
0 0 44
0 0 44
0 0 44
0 0 44
0 0 44
0 0 44
0 0 44
0 0 44
0 0 44
0 0 44
0 0 44
0 0 44
0 0 44
0 0 44
0 0 44
0 0 44
0 0 44
0 0 44
0 0 44
0 0 44
0 0 44
0 0 44
0 0 44
0 0 44
0 0 44
0 0 44
0 0 44
0 0 44
0 0 44
0 0 44
0 0 44
0 0 44
0 0 44
0 0 44
36 54 81
82 120 157
83 122 160
90 132 172
95 139 180
95 139 181
94 137 178
89 130 170
90 133 172
97 142 184
97 142 184
95 140 181
95 140 181
97 142 184
97 142 184
87 128 167
97 142 184
97 143 185
94 138 179
90 133 172
93 136 177
92 134 175
91 133 173
94 138 179
94 138 179
94 137 178
90 132 172
93 137 177
89 130 170
92 134 175
88 129 168
92 134 175
88 130 169
87 127 166
87 128 167
88 129 168
88 129 167
88 129 168
87 128 167
86 126 164
86 126 164
84 124 161
85 125 163
76 112 147
85 124 162
75 111 145
78 115 150
69 101 135
18 23 55
18 23 56
17 22 53
17 22 53
17 22 53
16 21 51
62 90 122
71 105 138
75 111 145
75 110 144
70 103 137
73 108 142
70 103 136
71 104 138
70 103 136
64 93 124
66 96 128
60 88 118
54 80 109
54 78 108
50 74 102
60 88 118
58 85 114
58 86 115
52 76 104
51 75 103
54 79 107
48 71 98
41 60 86
43 63 89
41 60 86
31 46 70
33 49 74
11 17 48
0 0 44
0 0 44
0 0 44
0 0 44
0 0 44
0 0 44
0 0 44
0 0 44
0 0 44
0 0 44
0 0 44
0 0 44
0 0 44
0 0 44
49 49 64
99 100 102
117 117 119
117 117 118
113 113 114
113 113 113
110 110 111
118 118 118
110 110 111
108 108 109
107 107 108
99 99 100
102 102 103
114 114 115
122 122 124
127 127 129
119 119 122
117 117 120
117 117 120
102 102 106
55 55 58
16 16 37
0 0 44
0 0 44
0 0 44
0 0 44
0 0 44
0 0 44
0 0 44
0 0 44
0 0 44
0 0 44
0 0 44
0 0 44
0 0 44
0 0 44
0 0 44
0 0 44
0 0 44
0 0 44
0 0 44
0 0 44
0 0 44
0 0 44
0 0 44
0 0 44
0 0 44
0 0 44
0 0 44
0 0 44
0 0 44
0 0 44
0 0 44
0 0 44
0 0 44
0 0 44
0 0 44
0 0 44
0 0 44
0 0 44
0 0 44
0 0 44
0 0 44
8 12 47
74 109 143
87 127 166
95 139 179
91 133 173
92 136 176
94 137 178
95 139 180
92 135 175
98 144 186
97 142 184
98 144 186
98 143 186
98 144 187
92 134 175
94 138 179
98 143 186
97 142 184
96 141 182
90 132 171
95 139 180
94 137 178
94 138 179
96 141 182
97 142 183
92 134 175
91 134 174
92 134 175
96 141 183
88 129 167
92 135 175
91 134 174
89 131 170
91 134 174
89 131 170
90 133 172
82 121 158
90 132 172
86 127 165
86 127 165
91 133 173
88 129 168
86 126 164
82 121 158
80 117 154
78 114 150
83 121 158
89 131 170
63 92 125
18 24 57
18 24 56
17 23 55
17 23 54
18 23 56
16 21 50
49 71 100
73 107 141
77 113 148
78 114 150
72 106 139
79 115 151
71 104 137
69 101 134
70 103 137
72 106 140
60 88 118
62 91 121
63 92 123
29 41 66
23 33 57
55 81 110
60 88 118
64 93 124
54 79 107
60 88 118
50 73 100
47 70 97
45 66 93
41 60 86
38 56 81
42 62 87
36 54 78
31 46 71
8 12 47
0 0 44
0 0 44
0 0 44
0 0 44
0 0 44
0 0 44
0 0 44
0 0 44
0 0 44
0 0 44
0 0 44
0 0 44
0 0 44
0 0 44
70 70 78
116 116 118
121 121 122
101 101 103
100 100 101
114 114 115
109 109 110
109 109 110
112 112 113
102 102 103
104 104 105
100 100 102
116 116 117
117 117 120
128 128 130
109 109 112
110 110 114
111 111 115
88 88 91
19 19 32
0 0 44
0 0 44
0 0 44
0 0 44
0 0 44
0 0 44
0 0 44
0 0 44
0 0 44
0 0 44
0 0 44
0 0 44
0 0 44
0 0 44
0 0 44
0 0 44
0 0 44
0 0 44
0 0 44
0 0 44
0 0 44
0 0 44
0 0 44
0 0 44
0 0 44
0 0 44
0 0 44
0 0 44
0 0 44
0 0 44
0 0 44
0 0 44
0 0 44
0 0 44
0 0 44
0 0 44
0 0 44
0 0 44
0 0 44
0 0 44
0 0 44
0 0 44
53 78 108
90 132 172
87 128 167
97 142 184
90 133 172
93 136 177
97 143 185
91 133 173
95 140 181
95 140 181
93 137 177
95 139 180
100 146 189
95 139 180
95 139 181
98 143 186
99 145 187
102 149 193
98 144 187
97 143 185
97 142 184
92 135 175
91 133 173
94 138 179
92 134 175
96 141 183
92 135 175
90 132 172
95 139 181
92 135 175
92 134 175
92 134 175
88 129 168
90 132 172
95 139 180
90 133 172
90 132 171
91 133 173
85 125 163
91 134 174
80 117 154
85 125 163
80 117 153
89 130 170
81 119 156
80 117 154
79 115 151
82 120 157
52 75 107
21 27 64
32 44 75
57 84 114
20 27 58
17 22 53
16 21 51
26 36 64
77 113 148
67 99 131
76 112 147
71 104 138
68 100 133
69 101 134
68 100 132
71 105 138
62 91 121
68 100 132
64 93 124
60 88 118
26 38 61
13 17 43
41 60 87
58 85 114
60 88 118
45 66 92
52 77 105
50 73 100
47 69 95
47 69 95
50 73 100
33 49 73
40 58 83
33 49 73
38 56 81
8 12 45
0 0 44
0 0 44
0 0 44
0 0 44
0 0 44
0 0 44
0 0 44
0 0 44
0 0 44
0 0 44
0 0 44
0 0 44
0 0 44
0 0 44
0 0 44
88 88 95
110 110 112
111 111 113
112 113 115
116 117 118
108 108 109
111 111 112
113 113 115
119 119 121
113 113 115
108 108 110
110 110 112
105 105 107
110 110 112
104 104 107
107 107 110
93 93 97
44 44 52
0 0 43
0 0 44
0 0 44
0 0 44
0 0 44
0 0 44
0 0 44
0 0 44
0 0 44
0 0 44
0 0 44
0 0 44
0 0 44
0 0 44
0 0 44
0 0 44
0 0 44
0 0 44
0 0 44
0 0 44
0 0 44
0 0 44
0 0 44
0 0 44
0 0 44
0 0 44
0 0 44
0 0 44
0 0 44
0 0 44
0 0 44
0 0 44
0 0 44
0 0 44
0 0 44
0 0 44
0 0 44
0 0 44
0 0 44
0 0 44
0 0 44
0 0 44
16 24 54
86 126 165
90 132 171
94 138 179
88 129 168
95 139 180
97 142 184
88 130 169
98 144 187
90 133 172
93 136 177
97 143 185
95 139 181
98 144 186
101 147 191
96 141 183
94 138 179
97 142 184
83 121 160
85 125 165
91 134 174
97 143 185
94 138 179
95 140 181
93 137 177
93 136 177
98 143 186
93 136 177
90 132 172
93 136 177
95 139 181
93 136 177
94 138 179
92 136 176
92 134 175
91 134 174
87 128 167
86 127 165
85 125 163
78 115 150
88 129 168
83 122 160
83 122 159
83 122 160
84 123 161
81 118 155
81 119 155
86 125 163
81 119 155
47 68 99
18 23 55
58 84 115
82 121 158
46 67 96
18 24 57
19 24 58
17 22 53
71 104 138
73 108 142
78 115 150
76 112 147
74 109 144
73 108 142
67 99 131
68 100 132
66 96 128
67 99 131
72 106 139
64 94 125
24 33 60
14 18 44
28 40 65
61 90 120
52 77 105
65 95 126
53 78 106
52 77 105
52 76 104
46 68 94
46 68 94
42 62 87
44 64 90
26 39 63
37 55 80
22 32 57
0 0 44
0 0 44
0 0 44
0 0 44
0 0 44
0 0 44
0 0 44
0 0 44
0 0 44
0 0 44
0 0 44
0 0 44
0 0 44
0 0 44
0 0 44
0 0 44
50 51 65
100 101 104
109 109 111
107 107 110
123 123 125
108 108 110
121 121 123
122 122 124
117 117 119
117 117 119
110 110 112
110 110 113
115 115 118
98 98 103
77 77 81
21 21 39
0 0 44
0 0 44
0 0 44
0 0 44
0 0 44
0 0 44
0 0 44
0 0 44
0 0 44
0 0 44
0 0 44
0 0 44
0 0 44
0 0 44
0 0 44
0 0 44
0 0 44
0 0 44
0 0 44
0 0 44
0 0 44
0 0 44
0 0 44
0 0 44
0 0 44
0 0 44
0 0 44
0 0 44
0 0 44
0 0 44
0 0 44
0 0 44
0 0 44
0 0 44
0 0 44
0 0 44
0 0 44
0 0 44
0 0 44
0 0 44
0 0 44
0 0 44
0 0 44
57 84 114
86 127 165
90 132 171
94 137 178
95 139 181
95 140 181
97 143 185
93 137 177
99 145 188
98 143 186
98 143 186
98 144 187
94 138 179
95 140 181
95 139 181
99 145 188
89 131 171
49 70 104
22 29 69
22 29 68
75 109 148
92 135 175
96 141 183
101 148 191
97 142 184
96 141 182
98 143 185
93 136 177
94 138 179
94 138 179
95 139 181
95 140 181
93 137 177
92 135 176
97 142 185
93 136 177
89 130 170
91 133 173
86 126 164
92 134 175
85 125 162
87 128 166
92 134 175
88 130 169
84 124 162
87 128 166
85 124 162
79 116 152
80 118 154
37 53 84
20 26 61
75 110 145
79 115 151
64 93 126
18 23 56
17 22 54
18 24 57
66 97 130
79 116 152
80 117 153
71 105 138
74 108 143
68 99 131
71 104 137
64 94 125
74 108 142
69 102 135
68 100 132
66 96 128
33 47 73
13 17 41
21 30 52
60 88 118
61 89 119
60 88 118
55 81 110
60 88 118
44 64 90
52 77 105
42 62 87
51 75 103
38 56 81
44 65 91
35 52 77
29 43 66
23 35 61
0 0 44
0 0 44
0 0 44
0 0 44
0 0 44
0 0 44
0 0 44
0 0 44
0 0 44
0 0 44
0 0 44
0 0 44
0 0 44
0 0 44
0 0 44
0 0 44
26 26 51
73 73 81
93 93 97
108 108 111
124 124 126
119 119 122
120 120 123
120 120 123
104 104 107
101 101 104
99 99 103
95 95 100
64 64 72
14 14 42
0 0 44
0 0 44
0 0 44
0 0 44
0 0 44
0 0 44
0 0 44
0 0 44
0 0 44
0 0 44
0 0 44
0 0 44
0 0 44
0 0 44
0 0 44
0 0 44
0 0 44
0 0 44
0 0 44
0 0 44
0 0 44
0 0 44
0 0 44
0 0 44
0 0 44
0 0 44
0 0 44
0 0 44
0 0 44
0 0 44
0 0 44
0 0 44
0 0 44
0 0 44
0 0 44
0 0 44
0 0 44
0 0 44
0 0 44
0 0 44
0 0 44
0 0 44
0 0 44
14 21 51
77 112 147
85 125 163
94 138 179
94 137 178
95 139 180
100 147 190
96 141 182
97 143 185
98 144 186
98 144 187
97 143 185
99 145 188
94 138 179
93 137 177
97 142 184
94 138 180
38 54 89
22 28 67
22 28 66
23 29 69
52 76 109
96 141 183
92 136 176
95 139 180
97 142 184
96 141 183
98 143 186
88 129 168
93 136 177
94 137 178
94 138 179
97 143 185
94 137 178
91 133 173
95 139 180
91 133 173
92 135 175
85 124 162
85 125 163
89 130 170
88 130 169
88 130 169
90 132 171
87 128 167
85 125 163
88 129 168
79 116 152
81 118 155
80 117 153
24 33 66
29 41 71
84 124 162
82 121 158
74 109 143
18 24 56
18 24 57
18 23 56
54 78 108
74 108 142
72 106 140
71 105 138
70 103 137
70 103 137
72 106 139
71 105 138
61 90 120
65 96 127
64 93 124
64 94 125
45 66 92
15 19 46
16 21 47
53 78 106
58 86 115
61 90 120
51 75 103
54 79 107
59 86 116
45 66 93
44 65 91
45 66 93
48 71 98
40 59 84
37 55 80
30 44 68
28 41 65
0 0 44
0 0 44
0 0 44
0 0 44
0 0 44
0 0 44
0 0 44
0 0 44
0 0 44
0 0 44
0 0 44
0 0 44
0 0 44
0 0 44
0 0 44
0 0 44
0 0 44
0 0 44
19 19 48
57 57 69
85 86 92
95 95 101
100 100 105
96 96 101
79 79 85
67 67 76
49 49 63
20 20 47
0 0 44
0 0 44
0 0 44
0 0 44
0 0 44
0 0 44
0 0 44
0 0 44
0 0 44
0 0 44
0 0 44
0 0 44
0 0 44
0 0 44
0 0 44
0 0 44
0 0 44
0 0 44
0 0 44
0 0 44
0 0 44
0 0 44
0 0 44
0 0 44
0 0 44
0 0 44
0 0 44
0 0 44
0 0 44
0 0 44
0 0 44
0 0 44
0 0 44
0 0 44
0 0 44
0 0 44
0 0 44
0 0 44
0 0 44
0 0 44
0 0 44
0 0 44
0 0 44
0 0 44
0 0 44
47 68 95
90 132 171
91 133 173
92 135 175
100 146 189
92 136 176
92 136 176
96 141 183
95 139 180
98 144 187
100 146 189
95 139 181
95 139 181
98 144 187
101 148 191
97 142 184
52 75 109
23 30 70
23 29 69
22 28 66
21 28 66
70 102 139
100 146 189
97 142 185
95 140 181
95 139 181
97 142 184
95 139 181
94 138 179
90 132 172
91 133 173
93 136 177
90 132 171
90 132 172
97 142 184
93 136 177
91 134 174
89 131 170
95 139 180
88 129 168
87 128 167
89 131 170
91 134 174
84 123 161
85 124 162
89 131 170
91 133 173
82 121 157
86 126 164
77 113 149
22 29 64
49 71 102
82 121 158
78 114 149
84 123 161
23 33 61
18 24 57
17 23 55
63 92 124
74 109 144
77 113 148
72 106 140
67 99 132
68 99 132
72 106 139
76 111 146
71 104 137
69 101 134
57 84 114
68 99 131
41 60 87
15 19 46
14 18 44
51 75 103
62 91 121
57 84 113
50 74 102
51 75 103
57 84 113
54 79 107
52 77 105
54 79 107
47 70 97
35 52 77
40 59 84
42 62 87
32 48 72
11 17 48
0 0 44
0 0 44
0 0 44
0 0 44
0 0 44
0 0 44
0 0 44
0 0 44
0 0 44
0 0 44
0 0 44
0 0 44
0 0 44
0 0 44
0 0 44
0 0 44
0 0 44
0 0 44
0 0 44
0 0 44
0 0 44
0 0 44
0 0 44
0 0 44
0 0 44
0 0 44
0 0 44
0 0 44
0 0 44
0 0 44
0 0 44
0 0 44
0 0 44
0 0 44
0 0 44
0 0 44
0 0 44
0 0 44
0 0 44
0 0 44
0 0 44
0 0 44
0 0 44
0 0 44
0 0 44
0 0 44
0 0 44
0 0 44
0 0 44
0 0 44
0 0 44
0 0 44
0 0 44
0 0 44
0 0 44
0 0 44
0 0 44
0 0 44
0 0 44
0 0 44
0 0 44
0 0 44
0 0 44
0 0 44
0 0 44
0 0 44
0 0 44
0 0 44
0 0 44
0 0 44
0 0 44
0 0 44
78 115 151
91 134 173
92 134 175
95 139 180
92 134 175
96 141 182
97 143 185
97 142 184
95 139 180
97 142 184
98 144 186
100 146 189
98 144 186
101 149 192
98 144 186
72 104 141
22 28 67
22 29 68
23 29 70
23 29 70
22 29 69
80 117 156
92 136 176
101 148 191
93 136 177
99 145 188
99 146 188
94 137 178
96 141 183
95 139 180
98 144 186
97 142 184
97 142 184
93 136 177
93 137 177
91 134 174
97 143 185
89 130 170
92 135 175
89 130 170
91 134 174
92 135 176
88 130 169
85 124 162
84 123 161
84 123 161
80 118 154
89 130 170
86 126 164
79 115 151
19 24 58
62 91 124
81 120 156
77 113 149
75 110 144
41 60 89
18 23 55
19 24 58
60 88 120
74 108 143
79 115 151
77 113 148
72 106 140
67 99 131
72 106 139
68 100 132
75 109 144
51 74 102
66 97 129
65 96 127
45 65 92
13 17 41
13 17 43
59 87 117
52 77 105
59 86 116
54 80 108
56 82 111
50 73 100
49 72 99
59 86 116
54 79 107
40 59 84
44 65 91
29 43 66
38 56 81
34 51 75
23 35 59
0 0 44
0 0 44
0 0 44
0 0 44
0 0 44
0 0 44
0 0 44
0 0 44
0 0 44
0 0 44
0 0 44
0 0 44
0 0 44
0 0 44
0 0 44
0 0 44
0 0 44
0 0 44
0 0 44
0 0 44
0 0 44
0 0 44
0 0 44
0 0 44
0 0 44
0 0 44
0 0 44
0 0 44
0 0 44
0 0 44
0 0 44
0 0 44
0 0 44
0 0 44
0 0 44
0 0 44
0 0 44
0 0 44
0 0 44
0 0 44
0 0 44
0 0 44
0 0 44
0 0 44
0 0 44
0 0 44
0 0 44
0 0 44
0 0 44
0 0 44
0 0 44
0 0 44
0 0 44
0 0 44
0 0 44
0 0 44
0 0 44
0 0 44
0 0 44
0 0 44
0 0 44
0 0 44
0 0 44
0 0 44
0 0 44
0 0 44
0 0 44
0 0 44
0 0 44
0 0 44
0 0 44
44 65 93
88 129 168
92 135 175
97 143 185
95 139 181
95 140 181
99 145 188
96 141 182
98 143 185
98 144 187
94 138 179
95 140 181
99 144 187
102 149 193
101 148 191
95 138 181
30 40 78
22 29 68
22 29 69
23 29 69
23 30 71
23 30 70
89 130 170
95 139 180
97 143 185
99 145 187
99 145 188
98 144 186
94 137 178
98 143 186
96 141 183
96 141 183
94 138 179
93 136 177
94 138 179
95 139 180
95 139 181
92 134 175
94 138 179
89 131 170
86 126 164
91 134 174
91 134 174
90 132 171
89 130 170
88 130 169
87 128 167
88 129 168
88 130 169
81 119 155
69 100 135
18 24 57
61 89 122
84 123 161
80 117 154
75 111 145
45 65 94
18 23 55
17 23 55
59 86 117
77 113 148
77 113 148
75 111 145
73 108 142
71 105 138
78 114 150
72 106 139
64 93 126
19 26 53
29 41 68
57 84 113
48 71 99
14 19 46
14 19 45
50 72 100
22 31 54
41 60 85
60 88 118
54 80 109
56 83 112
48 71 98
54 79 107
54 80 109
52 76 104
40 59 84
40 59 84
45 66 93
35 52 77
22 32 57
14 21 51
0 0 44
0 0 44
0 0 44
0 0 44
0 0 44
0 0 44
0 0 44
0 0 44
0 0 44
0 0 44
0 0 44
0 0 44
0 0 44
0 0 44
0 0 44
0 0 44
0 0 44
0 0 44
0 0 44
0 0 44
0 0 44
0 0 44
0 0 44
0 0 44
0 0 44
0 0 44
0 0 44
0 0 44
0 0 44
0 0 44
0 0 44
0 0 44
0 0 44
0 0 44
0 0 44
0 0 44
0 0 44
0 0 44
0 0 44
0 0 44
0 0 44
0 0 44
0 0 44
0 0 44
0 0 44
0 0 44
0 0 44
0 0 44
0 0 44
0 0 44
0 0 44
0 0 44
0 0 44
0 0 44
0 0 44
0 0 44
0 0 44
0 0 44
0 0 44
0 0 44
0 0 44
0 0 44
0 0 44
0 0 44
0 0 44
0 0 44
0 0 44
0 0 44
0 0 44
0 0 44
65 96 128
95 139 180
93 136 177
97 143 185
95 139 181
93 137 177
96 141 183
100 146 189
103 151 195
97 143 185
95 140 181
101 149 192
101 149 192
98 144 187
102 150 194
58 83 119
22 29 68
22 29 68
23 30 71
22 29 69
23 29 69
39 56 90
98 144 186
102 150 194
98 144 186
100 147 190
101 148 191
95 139 180
94 138 179
100 147 190
95 140 181
89 130 170
97 142 184
96 141 183
96 141 183
95 139 180
96 141 182
93 136 177
93 137 177
92 136 176
92 136 176
92 135 175
90 132 171
90 132 172
87 128 167
94 137 178
87 128 167
86 126 164
81 119 155
87 127 166
73 107 142
20 25 61
73 106 142
82 121 158
85 125 163
80 118 154
47 68 97
18 23 55
19 24 58
61 90 123
75 110 144
83 121 158
76 112 147
75 111 145
75 110 144
71 104 137
67 99 131
67 99 131
44 63 92
16 20 48
15 20 47
23 32 57
15 20 48
16 20 49
16 21 47
13 16 41
23 33 56
54 80 109
57 84 113
61 89 119
51 75 103
47 69 95
48 70 97
47 69 95
44 65 91
46 68 94
41 60 86
38 56 81
36 54 78
30 44 69
0 0 44
0 0 44
0 0 44
0 0 44
0 0 44
0 0 44
0 0 44
0 0 44
0 0 44
0 0 44
0 0 44
0 0 44
0 0 44
0 0 44
0 0 44
0 0 44
0 0 44
0 0 44
0 0 44
0 0 44
0 0 44
0 0 44
0 0 44
0 0 44
0 0 44
0 0 44
0 0 44
0 0 44
0 0 44
0 0 44
0 0 44
0 0 44
0 0 44
0 0 44
0 0 44
0 0 44
0 0 44
0 0 44
0 0 44
0 0 44
0 0 44
0 0 44
0 0 44
0 0 44
0 0 44
0 0 44
0 0 44
0 0 44
0 0 44
0 0 44
0 0 44
0 0 44
0 0 44
0 0 44
0 0 44
0 0 44
0 0 44
0 0 44
0 0 44
0 0 44
0 0 44
0 0 44
0 0 44
0 0 44
0 0 44
0 0 44
0 0 44
0 0 44
0 0 44
11 17 49
90 132 171
90 133 172
94 138 179
100 146 189
97 143 185
101 149 192
100 146 189
95 140 181
101 147 191
101 147 191
103 151 195
96 141 183
100 146 189
105 154 198
88 128 169
24 31 72
28 39 76
29 40 79
23 30 70
23 29 70
23 30 71
68 98 135
100 146 189
96 141 182
100 147 190
97 142 184
101 148 192
96 141 183
100 146 189
98 144 186
99 144 187
100 146 189
94 137 178
94 138 179
94 138 179
97 143 185
97 142 184
98 144 186
95 140 181
94 137 178
86 126 164
90 132 171
87 128 166
91 133 173
83 122 159
86 126 164
88 130 169
80 118 154
81 119 156
86 126 165
69 101 136
19 24 58
74 108 144
83 122 160
77 113 149
83 122 160
49 71 101
17 22 54
18 23 55
63 92 125
80 117 153
77 113 148
72 106 140
76 112 147
77 113 148
72 106 140
77 113 149
68 100 132
71 104 137
43 63 89
16 21 50
14 19 46
14 19 46
13 17 43
15 20 48
13 17 42
31 44 68
55 81 110
64 94 125
54 80 109
54 79 107
47 70 97
57 84 113
49 72 99
43 63 89
47 69 96
34 51 75
39 58 83
32 48 72
29 43 67
0 0 44
0 0 44
0 0 44
0 0 44
0 0 44
0 0 44
0 0 44
0 0 44
0 0 44
0 0 44
0 0 44
0 0 44
0 0 44
0 0 44
0 0 44
0 0 44
0 0 44
0 0 44
0 0 44
0 0 44
0 0 44
0 0 44
0 0 44
0 0 44
0 0 44
0 0 44
0 0 44
0 0 44
0 0 44
0 0 44
0 0 44
0 0 44
0 0 44
0 0 44
0 0 44
0 0 44
0 0 44
0 0 44
0 0 44
0 0 44
0 0 44
0 0 44
0 0 44
0 0 44
0 0 44
0 0 44
0 0 44
0 0 44
0 0 44
0 0 44
0 0 44
0 0 44
0 0 44
0 0 44
0 0 44
0 0 44
0 0 44
0 0 44
0 0 44
0 0 44
0 0 44
0 0 44
0 0 44
0 0 44
0 0 44
0 0 44
0 0 44
0 0 44
0 0 44
56 82 112
94 138 179
95 139 180
97 142 184
94 138 179
98 144 186
97 142 184
100 146 189
97 142 184
97 143 185
97 142 184
101 148 191
100 147 190
98 144 186
103 151 195
59 85 121
42 60 94
96 141 183
75 109 148
23 29 69
22 29 69
23 30 72
85 124 163
100 146 189
95 140 181
100 147 190
97 143 185
95 139 180
97 142 184
97 142 184
95 139 181
95 139 180
97 143 185
95 139 181
100 146 189
93 137 177
92 136 176
98 144 186
95 140 181
94 138 179
95 140 181
91 133 173
88 130 169
88 130 169
93 137 178
91 133 173
84 124 161
93 137 177
86 126 164
81 119 156
89 131 170
62 91 124
21 28 65
80 117 154
82 121 158
81 119 156
86 126 164
53 77 108
19 24 58
17 23 55
63 93 125
75 110 144
70 103 136
70 103 136
77 113 149
76 111 146
74 108 142
73 107 141
72 106 139
74 108 143
66 97 129
54 79 109
26 37 65
15 19 47
14 18 45
14 19 45
14 19 44
44 65 91
63 93 124
50 73 102
58 85 114
54 80 109
59 86 116
48 71 98
42 62 87
42 62 87
46 68 94
44 64 90
42 62 87
37 55 80
29 43 66
14 21 50
0 0 44
0 0 44
0 0 44
0 0 44
0 0 44
0 0 44
0 0 44
0 0 44
0 0 44
0 0 44
0 0 44
0 0 44
0 0 44
0 0 44
0 0 44
0 0 44
0 0 44
0 0 44
0 0 44
0 0 44
0 0 44
0 0 44
0 0 44
0 0 44
0 0 44
0 0 44
0 0 44
0 0 44
0 0 44
0 0 44
0 0 44
0 0 44
0 0 44
0 0 44
0 0 44
0 0 44
0 0 44
0 0 44
0 0 44
0 0 44
0 0 44
0 0 44
0 0 44
0 0 44
0 0 44
0 0 44
0 0 44
0 0 44
0 0 44
0 0 44
0 0 44
0 0 44
0 0 44
0 0 44
0 0 44
0 0 44
0 0 44
0 0 44
0 0 44
0 0 44
0 0 44
0 0 44
0 0 44
0 0 44
0 0 44
0 0 44
0 0 44
0 0 44
67 98 131
91 134 174
98 143 186
97 142 184
102 150 194
101 147 191
98 143 186
95 139 181
100 146 189
100 147 190
100 147 190
101 149 192
101 147 191
100 146 189
97 142 185
28 37 77
85 124 164
101 148 191
70 102 140
23 29 70
23 30 72
41 58 94
99 145 187
104 152 196
98 144 186
95 140 181
99 145 187
100 146 189
97 142 183
98 143 185
98 143 186
96 141 183
95 139 180
97 143 185
96 141 182
95 139 180
97 142 184
95 139 180
95 139 180
89 131 170
93 136 177
91 133 173
91 133 173
94 138 179
89 130 170
91 133 173
92 136 176
86 126 164
87 128 167
84 124 161
89 131 170
69 101 136
19 24 58
75 109 144
83 121 158
82 120 157
75 111 145
49 70 102
17 22 53
22 30 62
75 110 146
74 108 143
69 101 134
72 105 139
48 70 100
27 39 67
46 66 95
66 97 129
70 103 136
72 106 140
64 94 125
70 103 136
49 71 99
14 18 44
14 19 45
32 46 73
45 66 92
60 88 118
44 64 90
14 18 45
35 51 75
60 88 118
50 73 100
49 72 99
48 70 97
51 75 103
43 63 89
47 70 97
37 55 80
33 49 73
31 46 70
23 35 60
0 0 44
0 0 44
0 0 44
0 0 44
0 0 44
0 0 44
0 0 44
0 0 44
0 0 44
0 0 44
0 0 44
0 0 44
0 0 44
0 0 44
0 0 44
0 0 44
0 0 44
0 0 44
0 0 44
0 0 44
0 0 44
0 0 44
0 0 44
0 0 44
0 0 44
0 0 44
0 0 44
0 0 44
0 0 44
0 0 44
0 0 44
0 0 44
0 0 44
0 0 44
0 0 44
0 0 44
0 0 44
0 0 44
0 0 44
0 0 44
0 0 44
0 0 44
0 0 44
0 0 44
0 0 44
0 0 44
0 0 44
0 0 44
0 0 44
0 0 44
0 0 44
0 0 44
0 0 44
0 0 44
0 0 44
0 0 44
0 0 44
0 0 44
0 0 44
0 0 44
0 0 44
0 0 44
0 0 44
0 0 44
0 0 44
0 0 44
0 0 44
8 12 47
86 126 164
93 137 177
94 137 178
91 133 173
101 147 191
100 146 189
95 139 180
99 145 187
102 149 193
97 142 184
100 147 190
99 145 187
102 150 194
102 149 193
72 105 143
65 94 131
100 146 189
100 146 189
45 65 101
23 30 72
22 29 68
73 107 145
100 147 190
101 148 191
98 143 185
98 144 186
102 150 194
100 147 190
103 151 195
102 150 193
98 144 186
98 143 186
98 144 187
99 145 187
98 143 186
99 145 187
92 134 175
96 141 183
93 136 177
93 137 178
95 139 181
95 139 180
88 129 167
92 134 175
93 136 177
87 128 167
86 126 164
88 129 168
87 128 167
89 131 170
85 125 163
64 94 128
20 27 61
72 106 140
85 124 162
76 112 147
87 127 166
41 59 88
18 24 57
32 47 76
79 116 153
76 112 147
84 123 160
52 76 107
17 22 54
18 24 57
17 23 54
56 82 113
70 103 136
35 51 77
53 77 106
67 99 131
54 79 108
15 19 47
23 33 56
62 91 122
68 100 132
60 88 119
21 29 52
13 17 43
13 17 43
33 48 71
51 75 103
53 78 106
29 43 65
52 76 104
50 73 100
43 63 89
41 60 86
39 58 83
36 54 78
25 37 61
0 0 44
0 0 44
0 0 44
0 0 44
0 0 44
0 0 44
0 0 44
0 0 44
0 0 44
0 0 44
0 0 44
0 0 44
0 0 44
0 0 44
0 0 44
0 0 44
0 0 44
0 0 44
0 0 44
0 0 44
0 0 44
0 0 44
0 0 44
0 0 44
0 0 44
0 0 44
0 0 44
0 0 44
0 0 44
0 0 44
0 0 44
0 0 44
0 0 44
0 0 44
0 0 44
0 0 44
0 0 44
0 0 44
0 0 44
0 0 44
0 0 44
0 0 44
0 0 44
0 0 44
0 0 44
0 0 44
0 0 44
0 0 44
0 0 44
0 0 44
0 0 44
0 0 44
0 0 44
0 0 44
0 0 44
0 0 44
0 0 44
0 0 44
0 0 44
0 0 44
0 0 44
0 0 44
0 0 44
0 0 44
0 0 44
0 0 44
0 0 44
41 60 88
91 133 173
91 134 174
100 147 190
99 145 188
95 139 180
101 148 191
96 141 182
101 149 192
101 147 191
95 139 181
103 151 195
99 145 188
102 149 193
104 153 197
43 62 96
84 123 162
105 154 199
96 141 184
33 45 84
24 31 72
25 33 74
91 134 176
100 147 190
97 142 184
100 146 189
102 150 194
99 145 188
98 143 186
98 143 186
98 143 186
99 145 188
100 146 189
97 142 184
86 126 164
95 139 181
92 136 176
96 141 182
93 136 177
94 138 179
91 134 174
95 139 180
94 138 179
93 136 177
91 134 174
85 125 163
90 132 172
84 124 161
89 131 170
88 130 169
86 126 164
86 127 165
58 84 117
22 30 64
82 120 157
83 122 159
77 113 149
84 123 161
28 39 70
18 24 56
44 63 93
77 113 148
83 121 158
68 100 134
19 25 57
17 21 52
17 22 52
17 23 55
20 27 56
65 95 127
18 24 55
49 71 98
67 98 130
48 70 97
15 19 47
25 35 60
66 98 129
61 89 119
56 82 110
14 18 44
12 15 38
13 17 41
14 19 42
52 76 104
56 82 111
32 46 69
45 66 91
41 60 86
38 55 80
39 58 83
32 48 72
37 55 80
33 49 73
8 12 46
0 0 44
0 0 44
0 0 44
0 0 44
0 0 44
0 0 44
0 0 44
0 0 44
0 0 44
0 0 44
0 0 44
0 0 44
0 0 44
0 0 44
0 0 44
0 0 44
0 0 44
0 0 44
0 0 44
0 0 44
0 0 44
0 0 44
0 0 44
0 0 44
0 0 44
0 0 44
0 0 44
0 0 44
0 0 44
0 0 44
0 0 44
0 0 44
0 0 44
0 0 44
0 0 44
0 0 44
0 0 44
0 0 44
0 0 44
0 0 44
0 0 44
0 0 44
0 0 44
0 0 44
0 0 44
0 0 44
0 0 44
0 0 44
0 0 44
0 0 44
0 0 44
0 0 44
0 0 44
0 0 44
0 0 44
0 0 44
0 0 44
0 0 44
0 0 44
0 0 44
0 0 44
0 0 44
0 0 44
0 0 44
0 0 44
0 0 44
64 93 125
93 136 177
98 143 186
101 147 191
96 141 183
97 142 184
94 138 179
100 146 189
91 134 174
100 146 189
103 151 195
99 145 187
101 147 191
102 150 193
93 135 177
39 55 93
102 150 194
101 149 192
91 133 174
22 29 69
23 30 70
57 83 120
101 148 192
97 142 184
102 150 194
100 147 190
99 145 187
100 146 189
101 149 192
95 140 181
93 137 177
97 143 185
99 145 188
98 143 185
97 142 184
94 137 178
95 139 180
93 136 177
97 142 184
94 138 179
93 136 177
100 147 190
91 133 173
92 135 175
85 124 162
92 135 175
89 131 170
91 133 173
87 127 166
83 122 159
88 129 167
88 129 167
57 83 115
19 25 60
82 120 158
80 118 155
81 119 156
81 119 156
21 27 61
19 24 58
58 84 116
75 111 146
82 121 158
44 63 93
18 23 55
45 65 95
58 84 116
29 41 73
17 22 54
40 58 86
15 19 47
51 74 103
67 99 131
50 73 101
15 20 48
30 44 67
67 98 130
67 99 131
50 73 100
12 16 40
14 18 44
11 14 37
12 16 40
48 70 97
50 73 100
18 27 47
26 38 60
50 73 100
33 48 70
38 56 81
41 60 86
31 46 70
35 52 77
16 24 52
0 0 44
0 0 44
0 0 44
0 0 44
0 0 44
0 0 44
0 0 44
0 0 44
0 0 44
0 0 44
0 0 44
0 0 44
0 0 44
0 0 44
0 0 44
0 0 44
0 0 44
0 0 44
0 0 44
0 0 44
0 0 44
0 0 44
0 0 44
0 0 44
0 0 44
0 0 44
0 0 44
0 0 44
0 0 44
0 0 44
0 0 44
0 0 44
0 0 44
0 0 44
0 0 44
0 0 44
0 0 44
0 0 44
0 0 44
0 0 44
0 0 44
0 0 44
0 0 44
0 0 44
0 0 44
0 0 44
0 0 44
0 0 44
0 0 44
0 0 44
0 0 44
0 0 44
0 0 44
0 0 44
0 0 44
0 0 44
0 0 44
0 0 44
0 0 44
0 0 44
0 0 44
0 0 44
0 0 44
0 0 44
0 0 44
0 0 44
67 98 131
92 136 176
93 136 177
99 145 187
96 141 183
100 146 189
103 151 195
101 149 192
102 150 193
100 146 189
101 148 191
98 144 187
100 147 190
103 152 196
77 113 151
69 101 139
100 146 189
104 152 196
69 101 138
23 30 70
23 29 69
86 126 167
103 151 195
101 148 192
101 148 191
103 151 195
101 149 192
101 148 191
98 144 186
100 146 189
100 146 189
98 144 186
94 138 179
98 144 187
92 136 176
96 141 183
100 147 190
95 139 181
91 134 174
92 136 176
97 142 184
98 144 186
94 138 179
93 137 178
87 128 167
90 132 171
74 108 146
47 68 101
41 59 91
57 83 118
87 128 168
89 131 170
59 86 119
20 26 62
81 119 156
87 128 167
83 122 159
65 95 128
19 24 58
18 23 55
72 106 141
82 121 158
69 101 134
22 29 62
29 41 69
74 109 143
83 121 158
60 88 120
14 19 46
17 22 52
16 21 50
60 88 119
68 100 132
51 75 104
14 19 46
34 49 74
67 99 131
65 96 127
48 70 98
13 17 43
23 32 55
24 34 56
11 15 38
40 58 82
56 83 112
26 37 59
29 41 63
46 68 94
40 59 83
37 54 77
40 59 84
39 58 83
30 44 68
23 35 60
0 0 44
0 0 44
0 0 44
0 0 44
0 0 44
0 0 44
0 0 44
0 0 44
0 0 44
0 0 44
0 0 44
0 0 44
0 0 44
0 0 44
0 0 44
0 0 44
0 0 44
0 0 44
0 0 44
0 0 44
0 0 44
0 0 44
0 0 44
0 0 44
0 0 44
0 0 44
0 0 44
0 0 44
0 0 44
0 0 44
0 0 44
0 0 44
0 0 44
0 0 44
0 0 44
0 0 44
0 0 44
0 0 44
0 0 44
0 0 44
0 0 44
0 0 44
0 0 44
0 0 44
0 0 44
0 0 44
0 0 44
0 0 44
0 0 44
0 0 44
0 0 44
0 0 44
0 0 44
0 0 44
0 0 44
0 0 44
0 0 44
0 0 44
0 0 44
0 0 44
0 0 44
0 0 44
0 0 44
0 0 44
0 0 44
0 0 44
85 125 163
94 138 179
95 140 181
97 143 185
99 145 187
100 146 189
98 144 187
97 143 185
86 126 166
72 105 143
91 133 176
101 149 192
101 149 192
103 151 195
59 85 122
85 125 165
102 149 193
104 153 197
52 74 111
24 31 73
38 53 91
102 149 193
103 151 195
98 143 186
99 145 188
102 149 193
104 153 197
99 146 188
98 144 186
97 142 184
102 149 193
99 145 187
97 143 185
96 141 182
98 144 186
98 144 186
92 136 176
101 148 191
99 145 187
96 141 183
99 145 187
90 133 172
93 136 177
92 134 175
93 137 177
62 90 125
21 27 63
20 26 61
20 26 61
21 28 65
53 77 110
89 130 169
55 80 113
20 26 62
84 123 161
83 122 159
84 123 161
65 95 130
19 25 59
26 36 67
77 112 148
80 117 154
54 79 108
17 22 53
60 88 119
72 106 140
72 106 140
71 105 138
20 26 57
16 21 50
17 22 52
60 87 118
70 103 136
55 80 110
14 18 44
33 48 74
66 96 128
58 86 115
41 59 85
13 17 43
34 49 73
44 64 90
13 17 41
29 41 65
55 80 109
26 38 59
25 36 58
50 73 100
38 56 81
24 36 56
35 52 77
35 52 77
26 39 63
30 44 69
0 0 44
0 0 44
0 0 44
0 0 44
0 0 44
0 0 44
0 0 44
0 0 44
0 0 44
0 0 44
0 0 44
0 0 44
0 0 44
0 0 44
0 0 44
0 0 44
0 0 44
0 0 44
0 0 44
0 0 44
0 0 44
0 0 44
0 0 44
0 0 44
0 0 44
0 0 44
0 0 44
0 0 44
0 0 44
0 0 44
0 0 44
0 0 44
0 0 44
0 0 44
0 0 44
0 0 44
0 0 44
0 0 44
0 0 44
0 0 44
0 0 44
0 0 44
0 0 44
0 0 44
0 0 44
0 0 44
0 0 44
0 0 44
0 0 44
0 0 44
0 0 44
0 0 44
0 0 44
0 0 44
0 0 44
0 0 44
0 0 44
0 0 44
0 0 44
0 0 44
0 0 44
0 0 44
0 0 44
0 0 44
0 0 44
14 21 51
91 133 173
94 137 178
101 147 191
99 145 187
97 142 184
104 153 197
102 150 193
80 116 156
24 32 73
23 30 70
33 46 84
96 140 183
102 150 193
102 149 193
36 51 90
92 135 177
103 151 195
93 136 177
26 34 76
23 30 71
68 99 137
107 158 203
100 147 190
96 141 183
98 144 186
101 148 191
102 150 193
99 145 187
103 151 195
98 143 186
98 143 185
99 145 188
100 147 190
101 148 191
98 144 186
96 140 182
97 142 184
94 137 178
96 141 183
97 142 184
95 139 181
96 141 182
92 136 176
92 135 176
71 104 140
22 29 68
21 27 63
21 28 66
20 26 63
21 27 65
20 25 60
64 93 127
61 89 124
19 25 59
83 121 159
83 121 158
85 124 162
46 67 97
19 25 60
40 57 87
82 120 157
79 115 151
27 38 67
31 44 72
71 105 138
80 117 153
78 114 150
72 106 140
31 44 70
15 19 47
18 24 50
69 101 134
73 107 141
47 68 96
15 20 48
44 63 90
71 104 138
64 94 125
43 63 89
13 17 42
41 59 85
59 86 116
14 19 40
31 45 68
52 77 105
25 37 58
29 42 65
50 74 102
49 71 98
26 37 56
45 66 93
38 56 81
32 48 72
30 44 68
11 17 49
0 0 44
0 0 44
0 0 44
0 0 44
0 0 44
0 0 44
0 0 44
0 0 44
0 0 44
0 0 44
0 0 44
0 0 44
0 0 44
0 0 44
0 0 44
0 0 44
0 0 44
0 0 44
0 0 44
0 0 44
0 0 44
0 0 44
0 0 44
0 0 44
0 0 44
0 0 44
0 0 44
0 0 44
0 0 44
0 0 44
0 0 44
0 0 44
0 0 44
0 0 44
0 0 44
0 0 44
0 0 44
0 0 44
0 0 44
0 0 44
0 0 44
0 0 44
0 0 44
0 0 44
0 0 44
0 0 44
0 0 44
0 0 44
0 0 44
0 0 44
0 0 44
0 0 44
0 0 44
0 0 44
0 0 44
0 0 44
0 0 44
0 0 44
0 0 44
0 0 44
0 0 44
0 0 44
0 0 44
0 0 44
32 48 74
91 133 173
99 145 187
100 147 190
99 145 188
96 141 182
99 145 188
87 127 168
26 35 75
22 29 68
23 30 70
23 30 72
71 103 142
101 148 191
98 144 188
29 40 78
104 153 198
97 143 185
90 131 173
24 31 73
27 36 76
90 132 173
98 144 186
98 144 186
98 144 187
103 151 195
97 142 184
100 147 190
94 138 179
97 142 184
96 141 183
96 141 183
100 146 189
100 146 189
95 140 181
101 148 191
102 150 194
96 141 182
89 130 170
100 146 189
97 142 184
98 143 185
96 141 183
94 137 178
90 131 171
37 52 86
21 28 66
21 27 64
35 49 84
37 51 86
21 27 65
20 26 62
30 42 73
51 74 106
20 26 61
74 109 144
84 123 161
76 112 147
26 36 67
19 25 59
62 91 123
86 126 165
75 110 146
19 25 59
45 65 94
79 116 151
77 113 149
79 115 151
76 112 147
46 67 96
16 20 49
25 35 60
69 102 135
69 102 135
52 75 105
15 20 48
36 52 78
71 104 138
59 86 116
41 60 86
14 18 44
50 74 101
54 80 108
16 22 47
42 61 87
57 84 114
14 19 41
22 31 52
50 74 101
49 72 99
9 12 32
45 66 93
39 58 83
30 44 68
29 43 66
0 0 43
0 0 44
0 0 44
0 0 44
0 0 44
0 0 44
0 0 44
0 0 44
0 0 44
0 0 44
0 0 44
0 0 44
0 0 44
0 0 44
0 0 44
0 0 44
0 0 44
0 0 44
0 0 44
0 0 44
0 0 44
0 0 44
0 0 44
0 0 44
0 0 44
0 0 44
0 0 44
0 0 44
0 0 44
0 0 44
0 0 44
0 0 44
0 0 44
0 0 44
0 0 44
0 0 44
0 0 44
0 0 44
0 0 44
0 0 44
0 0 44
0 0 44
0 0 44
0 0 44
0 0 44
0 0 44
0 0 44
0 0 44
0 0 44
0 0 44
0 0 44
0 0 44
0 0 44
0 0 44
0 0 44
0 0 44
0 0 44
0 0 44
0 0 44
0 0 44
0 0 44
0 0 44
0 0 44
0 0 44
0 0 44
52 77 106
95 139 181
87 128 167
99 145 187
97 142 184
99 145 187
101 148 191
49 71 107
24 31 72
22 28 67
24 31 72
24 31 72
49 71 108
101 148 192
93 136 178
46 66 102
103 152 196
105 154 198
63 92 129
23 30 72
51 73 108
100 147 190
100 146 189
101 147 191
104 152 196
100 146 189
99 145 188
100 146 189
102 150 194
97 142 184
99 145 187
99 145 188
103 151 195
96 141 182
99 145 187
101 149 192
99 145 188
90 132 174
65 94 131
73 107 145
95 140 182
100 146 189
90 132 171
92 134 175
69 100 135
21 27 64
20 27 63
62 91 126
94 138 179
85 124 163
36 52 84
23 30 64
21 27 65
23 30 66
20 25 61
77 112 149
90 131 171
54 79 109
19 25 59
30 41 74
79 116 152
75 110 144
60 88 120
17 22 53
52 76 108
79 116 152
73 108 142
76 112 147
77 113 149
46 67 94
17 23 54
24 34 61
70 103 136
67 98 130
51 75 104
16 20 49
43 63 90
62 91 122
72 106 139
46 68 95
14 18 45
48 70 97
60 88 118
13 17 41
53 77 105
54 80 108
13 17 39
17 24 46
45 66 93
43 64 89
10 13 34
33 48 71
45 66 93
33 49 73
30 44 68
8 12 45
0 0 44
0 0 44
0 0 44
0 0 44
0 0 44
0 0 44
0 0 44
0 0 44
0 0 44
0 0 44
0 0 44
0 0 44
0 0 44
0 0 44
0 0 44
0 0 44
0 0 44
0 0 44
0 0 44
0 0 44
0 0 44
0 0 44
0 0 44
0 0 44
0 0 44
0 0 44
0 0 44
0 0 44
0 0 44
0 0 44
0 0 44
0 0 44
0 0 44
0 0 44
0 0 44
0 0 44
0 0 44
0 0 44
0 0 44
0 0 44
0 0 44
0 0 44
0 0 44
0 0 44
0 0 44
0 0 44
0 0 44
0 0 44
0 0 44
0 0 44
0 0 44
0 0 44
0 0 44
0 0 44
0 0 44
0 0 44
0 0 44
0 0 44
0 0 44
0 0 44
0 0 44
0 0 44
0 0 44
0 0 44
61 89 120
93 137 177
100 146 189
95 140 181
101 148 191
100 146 189
79 116 154
23 30 71
23 30 72
63 91 129
72 104 144
27 36 74
26 35 76
98 144 187
83 121 162
54 78 114
106 155 200
103 151 195
41 58 96
23 30 71
80 117 157
102 149 193
99 145 188
103 152 196
97 142 184
101 148 192
100 146 189
98 143 185
103 152 196
101 147 191
100 146 189
95 139 181
101 148 192
99 145 187
98 143 186
94 138 179
80 117 156
25 33 69
22 28 66
21 28 65
69 101 137
92 134 175
95 140 181
89 130 169
46 67 99
19 25 60
56 82 116
92 134 174
93 136 177
92 134 175
57 83 117
43 62 95
48 69 101
21 27 64
20 25 61
67 97 132
63 91 125
20 27 60
20 25 60
55 79 111
81 119 155
80 117 154
37 53 82
17 22 53
44 63 92
79 116 152
76 112 147
69 101 134
74 109 143
40 59 86
16 21 51
22 31 59
71 104 137
66 97 129
41 59 86
15 20 48
45 66 93
66 97 129
56 83 112
47 68 96
13 17 42
52 77 104
50 73 100
13 16 41
54 78 106
44 65 91
12 16 40
16 22 45
47 69 95
38 56 80
10 14 35
28 41 63
32 48 72
31 46 70
29 43 66
28 41 66
0 0 44
0 0 44
0 0 44
0 0 44
0 0 44
0 0 44
0 0 44
0 0 44
0 0 44
0 0 44
0 0 44
0 0 44
0 0 44
0 0 44
0 0 44
0 0 44
0 0 44
0 0 44
0 0 44
0 0 44
0 0 44
0 0 44
0 0 44
0 0 44
0 0 44
0 0 44
0 0 44
0 0 44
0 0 44
0 0 44
0 0 44
0 0 44
0 0 44
0 0 44
0 0 44
0 0 44
0 0 44
0 0 44
0 0 44
0 0 44
0 0 44
0 0 44
0 0 44
0 0 44
0 0 44
0 0 44
0 0 44
0 0 44
0 0 44
0 0 44
0 0 44
0 0 44
0 0 44
0 0 44
0 0 44
0 0 44
0 0 44
0 0 44
0 0 44
0 0 44
0 0 44
0 0 44
0 0 44
0 0 44
65 95 127
94 138 179
95 139 180
97 142 184
101 148 191
99 145 188
50 71 107
23 29 69
52 74 112
105 153 199
105 154 198
55 79 115
23 30 72
97 142 185
78 114 154
65 94 132
102 149 193
90 131 172
24 31 72
30 41 79
96 141 184
103 151 195
101 148 192
103 151 195
104 153 197
100 146 189
97 142 184
100 146 189
98 144 187
102 150 194
96 141 183
95 140 181
101 148 191
102 150 194
95 139 181
88 129 169
29 40 76
22 28 67
22 29 68
22 28 67
35 48 83
92 135 175
93 137 177
81 119 157
23 30 67
29 39 75
89 130 170
90 133 172
95 139 180
94 138 179
71 104 140
30 42 75
84 122 161
35 50 81
19 25 59
20 27 61
19 25 59
21 27 63
41 59 90
75 110 145
83 122 160
77 112 148
20 27 60
19 24 58
53 78 109
78 114 150
73 108 142
75 110 145
71 104 137
37 53 81
16 20 49
19 26 53
70 103 137
73 107 141
45 66 93
15 19 47
43 63 89
62 92 122
71 105 138
44 64 90
14 19 46
51 75 103
40 58 84
16 22 47
57 83 113
42 62 87
13 17 43
17 24 47
54 79 107
39 57 81
9 12 32
43 63 88
33 49 73
34 51 75
37 55 80
18 27 54
0 0 44
0 0 44
0 0 44
0 0 44
0 0 44
0 0 44
0 0 44
0 0 44
0 0 44
0 0 44
0 0 44
0 0 44
0 0 44
0 0 44
0 0 44
0 0 44
0 0 44
0 0 44
0 0 44
0 0 44
0 0 44
0 0 44
0 0 44
0 0 44
0 0 44
0 0 44
0 0 44
0 0 44
0 0 44
0 0 44
0 0 44
0 0 44
0 0 44
0 0 44
0 0 44
0 0 44
0 0 44
0 0 44
0 0 44
0 0 44
0 0 44
0 0 44
0 0 44
0 0 44
0 0 44
0 0 44
0 0 44
0 0 44
0 0 44
0 0 44
0 0 44
0 0 44
0 0 44
0 0 44
0 0 44
0 0 44
0 0 44
0 0 44
0 0 44
0 0 44
0 0 44
0 0 44
0 0 44
0 0 44
69 102 135
94 138 179
96 141 182
96 141 182
101 148 191
90 131 172
23 30 71
23 30 71
83 122 162
101 149 192
104 153 197
66 96 133
23 30 71
91 133 175
69 100 139
68 99 137
103 152 196
76 111 150
23 29 69
57 83 120
101 148 191
104 153 197
103 152 196
105 154 198
102 150 193
106 155 200
105 154 198
103 151 195
100 146 189
97 142 185
99 145 187
99 145 187
98 143 185
100 146 189
93 137 178
45 64 99
22 29 67
34 47 83
48 69 105
24 31 70
22 29 68
89 131 172
97 143 185
63 92 127
22 29 67
67 97 133
96 141 183
97 142 184
97 142 184
91 133 173
69 100 136
22 29 66
83 122 160
68 99 133
19 24 58
19 25 60
20 26 62
20 26 60
68 99 133
76 111 146
88 129 167
63 92 126
17 23 54
18 24 56
41 58 88
77 113 148
77 113 149
75 110 144
74 108 143
20 27 57
17 22 54
17 23 53
66 97 130
68 100 133
55 81 111
14 18 43
39 56 83
60 88 118
67 99 131
60 88 119
13 17 41
40 58 84
18 25 48
34 50 73
54 79 107
31 46 68
14 18 45
13 18 39
52 76 104
34 50 73
10 13 34
28 41 63
44 64 90
33 49 73
32 48 72
26 39 64
0 0 44
0 0 44
0 0 44
0 0 44
0 0 44
0 0 44
0 0 44
0 0 44
0 0 44
0 0 44
0 0 44
0 0 44
0 0 44
0 0 44
0 0 44
0 0 44
0 0 44
0 0 44
0 0 44
0 0 44
0 0 44
0 0 44
0 0 44
0 0 44
0 0 44
0 0 44
0 0 44
0 0 44
0 0 44
0 0 44
0 0 44
0 0 44
0 0 44
0 0 44
0 0 44
0 0 44
0 0 44
0 0 44
0 0 44
0 0 44
0 0 44
0 0 44
0 0 44
0 0 44
0 0 44
0 0 44
0 0 44
0 0 44
0 0 44
0 0 44
0 0 44
0 0 44
0 0 44
0 0 44
0 0 44
0 0 44
0 0 44
0 0 44
0 0 44
0 0 44
0 0 44
0 0 44
0 0 44
0 0 44
76 112 147
97 143 185
98 143 186
98 144 187
95 140 181
78 114 153
22 29 69
42 60 96
98 144 186
100 146 189
102 149 193
68 99 136
22 29 69
87 127 167
70 103 140
75 109 147
105 154 199
54 79 115
23 30 72
81 119 159
102 150 194
100 146 189
102 150 193
102 150 193
104 152 196
102 150 194
102 150 194
92 134 176
49 71 106
33 46 82
73 106 144
99 146 188
98 144 186
95 139 180
83 122 163
23 30 69
41 59 94
91 133 173
95 139 180
43 62 96
22 28 66
84 123 162
98 143 186
42 59 93
21 27 64
73 107 143
94 138 179
89 131 170
92 135 175
94 137 178
64 93 128
20 26 62
84 122 161
76 111 148
19 25 59
19 25 59
31 43 75
74 109 146
84 123 161
82 120 157
83 122 160
43 62 93
18 23 56
20 25 61
18 23 54
79 116 153
73 107 141
69 102 135
54 79 110
17 22 52
17 22 52
15 19 47
58 84 114
69 101 134
50 73 102
16 21 50
42 61 87
61 90 120
66 96 128
52 77 105
13 17 43
16 22 46
13 17 41
47 69 95
54 79 108
14 19 43
13 17 42
11 15 37
50 73 100
22 32 52
10 13 33
28 41 63
40 58 83
34 51 75
25 37 61
18 27 53
0 0 44
0 0 44
0 0 44
0 0 44
0 0 44
0 0 44
0 0 44
0 0 44
0 0 44
0 0 44
0 0 44
0 0 44
0 0 44
0 0 44
0 0 44
0 0 44
0 0 44
0 0 44
0 0 44
0 0 44
0 0 44
0 0 44
0 0 44
0 0 44
0 0 44
0 0 44
0 0 44
0 0 44
0 0 44
0 0 44
0 0 44
0 0 44
0 0 44
0 0 44
0 0 44
0 0 44
0 0 44
0 0 44
0 0 44
0 0 44
0 0 44
0 0 44
0 0 44
0 0 44
0 0 44
0 0 44
0 0 44
0 0 44
0 0 44
0 0 44
0 0 44
0 0 44
0 0 44
0 0 44
0 0 44
0 0 44
0 0 44
0 0 44
0 0 44
0 0 44
0 0 44
0 0 44
0 0 44
0 0 44
75 110 145
95 139 180
92 136 176
104 153 198
96 141 183
54 78 114
23 30 71
74 108 146
103 151 195
100 146 189
100 146 189
62 90 126
24 31 72
95 139 181
66 96 132
70 103 140
99 145 188
27 37 74
25 33 73
97 142 185
104 153 197
100 146 189
103 152 196
104 152 196
104 152 196
100 146 189
99 146 189
50 72 109
23 30 71
23 29 69
26 34 74
94 138 179
97 142 184
101 149 192
44 64 99
25 34 71
79 115 155
101 149 192
97 143 185
52 75 109
21 28 66
90 131 172
85 125 164
22 29 66
24 33 70
89 130 170
100 146 189
92 135 175
90 132 172
91 134 174
59 85 120
21 27 63
89 131 171
80 117 154
20 26 61
33 46 78
86 126 166
83 121 159
80 117 153
86 126 164
75 109 144
20 26 58
31 43 74
18 24 57
18 23 55
41 58 88
69 101 136
60 88 120
22 29 59
16 20 49
17 22 53
16 21 50
45 65 94
69 101 133
61 90 120
16 20 49
24 34 61
67 98 130
63 92 123
66 96 128
19 26 52
13 17 43
25 35 60
55 81 110
43 63 90
12 16 40
20 28 52
12 16 39
12 16 38
11 15 38
11 14 35
30 44 65
44 65 91
38 56 81
34 51 75
23 35 60
0 0 44
0 0 44
0 0 44
0 0 44
0 0 44
0 0 44
0 0 44
0 0 44
0 0 44
0 0 44
0 0 44
0 0 44
0 0 44
0 0 44
0 0 44
0 0 44
0 0 44
0 0 44
0 0 44
0 0 44
0 0 44
0 0 44
0 0 44
0 0 44
0 0 44
0 0 44
0 0 44
0 0 44
0 0 44
0 0 44
0 0 44
0 0 44
0 0 44
0 0 44
0 0 44
0 0 44
0 0 44
0 0 44
0 0 44
0 0 44
0 0 44
0 0 44
0 0 44
0 0 44
0 0 44
0 0 44
0 0 44
0 0 44
0 0 44
0 0 44
0 0 44
0 0 44
0 0 44
0 0 44
0 0 44
0 0 44
0 0 44
0 0 44
0 0 44
0 0 44
0 0 44
0 0 44
0 0 44
0 0 44
72 106 141
98 143 186
93 136 177
95 139 180
96 141 183
25 33 70
24 32 72
91 133 174
103 151 195
102 149 193
101 147 191
49 70 105
24 31 74
101 148 192
66 96 133
73 107 145
89 131 172
23 30 72
58 84 121
101 148 192
99 145 188
102 150 193
104 153 198
102 150 193
103 152 196
104 153 198
82 120 161
22 29 68
23 30 72
24 31 73
24 31 72
77 112 151
103 151 195
90 131 172
24 32 72
42 61 94
98 143 186
96 141 182
100 146 189
65 95 131
24 33 67
91 134 175
75 109 147
23 30 70
35 49 85
88 129 168
90 132 171
86 126 164
94 138 179
90 133 172
31 43 77
21 27 63
87 127 166
86 126 164
24 33 67
19 25 59
71 103 138
88 129 168
86 126 164
85 125 163
54 79 110
19 25 59
58 84 116
19 24 58
16 21 51
18 24 57
17 22 53
17 23 54
17 22 53
17 22 53
17 21 52
16 21 51
22 31 56
63 92 123
54 79 107
15 20 49
14 18 45
53 77 107
66 97 129
66 97 129
35 50 76
13 17 43
23 34 56
51 74 102
21 30 55
11 15 38
32 47 70
12 16 40
11 14 36
11 14 37
9 12 31
38 55 77
42 62 87
44 64 90
34 51 75
26 39 64
0 0 44
0 0 44
0 0 44
0 0 44
0 0 44
0 0 44
0 0 44
0 0 44
0 0 44
0 0 44
0 0 44
0 0 44
0 0 44
0 0 44
0 0 44
0 0 44
0 0 44
0 0 44
0 0 44
0 0 44
0 0 44
0 0 44
0 0 44
0 0 44
0 0 44
0 0 44
0 0 44
0 0 44
0 0 44
0 0 44
0 0 44
0 0 44
0 0 44
0 0 44
0 0 44
0 0 44
0 0 44
0 0 44
0 0 44
0 0 44
0 0 44
0 0 44
0 0 44
0 0 44
0 0 44
0 0 44
0 0 44
0 0 44
0 0 44
0 0 44
0 0 44
0 0 44
0 0 44
0 0 44
0 0 44
0 0 44
0 0 44
0 0 44
0 0 44
0 0 44
0 0 44
0 0 44
0 0 44
0 0 44
79 116 152
95 139 181
94 138 179
96 141 183
88 129 169
23 30 71
46 66 100
101 148 191
103 151 195
104 153 197
102 149 193
38 54 91
25 33 74
103 150 194
68 99 136
66 96 134
78 113 152
23 30 71
76 112 150
98 143 186
104 153 198
98 143 186
105 155 200
107 157 202
102 150 193
98 144 187
34 47 84
22 28 67
63 92 129
80 117 158
29 40 78
59 85 121
96 141 183
79 116 155
23 30 70
73 107 145
95 140 181
98 143 186
98 144 187
82 120 160
75 110 148
98 143 186
41 58 92
21 28 65
28 38 74
91 134 174
95 139 181
88 129 168
87 128 167
77 113 151
20 27 62
23 31 67
85 124 163
88 130 169
39 55 86
21 27 65
63 91 125
90 132 171
88 130 169
80 117 154
23 31 63
23 30 63
77 112 148
19 25 58
16 21 51
17 23 55
17 22 53
18 23 55
17 22 53
16 20 49
16 21 50
28 40 68
17 22 54
33 48 75
53 77 107
15 19 47
15 20 48
22 30 56
43 62 88
45 65 92
14 19 45
14 18 44
14 18 43
12 16 39
13 17 42
23 33 56
44 64 90
11 14 37
12 15 38
9 12 32
10 14 35
34 50 73
40 59 84
36 54 78
30 44 68
26 39 64
0 0 44
0 0 44
0 0 44
0 0 44
0 0 44
0 0 44
0 0 44
0 0 44
0 0 44
0 0 44
0 0 44
0 0 44
0 0 44
0 0 44
0 0 44
0 0 44
0 0 44
0 0 44
0 0 44
0 0 44
0 0 44
0 0 44
0 0 44
0 0 44
0 0 44
0 0 44
0 0 44
0 0 44
0 0 44
0 0 44
0 0 44
0 0 44
0 0 44
0 0 44
0 0 44
0 0 44
0 0 44
0 0 44
0 0 44
0 0 44
0 0 44
0 0 44
0 0 44
0 0 44
0 0 44
0 0 44
0 0 44
0 0 44
0 0 44
0 0 44
0 0 44
0 0 44
0 0 44
0 0 44
0 0 44
0 0 44
0 0 44
0 0 44
0 0 44
0 0 44
0 0 44
0 0 44
0 0 44
0 0 44
68 100 133
95 139 180
96 141 183
101 149 192
80 117 156
23 30 71
66 96 133
102 150 193
101 147 191
102 150 194
101 148 192
26 34 75
36 50 87
105 153 198
68 99 136
65 94 132
54 77 113
23 29 69
93 135 177
101 147 191
99 145 187
95 140 181
102 150 193
97 142 184
101 149 192
87 127 169
23 30 72
54 77 114
97 142 184
101 148 192
51 73 109
57 82 117
97 143 185
60 87 123
23 29 70
78 115 153
100 147 190
101 149 192
93 137 177
98 143 185
95 140 181
86 126 165
21 27 64
21 28 66
20 27 63
85 124 163
95 139 180
90 133 172
90 132 172
46 67 100
21 27 64
31 43 76
91 133 173
89 130 169
43 62 94
19 25 60
30 42 74
82 120 158
84 123 160
56 82 114
19 24 58
45 66 95
78 114 150
35 50 79
19 24 58
16 21 50
17 22 53
19 25 59
17 23 55
17 22 52
30 43 69
55 81 111
17 22 54
16 21 51
14 18 44
16 21 51
16 20 49
16 20 49
14 18 44
16 21 50
14 18 44
14 18 42
13 18 43
13 17 43
14 18 43
42 61 86
44 65 90
11 14 37
11 15 37
11 15 37
26 37 58
31 45 67
38 56 81
35 52 77
28 41 65
20 30 56
0 0 44
0 0 44
0 0 44
0 0 44
0 0 44
0 0 44
0 0 44
0 0 44
0 0 44
0 0 44
0 0 44
0 0 44
0 0 44
0 0 44
0 0 44
0 0 44
0 0 44
0 0 44
0 0 44
0 0 44
0 0 44
0 0 44
0 0 44
0 0 44
0 0 44
0 0 44
0 0 44
0 0 44
0 0 44
0 0 44
0 0 44
0 0 44
0 0 44
0 0 44
0 0 44
0 0 44
0 0 44
0 0 44
0 0 44
0 0 44
0 0 44
0 0 44
0 0 44
0 0 44
0 0 44
0 0 44
0 0 44
0 0 44
0 0 44
0 0 44
0 0 44
0 0 44
0 0 44
0 0 44
0 0 44
0 0 44
0 0 44
0 0 44
0 0 44
0 0 44
0 0 44
0 0 44
0 0 44
0 0 44
79 115 152
94 137 178
96 141 183
99 145 188
66 96 133
23 30 70
81 118 157
103 151 195
103 152 196
103 151 195
98 144 187
24 31 72
51 73 108
104 153 197
77 112 151
54 78 114
34 47 85
40 56 93
102 149 193
103 151 195
99 146 189
104 153 198
103 151 195
105 155 200
99 145 187
56 81 117
24 32 75
84 122 163
99 145 187
99 145 188
66 96 134
42 59 96
103 150 194
44 62 98
23 30 71
91 133 175
94 138 179
98 144 186
97 142 184
97 142 184
97 142 184
59 85 118
21 27 65
21 27 65
21 28 66
51 74 108
87 127 166
87 127 166
61 89 125
21 28 66
20 26 62
44 64 95
87 127 166
87 127 166
65 95 129
19 25 60
21 27 63
39 55 87
53 76 108
21 28 59
19 24 58
63 92 125
80 117 154
53 77 107
18 24 57
18 23 56
18 24 56
18 23 55
17 22 52
17 23 54
59 86 117
74 109 143
22 31 58
16 21 51
16 21 51
15 19 46
14 18 45
14 18 44
15 19 46
17 23 50
51 74 103
41 59 86
12 15 38
13 16 41
33 48 73
59 86 116
46 67 94
13 17 41
12 15 38
26 37 58
22 32 51
33 48 70
40 59 84
38 56 81
34 51 75
16 24 51
0 0 44
0 0 44
0 0 44
0 0 44
0 0 44
0 0 44
0 0 44
0 0 44
0 0 44
0 0 44
0 0 44
0 0 44
0 0 44
0 0 44
0 0 44
0 0 44
0 0 44
0 0 44
0 0 44
0 0 44
0 0 44
0 0 44
0 0 44
0 0 44
0 0 44
0 0 44
0 0 44
0 0 44
0 0 44
0 0 44
0 0 44
0 0 44
0 0 44
0 0 44
0 0 44
0 0 44
0 0 44
0 0 44
0 0 44
0 0 44
0 0 44
0 0 44
0 0 44
0 0 44
0 0 44
0 0 44
0 0 44
0 0 44
0 0 44
0 0 44
0 0 44
0 0 44
0 0 44
0 0 44
0 0 44
0 0 44
0 0 44
0 0 44
0 0 44
0 0 44
0 0 44
0 0 44
0 0 44
0 0 44
70 103 137
96 141 182
99 145 188
96 141 182
53 76 112
23 30 70
92 134 175
103 152 196
101 149 192
104 153 197
84 123 163
24 31 72
63 91 128
98 144 187
74 107 146
33 45 85
24 31 73
65 95 133
104 152 196
87 127 169
47 66 104
62 89 127
104 153 197
101 149 192
100 147 190
27 36 76
44 62 100
101 148 191
98 144 187
102 150 193
59 85 122
43 60 97
96 141 183
37 53 87
22 29 68
95 139 181
97 142 184
93 137 177
92 136 176
92 136 176
92 135 176
34 47 82
21 28 65
21 28 66
21 27 64
20 26 62
26 35 71
28 38 74
20 26 62
21 27 63
20 26 63
62 90 123
87 127 166
84 123 160
72 105 141
20 25 61
19 24 58
20 26 61
19 25 60
20 26 61
34 49 79
78 115 151
77 113 149
66 97 130
19 25 55
19 24 58
18 24 57
18 23 55
17 22 52
38 55 82
72 106 140
74 108 143
62 90 122
20 28 56
16 21 49
40 57 86
45 65 91
18 24 49
25 36 62
51 74 102
60 88 118
62 92 122
45 66 92
46 68 94
55 81 110
55 81 110
55 81 109
16 23 44
15 20 41
47 68 94
27 39 59
38 55 79
44 64 90
44 64 90
36 54 78
14 21 49
0 0 44
0 0 44
0 0 44
0 0 44
0 0 44
0 0 44
0 0 44
0 0 44
0 0 44
0 0 44
0 0 44
0 0 44
0 0 44
0 0 44
0 0 44
0 0 44
0 0 44
0 0 44
0 0 44
0 0 44
0 0 44
0 0 44
0 0 44
0 0 44
0 0 44
0 0 44
0 0 44
0 0 44
0 0 44
0 0 44
0 0 44
0 0 44
0 0 44
0 0 44
0 0 44
0 0 44
0 0 44
0 0 44
0 0 44
0 0 44
0 0 44
0 0 44
0 0 44
0 0 44
0 0 44
0 0 44
0 0 44
0 0 44
0 0 44
0 0 44
0 0 44
0 0 44
0 0 44
0 0 44
0 0 44
0 0 44
0 0 44
0 0 44
0 0 44
0 0 44
0 0 44
0 0 44
0 0 44
0 0 44
56 82 112
92 136 176
92 135 175
96 141 183
42 60 95
24 31 71
99 145 189
102 150 194
101 148 191
99 145 187
71 103 141
24 31 73
69 101 138
106 155 200
81 118 159
23 30 71
23 30 71
83 122 162
103 152 196
37 52 91
24 31 72
25 34 73
97 142 185
100 147 190
87 128 168
23 30 71
61 89 125
101 147 191
100 147 190
102 149 193
49 70 104
40 56 92
101 148 192
36 50 86
23 30 72
92 135 176
96 141 183
94 138 179
94 138 179
99 145 187
70 102 139
23 29 69
30 41 78
20 26 62
21 27 64
21 28 66
21 27 65
22 28 67
21 27 63
20 26 63
19 25 59
74 108 144
90 133 172
83 122 159
82 120 158
23 30 64
19 25 60
18 24 57
20 26 61
19 25 60
54 78 110
84 123 161
83 122 160
76 112 147
54 79 110
19 25 57
18 24 56
18 23 56
42 60 90
68 99 132
65 96 127
71 104 138
67 99 131
65 95 127
60 88 119
63 92 123
71 104 137
63 92 124
64 94 126
64 94 125
59 87 117
61 89 119
55 81 110
61 90 120
62 90 121
55 81 110
53 77 106
56 82 111
45 66 93
48 71 98
15 21 41
40 58 82
43 63 89
39 58 83
30 44 68
16 24 52
0 0 44
0 0 44
0 0 44
0 0 44
0 0 44
0 0 44
0 0 44
0 0 44
0 0 44
0 0 44
0 0 44
0 0 44
0 0 44
0 0 44
0 0 44
0 0 44
0 0 44
0 0 44
0 0 44
0 0 44
0 0 44
0 0 44
0 0 44
0 0 44
0 0 44
0 0 44
0 0 44
0 0 44
0 0 44
0 0 44
0 0 44
0 0 44
0 0 44
0 0 44
0 0 44
0 0 44
0 0 44
0 0 44
0 0 44
0 0 44
0 0 44
0 0 44
0 0 44
0 0 44
0 0 44
0 0 44
0 0 44
0 0 44
0 0 44
0 0 44
0 0 44
0 0 44
0 0 44
0 0 44
0 0 44
0 0 44
0 0 44
0 0 44
0 0 44
0 0 44
0 0 44
0 0 44
0 0 44
0 0 44
59 86 117
94 138 179
99 145 187
99 145 188
35 49 84
29 39 77
100 147 190
103 151 195
102 150 193
102 149 193
63 91 128
23 30 70
80 116 155
104 152 196
88 128 169
23 30 71
24 31 73
90 132 174
78 114 153
23 30 70
23 30 71
23 30 70
88 129 170
104 153 198
71 104 142
24 31 72
84 123 163
100 146 189
97 142 184
99 146 188
39 55 90
38 53 89
97 142 184
29 40 76
22 29 69
85 125 165
99 145 188
95 140 181
96 141 183
89 130 170
35 48 84
21 27 65
65 94 132
26 36 72
20 27 63
21 27 64
21 27 63
21 27 65
22 28 66
21 28 66
30 41 75
88 129 168
88 129 167
85 125 163
86 127 165
53 77 110
19 25 60
18 24 57
21 27 64
27 37 68
80 118 155
80 117 153
80 117 153
81 119 156
74 108 143
67 99 133
61 89 122
68 99 133
66 96 128
75 111 145
73 107 141
71 105 138
68 100 133
66 97 129
72 106 139
66 96 128
67 98 130
61 89 119
64 94 125
59 86 116
61 89 119
59 86 116
59 87 117
54 79 107
59 86 116
52 77 105
55 81 110
45 66 93
44 65 91
45 66 93
16 23 42
39 56 81
40 59 84
39 58 83
32 48 72
16 24 52
0 0 44
0 0 44
0 0 44
0 0 44
0 0 44
0 0 44
0 0 44
0 0 44
0 0 44
0 0 44
0 0 44
0 0 44
0 0 44
0 0 44
0 0 44
0 0 44
0 0 44
0 0 44
0 0 44
0 0 44
0 0 44
0 0 44
0 0 44
0 0 44
0 0 44
0 0 44
0 0 44
0 0 44
0 0 44
0 0 44
0 0 44
0 0 44
0 0 44
0 0 44
0 0 44
0 0 44
0 0 44
0 0 44
0 0 44
0 0 44
0 0 44
0 0 44
0 0 44
0 0 44
0 0 44
0 0 44
0 0 44
0 0 44
0 0 44
0 0 44
0 0 44
0 0 44
0 0 44
0 0 44
0 0 44
0 0 44
0 0 44
0 0 44
0 0 44
0 0 44
0 0 44
0 0 44
0 0 44
0 0 44
44 65 93
91 133 173
94 137 178
94 137 178
26 35 74
36 51 87
103 151 195
103 152 196
100 147 190
103 152 196
48 69 107
24 31 73
91 133 175
100 147 190
91 133 175
23 30 71
34 47 85
97 142 184
44 63 100
23 30 71
23 30 70
23 29 69
88 129 170
102 149 193
62 90 127
23 30 71
91 133 175
101 148 191
101 148 191
99 145 188
31 42 81
47 66 104
101 148 191
35 50 85
23 30 70
57 82 117
95 139 180
98 143 185
90 131 171
58 84 121
21 28 66
21 27 64
79 115 154
48 70 104
23 29 69
21 27 64
21 27 65
21 27 63
20 26 62
21 27 64
56 82 115
86 127 165
83 122 160
86 126 164
87 127 165
76 112 148
21 28 60
19 25 59
20 27 62
58 84 115
79 115 151
82 120 157
80 117 153
83 122 160
81 119 155
80 117 153
74 109 144
81 119 156
72 106 139
71 105 138
80 117 154
75 110 144
76 111 146
68 100 132
67 99 131
66 97 129
62 92 122
67 98 130
67 98 130
61 89 119
61 90 120
59 86 116
58 85 114
61 90 120
55 81 110
50 74 102
54 79 107
47 70 97
45 66 93
43 63 89
10 13 33
45 66 92
38 56 81
38 56 81
33 49 73
0 0 43
0 0 44
0 0 44
0 0 44
0 0 44
0 0 44
0 0 44
0 0 44
0 0 44
0 0 44
0 0 44
0 0 44
0 0 44
0 0 44
0 0 44
0 0 44
0 0 44
0 0 44
0 0 44
0 0 44
0 0 44
0 0 44
0 0 44
0 0 44
0 0 44
0 0 44
0 0 44
0 0 44
0 0 44
0 0 44
0 0 44
0 0 44
0 0 44
0 0 44
0 0 44
0 0 44
0 0 44
0 0 44
0 0 44
0 0 44
0 0 44
0 0 44
0 0 44
0 0 44
0 0 44
0 0 44
0 0 44
0 0 44
0 0 44
0 0 44
0 0 44
0 0 44
0 0 44
0 0 44
0 0 44
0 0 44
0 0 44
0 0 44
0 0 44
0 0 44
0 0 44
0 0 44
0 0 44
0 0 44
0 0 44
20 30 58
91 133 173
93 136 177
95 139 181
32 45 81
47 67 102
100 146 189
101 148 191
103 151 195
101 148 191
26 34 75
24 32 72
100 147 192
104 152 196
98 144 188
24 31 72
50 71 107
96 140 183
23 30 71
24 31 72
39 55 92
24 31 72
89 130 172
104 153 198
44 62 98
23 29 69
89 130 170
103 151 195
100 147 190
92 134 176
23 30 71
60 87 124
98 144 186
40 56 93
22 28 67
23 31 70
60 87 122
69 101 138
45 65 101
21 27 64
22 28 67
27 37 72
94 137 178
74 108 145
21 28 65
20 26 63
20 26 62
21 28 66
19 25 59
27 37 70
87 127 167
89 131 170
92 135 175
84 124 161
87 127 165
85 124 162
67 97 133
43 61 94
62 91 124
83 122 159
80 117 154
84 123 160
83 122 160
83 122 159
80 118 154
78 115 150
81 119 156
72 106 139
71 105 138
74 108 143
73 108 142
67 99 131
69 101 134
73 108 142
67 99 131
71 105 138
66 97 129
68 100 133
68 100 133
60 88 118
59 86 116
60 88 118
49 71 99
57 83 112
53 78 107
53 78 106
46 68 94
54 80 108
46 68 94
47 69 95
12 16 37
39 58 83
34 51 75
33 49 73
29 43 67
8 12 46
0 0 44
0 0 44
0 0 44
0 0 44
0 0 44
0 0 44
0 0 44
0 0 44
0 0 44
0 0 44
0 0 44
0 0 44
0 0 44
0 0 44
0 0 44
0 0 44
0 0 44
0 0 44
0 0 44
0 0 44
0 0 44
0 0 44
0 0 44
0 0 44
0 0 44
0 0 44
0 0 44
0 0 44
0 0 44
0 0 44
0 0 44
0 0 44
0 0 44
0 0 44
0 0 44
0 0 44
0 0 44
0 0 44
0 0 44
0 0 44
0 0 44
0 0 44
0 0 44
0 0 44
0 0 44
0 0 44
0 0 44
0 0 44
0 0 44
0 0 44
0 0 44
0 0 44
0 0 44
0 0 44
0 0 44
0 0 44
0 0 44
0 0 44
0 0 44
0 0 44
0 0 44
0 0 44
0 0 44
0 0 44
0 0 44
85 124 162
93 137 177
98 143 186
35 49 83
39 55 88
101 149 192
102 149 193
102 149 193
86 126 166
24 31 73
37 52 90
103 151 195
100 146 189
92 135 177
23 30 72
70 102 141
77 112 151
23 30 72
60 87 124
98 143 186
23 30 69
91 134 176
101 147 191
28 37 77
23 30 72
88 128 170
99 145 188
102 150 194
80 116 156
23 29 69
65 94 131
100 146 189
60 86 122
22 29 68
23 30 70
22 29 68
23 30 70
23 30 72
22 28 67
22 28 66
59 85 120
97 143 185
87 128 167
36 51 85
20 26 63
20 26 63
22 29 67
22 28 66
60 88 121
86 126 164
87 128 167
81 119 156
87 127 165
87 128 167
86 126 164
85 125 163
85 125 163
84 124 161
79 115 151
80 117 154
77 113 149
80 117 154
76 112 147
79 115 151
82 120 157
73 107 141
73 107 141
73 107 141
71 105 138
71 104 138
73 107 141
72 106 139
68 100 132
71 104 137
67 99 131
71 105 138
67 98 130
64 93 124
57 84 114
40 58 85
21 29 55
13 18 42
14 19 44
24 35 58
50 73 101
54 79 108
49 72 99
51 75 103
32 46 68
20 29 49
43 63 89
43 63 89
37 55 80
31 46 70
0 0 44
0 0 44
0 0 44
0 0 44
0 0 44
0 0 44
0 0 44
0 0 44
0 0 44
0 0 44
0 0 44
0 0 44
0 0 44
0 0 44
0 0 44
0 0 44
0 0 44
0 0 44
0 0 44
0 0 44
0 0 44
0 0 44
0 0 44
0 0 44
0 0 44
0 0 44
0 0 44
0 0 44
0 0 44
0 0 44
0 0 44
0 0 44
0 0 44
0 0 44
0 0 44
0 0 44
0 0 44
0 0 44
0 0 44
0 0 44
0 0 44
0 0 44
0 0 44
0 0 44
0 0 44
0 0 44
0 0 44
0 0 44
0 0 44
0 0 44
0 0 44
0 0 44
0 0 44
0 0 44
0 0 44
0 0 44
0 0 44
0 0 44
0 0 44
0 0 44
0 0 44
0 0 44
0 0 44
0 0 44
0 0 44
0 0 44
70 103 136
92 136 176
93 136 177
37 52 87
44 63 99
99 145 188
97 142 184
102 149 193
77 113 151
24 31 73
63 91 128
102 149 193
104 152 196
79 116 155
23 29 70
79 115 155
54 78 114
24 31 72
81 117 157
100 147 190
24 31 71
89 130 172
96 141 184
24 31 72
23 30 71
77 113 152
99 145 187
96 141 183
49 71 106
23 30 71
72 106 143
100 146 189
68 100 137
21 28 66
22 29 68
22 29 69
23 29 69
22 28 67
21 27 64
22 29 67
81 119 158
91 134 173
95 139 180
82 120 158
33 46 81
21 28 65
25 35 69
59 85 120
88 129 168
92 134 175
88 129 167
88 130 169
87 128 167
88 129 167
86 126 164
84 124 161
85 125 163
79 115 151
81 119 155
84 123 161
83 121 158
75 111 145
84 124 161
84 124 161
78 114 150
85 125 163
68 100 133
74 108 143
73 107 141
76 111 146
66 97 129
74 108 143
70 103 136
67 98 130
73 107 141
70 102 135
68 100 133
40 58 83
15 19 46
14 18 45
13 17 42
13 17 42
13 17 42
13 17 43
22 31 55
50 73 101
43 63 89
53 78 106
19 28 49
29 43 64
45 66 93
49 72 99
32 48 72
32 48 73
0 0 44
0 0 44
0 0 44
0 0 44
0 0 44
0 0 44
0 0 44
0 0 44
0 0 44
0 0 44
0 0 44
0 0 44
0 0 44
0 0 44
0 0 44
0 0 44
0 0 44
0 0 44
0 0 44
0 0 44
0 0 44
0 0 44
0 0 44
0 0 44
0 0 44
0 0 44
0 0 44
0 0 44
0 0 44
0 0 44
0 0 44
0 0 44
0 0 44
0 0 44
0 0 44
0 0 44
0 0 44
0 0 44
0 0 44
0 0 44
0 0 44
0 0 44
0 0 44
0 0 44
0 0 44
0 0 44
0 0 44
0 0 44
0 0 44
0 0 44
0 0 44
0 0 44
0 0 44
0 0 44
0 0 44
0 0 44
0 0 44
0 0 44
0 0 44
0 0 44
0 0 44
0 0 44
0 0 44
0 0 44
0 0 44
0 0 44
58 86 116
93 137 177
98 144 186
47 68 103
30 41 77
97 142 184
96 141 184
101 148 191
51 73 109
23 30 70
67 98 135
100 146 189
98 144 187
60 87 124
24 31 73
69 100 139
39 56 92
23 30 71
94 138 180
102 149 193
25 33 73
93 135 178
87 128 169
23 30 71
23 30 70
52 74 110
102 149 193
83 121 162
25 32 73
23 30 70
78 114 153
100 146 189
83 122 161
22 29 68
22 29 69
23 29 69
22 29 67
22 29 69
22 29 68
45 64 98
95 139 180
93 137 177
92 136 176
90 132 171
89 131 171
71 104 141
80 117 154
96 141 183
85 125 163
88 130 169
87 127 166
91 133 173
94 138 179
87 128 167
81 119 155
83 121 158
77 113 148
81 118 155
78 115 150
83 122 159
82 121 158
84 123 161
74 109 144
79 116 152
73 107 141
73 107 141
71 105 138
73 108 142
69 101 134
75 110 144
75 111 145
69 102 135
67 98 130
73 107 141
70 103 137
62 91 123
21 29 54
15 19 46
14 18 45
14 18 45
12 16 40
13 16 41
13 17 43
13 17 43
11 14 36
45 66 92
49 72 99
52 76 103
17 24 44
39 57 82
41 60 86
41 60 86
33 49 73
23 35 61
0 0 44
0 0 44
0 0 44
0 0 44
0 0 44
0 0 44
0 0 44
0 0 44
0 0 44
0 0 44
0 0 44
0 0 44
0 0 44
0 0 44
0 0 44
0 0 44
0 0 44
0 0 44
0 0 44
0 0 44
0 0 44
0 0 44
0 0 44
0 0 44
0 0 44
0 0 44
0 0 44
0 0 44
0 0 44
0 0 44
0 0 44
0 0 44
0 0 44
0 0 44
0 0 44
0 0 44
0 0 44
0 0 44
0 0 44
0 0 44
0 0 44
0 0 44
0 0 44
0 0 44
0 0 44
0 0 44
0 0 44
0 0 44
0 0 44
0 0 44
0 0 44
0 0 44
0 0 44
0 0 44
0 0 44
0 0 44
0 0 44
0 0 44
0 0 44
0 0 44
0 0 44
0 0 44
0 0 44
0 0 44
0 0 44
0 0 44
44 64 92
93 137 177
97 142 184
58 84 119
23 30 68
98 143 186
65 95 131
76 111 150
27 37 75
23 30 72
84 122 162
101 149 192
102 149 193
49 71 106
22 29 69
49 70 106
26 34 73
24 32 72
97 143 186
101 148 192
24 32 71
96 141 184
77 112 151
24 31 72
23 30 70
24 31 71
48 69 103
32 45 81
22 29 68
23 30 71
96 140 183
101 148 191
94 138 180
41 58 94
21 28 66
22 28 67
22 28 67
22 29 67
23 31 67
81 118 157
98 143 185
94 138 179
96 141 182
93 136 177
84 124 161
94 138 179
94 138 179
94 138 179
84 124 161
86 127 165
88 129 168
86 127 165
81 119 156
86 126 164
91 133 173
81 119 155
81 119 155
80 117 153
81 119 155
82 121 158
76 111 146
79 116 152
86 127 165
80 117 153
75 111 145
72 106 140
77 113 149
75 111 145
71 104 138
74 108 143
67 99 131
72 106 140
69 101 134
68 100 133
60 87 118
20 28 57
15 20 48
15 19 47
14 18 45
15 19 47
29 41 65
37 54 78
39 57 82
25 36 59
13 17 41
46 68 94
52 77 105
42 62 87
15 21 40
40 59 84
44 64 90
42 62 87
34 51 75
11 17 48
0 0 44
0 0 44
0 0 44
0 0 44
0 0 44
0 0 44
0 0 44
0 0 44
0 0 44
0 0 44
0 0 44
0 0 44
0 0 44
0 0 44
0 0 44
0 0 44
0 0 44
0 0 44
0 0 44
0 0 44
0 0 44
0 0 44
0 0 44
0 0 44
0 0 44
0 0 44
0 0 44
0 0 44
0 0 44
0 0 44
0 0 44
0 0 44
0 0 44
0 0 44
0 0 44
0 0 44
0 0 44
0 0 44
0 0 44
0 0 44
0 0 44
0 0 44
0 0 44
0 0 44
0 0 44
0 0 44
0 0 44
0 0 44
0 0 44
0 0 44
0 0 44
0 0 44
0 0 44
0 0 44
0 0 44
0 0 44
0 0 44
0 0 44
0 0 44
0 0 44
0 0 44
0 0 44
0 0 44
0 0 44
0 0 44
0 0 44
0 0 44
80 117 153
91 134 174
68 99 134
22 29 68
90 132 172
77 113 151
23 29 70
24 32 74
23 30 70
96 140 183
106 156 201
105 153 198
28 38 77
23 30 72
28 38 78
24 31 73
33 45 83
99 145 188
101 148 192
32 44 84
96 140 183
73 106 145
23 30 70
23 29 70
23 30 70
22 28 67
23 30 71
23 30 70
44 62 97
100 146 189
97 143 185
98 144 187
75 110 149
22 29 69
22 29 68
21 27 64
22 28 67
60 87 122
94 137 178
93 136 177
91 133 173
89 131 170
93 137 177
93 136 177
88 130 169
86 126 164
92 134 175
87 128 167
88 129 167
95 139 180
88 129 167
86 126 164
90 133 172
81 119 155
88 129 167
80 117 154
80 117 153
80 118 154
79 116 152
84 124 161
83 121 158
81 119 155
72 106 139
72 106 140
78 114 150
73 107 141
71 105 138
75 109 144
75 110 145
73 108 142
71 104 137
68 100 133
61 89 120
22 32 58
15 19 46
15 19 47
15 19 46
15 19 46
45 66 92
62 91 121
58 85 114
56 82 111
48 71 98
29 42 65
54 79 107
54 80 109
27 39 59
26 37 56
45 66 93
40 59 84
44 64 90
30 44 69
8 12 46
0 0 44
0 0 44
0 0 44
0 0 44
0 0 44
0 0 44
0 0 44
0 0 44
0 0 44
0 0 44
0 0 44
0 0 44
0 0 44
0 0 44
0 0 44
0 0 44
0 0 44
0 0 44
0 0 44
0 0 44
0 0 44
0 0 44
0 0 44
0 0 44
0 0 44
0 0 44
0 0 44
0 0 44
0 0 44
0 0 44
0 0 44
0 0 44
0 0 44
0 0 44
0 0 44
0 0 44
0 0 44
0 0 44
0 0 44
0 0 44
0 0 44
0 0 44
0 0 44
0 0 44
0 0 44
0 0 44
0 0 44
0 0 44
0 0 44
0 0 44
0 0 44
0 0 44
0 0 44
0 0 44
0 0 44
0 0 44
0 0 44
0 0 44
0 0 44
0 0 44
0 0 44
0 0 44
0 0 44
0 0 44
0 0 44
0 0 44
0 0 44
75 111 146
93 137 177
82 119 158
22 29 68
74 108 144
94 138 179
28 39 77
23 30 72
43 61 98
100 147 190
103 151 195
88 129 170
23 29 69
26 34 74
24 31 72
23 30 71
48 69 106
102 149 193
100 146 189
31 43 80
98 144 187
66 97 133
23 30 70
23 30 70
23 30 70
23 30 70
22 29 68
22 28 66
63 92 128
98 144 186
99 145 187
98 143 186
98 143 185
62 90 127
23 30 70
24 33 69
58 85 119
92 135 176
95 139 180
98 144 187
94 138 179
93 137 177
87 128 167
90 132 171
93 137 177
91 133 173
87 128 167
83 122 159
88 130 169
84 123 160
86 126 164
83 121 158
80 118 154
85 124 162
87 127 166
78 114 150
82 121 158
79 116 152
76 112 147
79 116 152
75 111 145
82 121 157
76 111 146
74 108 143
78 115 150
69 102 135
72 106 139
75 110 144
74 109 143
77 113 149
69 101 134
68 99 132
31 44 69
15 19 47
16 20 49
15 19 46
14 19 46
41 60 87
56 83 112
58 85 114
61 90 120
54 79 107
55 81 110
50 73 101
55 81 110
47 69 95
14 18 40
35 51 74
33 49 73
40 59 84
26 39 63
20 30 56
0 0 44
0 0 44
0 0 44
0 0 44
0 0 44
0 0 44
0 0 44
0 0 44
0 0 44
0 0 44
0 0 44
0 0 44
0 0 44
0 0 44
0 0 44
0 0 44
0 0 44
0 0 44
0 0 44
0 0 44
0 0 44
0 0 44
0 0 44
0 0 44
0 0 44
0 0 44
0 0 44
0 0 44
0 0 44
0 0 44
0 0 44
0 0 44
0 0 44
0 0 44
0 0 44
0 0 44
0 0 44
0 0 44
0 0 44
0 0 44
0 0 44
0 0 44
0 0 44
0 0 44
0 0 44
0 0 44
0 0 44
0 0 44
0 0 44
0 0 44
0 0 44
0 0 44
0 0 44
0 0 44
0 0 44
0 0 44
0 0 44
0 0 44
0 0 44
0 0 44
0 0 44
0 0 44
0 0 44
0 0 44
0 0 44
0 0 44
0 0 44
0 0 44
50 74 103
92 134 175
86 127 166
23 30 71
67 98 135
96 141 182
75 109 148
27 36 76
80 116 155
100 146 189
105 153 198
82 120 160
22 29 68
52 74 110
24 31 70
23 30 70
51 73 109
101 149 192
101 148 192
30 42 79
95 140 182
57 83 118
24 31 72
46 65 102
23 30 71
22 28 67
23 30 71
24 32 71
92 135 177
100 146 189
102 150 193
99 145 187
95 139 180
95 140 181
87 128 168
84 123 162
97 142 184
96 141 183
91 133 173
95 140 181
95 139 181
94 138 179
94 137 178
92 135 175
89 130 170
93 137 177
93 137 177
91 133 173
84 124 162
88 129 167
85 124 162
86 127 165
82 121 158
79 116 152
85 124 162
83 121 158
83 122 160
79 115 151
83 122 159
81 119 155
77 113 148
80 117 154
78 114 149
82 120 157
71 105 138
75 110 145
79 115 151
71 105 138
67 98 130
65 95 126
70 103 136
54 79 107
15 20 48
15 20 48
15 19 47
14 18 44
20 27 55
59 86 116
61 90 120
56 83 112
58 86 115
57 84 113
52 77 105
56 83 112
50 74 102
26 37 59
10 13 34
44 65 91
46 68 94
39 58 83
29 43 66
11 17 47
0 0 44
0 0 44
0 0 44
0 0 44
0 0 44
0 0 44
0 0 44
0 0 44
0 0 44
0 0 44
0 0 44
0 0 44
0 0 44
0 0 44
0 0 44
0 0 44
0 0 44
0 0 44
0 0 44
0 0 44
0 0 44
0 0 44
0 0 44
0 0 44
0 0 44
0 0 44
0 0 44
0 0 44
0 0 44
0 0 44
0 0 44
0 0 44
0 0 44
0 0 44
0 0 44
0 0 44
0 0 44
0 0 44
0 0 44
0 0 44
0 0 44
0 0 44
0 0 44
0 0 44
0 0 44
0 0 44
0 0 44
0 0 44
0 0 44
0 0 44
0 0 44
0 0 44
0 0 44
0 0 44
0 0 44
0 0 44
0 0 44
0 0 44
0 0 44
0 0 44
0 0 44
0 0 44
0 0 44
0 0 44
0 0 44
0 0 44
0 0 44
0 0 44
11 17 49
85 124 162
93 136 177
32 45 80
42 60 94
99 145 187
97 143 185
96 141 183
95 139 181
101 149 192
103 152 196
70 102 140
23 29 70
67 98 135
41 58 94
23 30 71
46 65 101
102 150 193
100 146 189
37 52 89
96 141 184
42 59 95
31 42 80
83 122 162
23 29 69
23 30 70
23 29 70
53 77 112
93 136 177
98 144 186
94 138 179
98 143 186
98 143 186
100 146 189
95 139 181
94 138 179
99 145 188
97 142 183
96 141 183
96 141 182
95 139 180
96 141 183
93 136 177
88 129 168
86 127 165
90 132 171
86 126 164
85 125 163
90 132 172
89 130 170
82 121 158
88 129 167
88 129 168
85 125 162
81 119 156
79 116 152
82 121 158
79 115 151
81 119 156
78 115 150
80 117 154
72 106 139
73 107 141
81 118 155
76 111 146
72 106 140
78 114 149
73 108 142
70 103 136
75 111 145
63 93 124
30 43 71
17 22 53
16 21 50
14 19 46
15 20 48
43 63 90
61 90 120
58 86 115
58 86 115
54 79 107
51 75 103
57 84 113
47 70 97
40 59 83
11 14 37
32 47 70
44 65 91
43 63 89
34 51 75
28 41 65
8 12 46
0 0 44
0 0 44
0 0 44
0 0 44
0 0 44
0 0 44
0 0 44
0 0 44
0 0 44
0 0 44
0 0 44
0 0 44
0 0 44
0 0 44
0 0 44
0 0 44
0 0 44
0 0 44
0 0 44
0 0 44
0 0 44
0 0 44
0 0 44
0 0 44
0 0 44
0 0 44
0 0 44
0 0 44
0 0 44
0 0 44
0 0 44
0 0 44
0 0 44
0 0 44
0 0 44
0 0 44
0 0 44
0 0 44
0 0 44
0 0 44
0 0 44
0 0 44
0 0 44
0 0 44
0 0 44
0 0 44
0 0 44
0 0 44
0 0 44
0 0 44
0 0 44
0 0 44
0 0 44
0 0 44
0 0 44
0 0 44
0 0 44
0 0 44
0 0 44
0 0 44
0 0 44
0 0 44
0 0 44
0 0 44
0 0 44
0 0 44
0 0 44
0 0 44
0 0 44
74 109 144
96 141 183
51 74 108
21 27 64
84 123 162
98 144 187
99 145 188
100 146 189
100 147 190
100 147 191
52 74 111
22 29 68
75 109 147
56 81 114
22 29 68
52 75 111
101 149 192
98 143 185
44 62 100
87 127 168
31 43 80
45 65 100
100 147 190
56 80 115
23 30 69
54 77 115
97 143 186
90 132 171
100 147 190
98 143 186
100 146 189
97 143 185
96 141 182
92 134 175
97 142 183
96 141 182
96 141 182
90 132 171
93 137 177
94 139 180
89 131 170
90 132 171
92 135 175
91 133 173
88 129 168
89 131 171
89 130 170
88 130 169
86 126 164
84 124 161
86 126 164
85 125 163
83 122 160
86 127 165
86 127 165
87 127 166
83 121 158
84 123 161
82 120 157
75 111 145
79 115 151
75 110 144
77 113 149
76 111 146
71 105 138
77 113 148
68 100 133
72 106 140
74 108 143
64 94 126
15 19 47
16 21 50
15 19 46
15 20 48
15 20 48
50 73 101
58 85 114
58 85 114
67 98 130
58 85 114
47 69 95
48 71 98
42 62 88
13 17 39
11 15 37
40 58 83
41 60 86
44 65 91
37 55 80
20 30 56
0 0 44
0 0 44
0 0 44
0 0 44
0 0 44
0 0 44
0 0 44
0 0 44
0 0 44
0 0 44
0 0 44
0 0 44
0 0 44
0 0 44
0 0 44
0 0 44
0 0 44
0 0 44
0 0 44
0 0 44
0 0 44
0 0 44
0 0 44
0 0 44
0 0 44
0 0 44
0 0 44
0 0 44
0 0 44
0 0 44
0 0 44
0 0 44
0 0 44
0 0 44
0 0 44
0 0 44
0 0 44
0 0 44
0 0 44
0 0 44
0 0 44
0 0 44
0 0 44
0 0 44
0 0 44
0 0 44
0 0 44
0 0 44
0 0 44
0 0 44
0 0 44
0 0 44
0 0 44
0 0 44
0 0 44
0 0 44
0 0 44
0 0 44
0 0 44
0 0 44
0 0 44
0 0 44
0 0 44
0 0 44
0 0 44
0 0 44
0 0 44
0 0 44
0 0 44
0 0 44
52 76 105
93 137 177
71 104 140
22 28 66
66 96 132
100 146 189
94 138 179
102 149 193
98 144 186
94 138 180
26 35 73
23 30 72
78 115 153
68 99 135
23 30 71
51 74 110
100 147 190
100 146 189
48 68 104
38 54 90
23 29 70
65 94 132
96 141 182
96 141 183
89 131 172
98 144 187
99 145 188
101 149 192
95 139 180
101 149 192
95 140 181
94 137 178
93 137 177
100 146 189
96 141 183
94 137 178
94 139 180
94 138 179
95 139 180
90 132 171
95 139 180
90 133 172
88 129 167
92 135 175
87 128 167
90 132 172
86 126 164
85 124 162
89 130 170
87 127 166
86 126 164
84 123 161
83 121 158
81 119 156
86 126 164
81 119 156
80 118 154
78 114 150
83 122 159
81 119 155
80 118 154
80 118 154
72 106 140
75 110 145
77 113 148
73 108 142
74 109 143
72 106 140
70 102 135
51 74 102
15 20 48
14 19 46
16 21 50
15 20 48
15 19 46
38 56 80
61 90 120
55 81 110
56 83 112
55 81 110
57 84 113
40 58 83
13 18 43
10 14 35
34 50 72
47 69 95
45 66 93
31 46 70
26 39 63
11 17 48
0 0 44
0 0 44
0 0 44
0 0 44
0 0 44
0 0 44
0 0 44
0 0 44
0 0 44
0 0 44
0 0 44
0 0 44
0 0 44
0 0 44
0 0 44
0 0 44
0 0 44
0 0 44
0 0 44
0 0 44
0 0 44
0 0 44
0 0 44
0 0 44
0 0 44
0 0 44
0 0 44
0 0 44
0 0 44
0 0 44
0 0 44
0 0 44
0 0 44
0 0 44
0 0 44
0 0 44
0 0 44
0 0 44
0 0 44
0 0 44
0 0 44
0 0 44
0 0 44
0 0 44
0 0 44
0 0 44
0 0 44
0 0 44
0 0 44
0 0 44
0 0 44
0 0 44
0 0 44
0 0 44
0 0 44
0 0 44
0 0 44
0 0 44
0 0 44
0 0 44
0 0 44
0 0 44
0 0 44
0 0 44
0 0 44
0 0 44
0 0 44
0 0 44
0 0 44
0 0 44
0 0 44
81 119 156
87 127 166
24 33 70
33 46 81
92 135 176
101 147 191
96 141 183
98 144 186
80 117 156
23 30 71
23 30 72
79 115 153
89 130 171
22 29 69
48 69 105
101 149 192
101 147 191
66 95 133
23 30 70
22 28 66
78 113 152
101 148 191
98 144 187
96 141 182
98 144 187
100 146 189
98 144 186
92 136 176
98 144 186
95 140 181
101 148 191
95 140 181
91 133 173
92 136 176
92 136 176
95 139 181
94 138 179
95 140 181
90 133 172
92 136 176
90 132 171
89 131 170
90 132 171
90 132 172
87 128 167
86 127 165
87 128 167
84 123 161
93 136 177
85 125 163
85 124 162
86 126 164
85 124 162
83 122 159
83 121 158
80 117 154
75 110 144
80 117 154
85 125 163
74 109 144
76 112 147
76 112 147
69 102 135
75 110 144
73 108 142
75 111 145
69 102 135
72 106 140
44 64 90
17 21 52
16 21 50
14 18 45
15 19 47
15 19 46
23 31 58
56 82 111
53 77 106
49 71 98
44 64 90
25 36 58
13 17 41
12 16 39
17 24 45
51 74 102
46 68 94
31 46 70
26 39 63
33 49 74
0 0 44
0 0 44
0 0 44
0 0 44
0 0 44
0 0 44
0 0 44
0 0 44
0 0 44
0 0 44
0 0 44
0 0 44
0 0 44
0 0 44
0 0 44
0 0 44
0 0 44
0 0 44
0 0 44
0 0 44
0 0 44
0 0 44
0 0 44
0 0 44
0 0 44
0 0 44
0 0 44
0 0 44
0 0 44
0 0 44
0 0 44
0 0 44
0 0 44
0 0 44
0 0 44
0 0 44
0 0 44
0 0 44
0 0 44
0 0 44
0 0 44
0 0 44
0 0 44
0 0 44
0 0 44
0 0 44
0 0 44
0 0 44
0 0 44
0 0 44
0 0 44
0 0 44
0 0 44
0 0 44
0 0 44
0 0 44
0 0 44
0 0 44
0 0 44
0 0 44
0 0 44
0 0 44
0 0 44
0 0 44
0 0 44
0 0 44
0 0 44
0 0 44
0 0 44
0 0 44
0 0 44
0 0 44
58 85 115
87 128 167
53 77 110
21 27 64
60 88 122
94 137 178
98 144 186
95 139 180
48 69 104
23 29 69
23 30 71
83 121 160
97 143 185
28 37 77
41 59 93
100 147 190
97 143 185
87 127 168
22 29 69
37 52 88
93 136 178
100 146 189
99 145 188
96 141 182
97 142 184
98 144 186
100 146 189
100 146 189
92 135 175
98 144 186
94 137 178
95 139 181
95 139 181
91 133 173
89 131 170
95 139 181
96 141 182
92 136 176
98 143 186
97 142 184
88 129 168
95 139 180
88 129 167
91 133 173
92 134 175
88 130 169
91 133 173
84 124 161
90 132 172
85 125 163
85 124 162
84 124 161
87 127 166
81 119 155
88 130 169
80 118 154
77 113 148
79 116 152
74 109 144
81 119 156
75 111 145
73 108 142
74 108 143
72 106 140
71 104 137
71 105 138
68 100 133
67 98 130
43 63 89
15 20 48
15 19 47
15 19 47
14 18 45
14 18 44
15 19 47
12 16 40
15 20 46
12 16 40
14 18 44
12 16 39
11 14 35
10 13 34
42 61 87
46 68 94
44 64 90
41 60 86
36 54 78
20 30 56
0 0 44
0 0 44
0 0 44
0 0 44
0 0 44
0 0 44
0 0 44
0 0 44
0 0 44
0 0 44
0 0 44
0 0 44
0 0 44
0 0 44
0 0 44
0 0 44
0 0 44
0 0 44
0 0 44
0 0 44
0 0 44
0 0 44
0 0 44
0 0 44
0 0 44
0 0 44
0 0 44
0 0 44
0 0 44
0 0 44
0 0 44
0 0 44
0 0 44
0 0 44
0 0 44
0 0 44
0 0 44
0 0 44
0 0 44
0 0 44
0 0 44
0 0 44
0 0 44
0 0 44
0 0 44
0 0 44
0 0 44
0 0 44
0 0 44
0 0 44
0 0 44
0 0 44
0 0 44
0 0 44
0 0 44
0 0 44
0 0 44
0 0 44
0 0 44
0 0 44
0 0 44
0 0 44
0 0 44
0 0 44
0 0 44
0 0 44
0 0 44
0 0 44
0 0 44
0 0 44
0 0 44
0 0 44
16 24 54
88 129 167
74 108 144
21 27 64
28 38 74
86 125 165
101 149 192
86 125 165
23 30 69
22 29 69
22 28 67
87 127 168
100 146 189
50 73 108
34 47 83
97 143 185
102 150 193
99 146 189
80 118 156
92 134 176
98 144 186
103 151 195
97 142 184
101 148 191
99 145 187
95 139 181
98 143 186
94 137 178
91 133 173
98 144 187
97 143 185
97 142 184
91 133 173
90 132 171
95 140 181
93 136 177
93 137 177
92 135 175
94 137 178
92 134 175
87 128 167
91 133 173
87 127 166
87 128 167
87 128 167
86 126 164
88 129 168
83 122 160
82 120 157
85 124 162
86 126 164
79 116 152
87 127 166
80 117 153
81 119 156
84 123 161
81 119 155
80 117 154
77 113 148
71 105 138
78 115 150
77 113 149
74 108 143
72 106 139
70 103 137
75 110 144
68 100 133
75 111 145
46 67 94
16 21 51
16 21 50
15 19 47
15 20 48
13 17 42
15 19 47
13 17 42
14 18 45
12 16 39
13 17 42
12 16 39
11 14 37
33 48 68
40 59 84
41 60 86
45 66 93
37 55 80
32 48 72
0 0 44
0 0 44
0 0 44
0 0 44
0 0 44
0 0 44
0 0 44
0 0 44
0 0 44
0 0 44
0 0 44
0 0 44
0 0 44
0 0 44
0 0 44
0 0 44
0 0 44
0 0 44
0 0 44
0 0 44
0 0 44
0 0 44
0 0 44
0 0 44
0 0 44
0 0 44
0 0 44
0 0 44
0 0 44
0 0 44
0 0 44
0 0 44
0 0 44
0 0 44
0 0 44
0 0 44
0 0 44
0 0 44
0 0 44
0 0 44
0 0 44
0 0 44
0 0 44
0 0 44
0 0 44
0 0 44
0 0 44
0 0 44
0 0 44
0 0 44
0 0 44
0 0 44
0 0 44
0 0 44
0 0 44
0 0 44
0 0 44
0 0 44
0 0 44
0 0 44
0 0 44
0 0 44
0 0 44
0 0 44
0 0 44
0 0 44
0 0 44
0 0 44
0 0 44
0 0 44
0 0 44
0 0 44
0 0 44
0 0 44
54 80 110
92 134 175
36 52 84
22 28 66
36 51 87
67 97 134
35 49 82
21 28 66
23 30 70
23 30 70
82 120 159
100 146 189
71 104 141
22 29 68
95 139 182
102 149 193
98 144 187
100 146 189
92 135 175
98 144 187
97 143 185
100 146 189
98 144 186
97 142 184
92 136 176
94 138 179
93 136 177
94 138 179
93 136 177
97 142 184
95 140 181
94 137 178
90 132 172
94 137 178
92 136 176
93 136 177
87 128 167
95 140 181
96 141 183
92 135 175
86 126 164
90 132 172
88 129 167
86 127 165
90 132 172
90 132 172
81 119 155
90 133 172
83 122 159
85 124 162
78 114 150
82 120 157
80 118 154
80 117 153
80 118 154
78 115 150
79 116 152
82 120 157
80 118 154
82 121 158
77 113 149
84 124 161
75 110 144
68 100 133
69 102 135
64 93 124
72 106 139
55 80 109
16 21 50
15 20 49
14 18 43
15 19 47
16 20 49
13 17 42
13 17 43
13 17 42
14 18 44
13 17 43
10 13 34
32 46 69
47 70 96
40 59 84
36 54 78
42 62 87
39 58 83
22 32 59
0 0 44
0 0 44
0 0 44
0 0 44
0 0 44
0 0 44
0 0 44
0 0 44
0 0 44
0 0 44
0 0 44
0 0 44
0 0 44
0 0 44
0 0 44
0 0 44
0 0 44
0 0 44
0 0 44
0 0 44
0 0 44
0 0 44
0 0 44
0 0 44
0 0 44
0 0 44
0 0 44
0 0 44
0 0 44
0 0 44
0 0 44
0 0 44
0 0 44
0 0 44
0 0 44
0 0 44
0 0 44
0 0 44
0 0 44
0 0 44
0 0 44
0 0 44
0 0 44
0 0 44
0 0 44
0 0 44
0 0 44
0 0 44
0 0 44
0 0 44
0 0 44
0 0 44
0 0 44
0 0 44
0 0 44
0 0 44
0 0 44
0 0 44
0 0 44
0 0 44
0 0 44
0 0 44
0 0 44
0 0 44
0 0 44
0 0 44
0 0 44
0 0 44
0 0 44
0 0 44
0 0 44
0 0 44
0 0 44
0 0 44
18 27 56
85 125 163
74 108 143
22 28 66
22 29 68
21 28 66
22 29 68
23 29 69
23 29 69
23 29 69
84 123 162
98 143 186
91 133 174
23 29 69
80 117 156
97 142 184
97 142 184
97 142 184
98 144 186
100 146 189
95 139 181
96 141 183
97 142 184
95 140 181
97 142 184
98 143 186
97 142 184
98 144 186
92 136 176
97 142 184
97 143 185
94 138 179
98 144 187
87 127 166
95 139 180
95 140 181
88 129 168
89 130 170
92 134 175
89 130 170
88 130 169
88 130 169
88 130 169
88 129 168
88 129 168
84 124 161
81 119 156
83 121 158
86 126 164
83 122 160
85 124 162
78 114 149
87 127 166
77 113 149
76 111 146
79 116 152
75 110 144
76 112 147
80 117 153
75 111 145
70 103 136
70 103 136
75 111 145
70 103 136
71 104 137
72 106 139
67 98 130
65 95 127
23 32 59
15 19 47
15 19 47
13 17 42
14 19 46
12 16 40
15 19 47
13 17 42
12 16 40
12 15 38
21 30 51
44 64 90
46 68 94
42 62 87
44 65 91
34 51 75
32 48 72
11 17 49
0 0 44
0 0 44
0 0 44
0 0 44
0 0 44
0 0 44
0 0 44
0 0 44
0 0 44
0 0 44
0 0 44
0 0 44
0 0 44
0 0 44
0 0 44
0 0 44
0 0 44
0 0 44
0 0 44
0 0 44
0 0 44
0 0 44
0 0 44
0 0 44
0 0 44
0 0 44
0 0 44
0 0 44
0 0 44
0 0 44
0 0 44
0 0 44
0 0 44
0 0 44
0 0 44
0 0 44
0 0 44
0 0 44
0 0 44
0 0 44
0 0 44
0 0 44
0 0 44
0 0 44
0 0 44
0 0 44
0 0 44
0 0 44
0 0 44
0 0 44
0 0 44
0 0 44
0 0 44
0 0 44
0 0 44
0 0 44
0 0 44
0 0 44
0 0 44
0 0 44
0 0 44
0 0 44
0 0 44
0 0 44
0 0 44
0 0 44
0 0 44
0 0 44
0 0 44
0 0 44
0 0 44
0 0 44
0 0 44
0 0 44
0 0 44
55 81 111
96 140 182
41 59 92
22 28 66
23 29 69
21 28 66
22 28 67
22 29 68
22 29 69
78 113 152
100 146 189
98 144 187
54 78 112
95 140 182
99 145 187
98 144 186
95 139 181
96 141 183
96 141 183
96 141 183
98 144 187
99 145 187
98 144 186
94 138 179
94 137 178
95 139 180
96 141 182
94 138 179
95 139 180
95 139 181
94 138 179
87 127 166
94 137 178
90 133 172
90 132 171
96 141 182
95 139 181
89 130 170
86 126 164
90 132 171
84 123 161
90 133 172
87 128 167
81 119 155
82 121 158
83 122 160
81 119 156
84 124 161
81 119 155
87 128 167
83 122 159
80 117 153
80 117 154
76 112 147
77 113 148
80 117 153
80 117 154
76 111 146
74 109 144
77 113 148
71 105 138
67 98 130
77 113 149
57 84 113
65 95 126
70 103 137
64 93 124
39 57 82
15 19 47
14 18 44
16 21 50
14 18 45
13 17 43
14 18 44
12 16 39
21 30 53
40 59 84
54 80 108
46 68 94
48 71 98
50 73 100
43 63 89
34 51 75
23 35 61
0 0 44
0 0 44
0 0 44
0 0 44
0 0 44
0 0 44
0 0 44
0 0 44
0 0 44
0 0 44
0 0 44
0 0 44
0 0 44
0 0 44
0 0 44
0 0 44
0 0 44
0 0 44
0 0 44
0 0 44
0 0 44
0 0 44
0 0 44
0 0 44
0 0 44
0 0 44
0 0 44
0 0 44
0 0 44
0 0 44
0 0 44
0 0 44
0 0 44
0 0 44
0 0 44
0 0 44
0 0 44
0 0 44
0 0 44
0 0 44
0 0 44
0 0 44
0 0 44
0 0 44
0 0 44
0 0 44
0 0 44
0 0 44
0 0 44
0 0 44
0 0 44
0 0 44
0 0 44
0 0 44
0 0 44
0 0 44
0 0 44
0 0 44
0 0 44
0 0 44
0 0 44
0 0 44
0 0 44
0 0 44
0 0 44
0 0 44
0 0 44
0 0 44
0 0 44
0 0 44
0 0 44
0 0 44
0 0 44
0 0 44
0 0 44
0 0 44
14 21 51
77 113 148
82 120 158
21 27 64
21 28 66
21 27 65
21 27 65
23 29 69
22 28 67
82 119 159
100 146 189
95 140 181
95 139 180
94 138 179
100 146 189
100 147 190
96 141 183
97 142 184
100 146 189
95 139 181
99 145 188
98 144 187
96 141 182
100 147 190
97 143 185
89 130 170
99 145 188
92 135 175
98 144 186
90 133 172
88 130 169
92 135 175
90 132 172
90 132 172
92 136 176
88 130 169
86 126 164
85 124 162
90 132 171
90 133 172
87 128 167
90 133 172
89 131 170
85 125 163
86 126 164
83 121 158
88 129 168
83 122 159
87 127 166
78 115 150
83 121 158
80 117 153
73 108 142
77 114 149
77 113 149
73 108 142
67 99 131
81 119 155
76 112 147
72 106 139
76 112 147
79 115 151
64 94 126
70 103 136
67 99 131
67 99 131
69 101 134
69 101 134
33 47 71
14 18 45
14 18 44
13 17 43
15 19 46
13 17 41
33 48 71
51 74 102
53 78 106
58 85 114
56 82 111
46 68 94
48 71 98
36 54 78
31 46 71
0 0 44
0 0 44
0 0 44
0 0 44
0 0 44
0 0 44
0 0 44
0 0 44
0 0 44
0 0 44
0 0 44
0 0 44
0 0 44
0 0 44
0 0 44
0 0 44
0 0 44
0 0 44
0 0 44
0 0 44
0 0 44
0 0 44
0 0 44
0 0 44
0 0 44
0 0 44
0 0 44
0 0 44
0 0 44
0 0 44
0 0 44
0 0 44
0 0 44
0 0 44
0 0 44
0 0 44
0 0 44
0 0 44
0 0 44
0 0 44
0 0 44
0 0 44
0 0 44
0 0 44
0 0 44
0 0 44
0 0 44
0 0 44
0 0 44
0 0 44
0 0 44
0 0 44
0 0 44
0 0 44
0 0 44
0 0 44
0 0 44
0 0 44
0 0 44
0 0 44
0 0 44
0 0 44
0 0 44
0 0 44
0 0 44
0 0 44
0 0 44
0 0 44
0 0 44
0 0 44
0 0 44
0 0 44
0 0 44
0 0 44
0 0 44
0 0 44
0 0 44
0 0 44
42 62 89
88 129 167
51 74 108
20 26 63
20 26 63
21 27 65
22 29 67
22 28 66
74 108 145
95 139 180
90 132 171
98 144 187
100 146 189
97 143 185
94 138 179
100 146 189
89 130 170
93 137 177
98 144 187
88 130 169
97 143 185
98 143 186
94 138 179
97 142 184
91 134 174
93 137 177
92 135 175
90 132 172
93 136 177
93 136 177
90 133 172
90 132 171
91 134 174
94 137 178
90 132 171
95 139 181
97 142 184
88 129 168
92 135 175
86 126 164
90 132 172
88 129 167
91 134 174
88 130 169
82 121 158
83 122 159
81 120 156
77 113 149
81 119 155
77 113 149
79 115 151
76 112 147
79 115 151
74 108 143
75 111 145
78 115 150
73 107 141
75 111 145
74 108 143
68 100 132
72 106 139
70 103 136
71 105 138
62 92 122
65 96 128
64 94 125
62 92 122
61 90 121
51 74 102
48 69 97
49 72 99
48 70 98
58 84 114
50 74 102
55 81 110
49 72 99
49 72 99
48 71 98
49 72 99
39 58 83
40 59 84
8 12 46
0 0 44
0 0 44
0 0 44
0 0 44
0 0 44
0 0 44
0 0 44
0 0 44
0 0 44
0 0 44
0 0 44
0 0 44
0 0 44
0 0 44
0 0 44
0 0 44
0 0 44
0 0 44
0 0 44
0 0 44
0 0 44
0 0 44
0 0 44
0 0 44
0 0 44
0 0 44
0 0 44
0 0 44
0 0 44
0 0 44
0 0 44
0 0 44
0 0 44
0 0 44
0 0 44
0 0 44
0 0 44
0 0 44
0 0 44
0 0 44
0 0 44
0 0 44
0 0 44
0 0 44
0 0 44
0 0 44
0 0 44
0 0 44
0 0 44
0 0 44
0 0 44
0 0 44
0 0 44
0 0 44
0 0 44
0 0 44
0 0 44
0 0 44
0 0 44
0 0 44
0 0 44
0 0 44
0 0 44
0 0 44
0 0 44
0 0 44
0 0 44
0 0 44
0 0 44
0 0 44
0 0 44
0 0 44
0 0 44
0 0 44
0 0 44
0 0 44
0 0 44
0 0 44
0 0 44
66 97 130
90 132 172
29 41 74
21 27 65
23 30 70
21 27 65
22 29 68
76 111 149
94 138 180
90 132 172
98 144 187
95 140 181
99 145 187
94 138 179
99 145 187
99 145 187
96 141 182
97 142 184
97 142 183
92 135 175
96 141 183
93 137 177
92 134 175
100 147 190
93 136 177
91 133 173
94 138 179
92 134 175
94 137 178
94 138 179
93 136 177
93 136 177
93 136 177
90 132 172
90 132 171
88 130 169
81 119 155
90 133 172
82 121 158
84 124 161
89 131 170
79 116 152
85 124 162
86 126 164
84 123 161
81 119 155
82 120 157
84 124 161
78 114 149
85 125 163
75 110 144
78 115 151
79 115 151
70 103 136
76 111 146
80 117 154
78 115 150
76 111 146
80 117 154
74 108 143
67 99 131
68 100 132
71 104 138
62 91 121
70 103 137
67 98 130
68 100 132
64 94 125
58 86 115
61 90 120
55 81 110
59 87 117
54 80 109
50 73 100
50 73 100
52 76 104
47 69 95
33 49 73
33 49 73
28 41 66
0 0 44
0 0 44
0 0 44
0 0 44
0 0 44
0 0 44
0 0 44
0 0 44
0 0 44
0 0 44
0 0 44
0 0 44
0 0 44
0 0 44
0 0 44
0 0 44
0 0 44
0 0 44
0 0 44
0 0 44
0 0 44
0 0 44
0 0 44
0 0 44
0 0 44
0 0 44
0 0 44
0 0 44
0 0 44
0 0 44
0 0 44
0 0 44
0 0 44
0 0 44
0 0 44
0 0 44
0 0 44
0 0 44
0 0 44
0 0 44
0 0 44
0 0 44
0 0 44
0 0 44
0 0 44
0 0 44
0 0 44
0 0 44
0 0 44
0 0 44
0 0 44
0 0 44
0 0 44
0 0 44
0 0 44
0 0 44
0 0 44
0 0 44
0 0 44
0 0 44
0 0 44
0 0 44
0 0 44
0 0 44
0 0 44
0 0 44
0 0 44
0 0 44
0 0 44
0 0 44
0 0 44
0 0 44
0 0 44
0 0 44
0 0 44
0 0 44
0 0 44
0 0 44
0 0 44
0 0 44
11 17 49
77 113 148
67 98 132
22 28 65
22 29 68
21 28 66
22 28 67
70 103 139
96 141 183
96 141 182
97 143 185
92 135 175
94 137 178
95 139 180
98 144 186
92 136 176
99 145 188
93 137 178
95 139 181
94 138 179
96 141 183
95 140 181
93 137 177
94 138 179
93 136 177
88 130 169
85 125 163
95 139 180
93 136 177
89 131 170
90 132 171
87 127 166
89 131 170
89 131 170
84 123 161
88 130 169
87 127 166
90 132 172
90 132 171
86 127 165
85 125 163
82 121 158
78 115 150
86 126 164
79 116 152
86 127 165
83 121 158
80 117 154
80 117 153
75 111 145
80 118 154
79 115 151
83 121 158
70 103 137
75 110 144
67 99 131
71 105 138
69 102 135
70 103 137
70 103 137
64 94 125
67 99 131
64 93 124
66 97 129
63 92 123
64 93 124
57 84 113
62 91 121
58 85 114
56 83 112
54 79 107
55 81 110
52 76 104
56 83 112
52 76 104
50 74 102
48 71 98
34 51 75
37 55 80
0 0 44
0 0 44
0 0 44
0 0 44
0 0 44
0 0 44
0 0 44
0 0 44
0 0 44
0 0 44
0 0 44
0 0 44
0 0 44
0 0 44
0 0 44
0 0 44
0 0 44
0 0 44
0 0 44
0 0 44
0 0 44
0 0 44
0 0 44
0 0 44
0 0 44
0 0 44
0 0 44
0 0 44
0 0 44
0 0 44
0 0 44
0 0 44
0 0 44
0 0 44
0 0 44
0 0 44
0 0 44
0 0 44
0 0 44
0 0 44
0 0 44
0 0 44
0 0 44
0 0 44
0 0 44
0 0 44
0 0 44
0 0 44
0 0 44
0 0 44
0 0 44
0 0 44
0 0 44
0 0 44
0 0 44
0 0 44
0 0 44
0 0 44
0 0 44
0 0 44
0 0 44
0 0 44
0 0 44
0 0 44
0 0 44
0 0 44
0 0 44
0 0 44
0 0 44
0 0 44
0 0 44
0 0 44
0 0 44
0 0 44
0 0 44
0 0 44
0 0 44
0 0 44
0 0 44
0 0 44
0 0 44
0 0 44
36 54 81
89 131 170
58 84 117
21 27 63
21 28 66
20 26 61
64 93 129
95 139 181
93 137 177
87 128 167
97 142 184
95 139 180
92 135 175
96 141 183
95 139 181
95 140 181
95 139 181
95 139 180
90 132 172
95 140 181
92 134 175
95 140 181
94 137 178
94 138 179
92 136 176
92 135 175
97 142 184
92 134 175
90 132 172
95 140 181
92 134 175
92 134 175
87 127 166
90 132 171
87 127 166
88 129 167
86 126 164
88 129 168
88 129 168
84 124 161
83 122 160
84 124 161
85 125 163
82 121 158
77 113 148
80 117 153
82 120 157
78 115 151
77 113 149
76 111 146
79 116 152
83 121 158
79 116 152
77 113 148
71 105 138
70 103 136
75 111 145
75 110 144
70 103 137
70 103 136
62 92 122
68 100 132
66 97 129
63 92 123
62 92 122
65 95 126
65 95 126
58 85 114
56 82 111
55 81 110
56 82 111
63 92 123
52 77 105
50 74 102
47 69 95
48 71 98
41 60 86
16 24 53
0 0 44
0 0 44
0 0 44
0 0 44
0 0 44
0 0 44
0 0 44
0 0 44
0 0 44
0 0 44
0 0 44
0 0 44
0 0 44
0 0 44
0 0 44
0 0 44
0 0 44
0 0 44
0 0 44
0 0 44
0 0 44
0 0 44
0 0 44
0 0 44
0 0 44
0 0 44
0 0 44
0 0 44
0 0 44
0 0 44
0 0 44
0 0 44
0 0 44
0 0 44
0 0 44
0 0 44
0 0 44
0 0 44
0 0 44
0 0 44
0 0 44
0 0 44
0 0 44
0 0 44
0 0 44
0 0 44
0 0 44
0 0 44
0 0 44
0 0 44
0 0 44
0 0 44
0 0 44
0 0 44
0 0 44
0 0 44
0 0 44
0 0 44
0 0 44
0 0 44
0 0 44
0 0 44
0 0 44
0 0 44
0 0 44
0 0 44
0 0 44
0 0 44
0 0 44
0 0 44
0 0 44
0 0 44
0 0 44
0 0 44
0 0 44
0 0 44
0 0 44
0 0 44
0 0 44
0 0 44
0 0 44
0 0 44
0 0 44
50 74 103
86 126 164
58 84 117
21 27 64
21 27 65
56 82 115
90 133 172
94 138 179
89 130 170
92 136 176
94 137 178
94 138 179
96 141 182
95 139 181
90 132 171
95 139 181
92 136 176
94 137 178
90 133 172
91 134 174
92 135 175
90 132 172
89 130 170
90 132 172
94 138 179
87 127 166
95 140 181
89 130 170
90 132 172
89 131 170
84 123 161
88 130 169
87 127 166
92 136 176
83 121 158
91 133 173
81 119 156
85 125 163
85 124 162
87 128 167
83 122 159
83 121 158
86 126 164
86 126 164
77 113 148
83 122 160
80 117 154
75 110 144
79 115 151
76 111 146
77 113 149
74 109 144
71 105 138
72 106 139
75 111 145
62 92 122
70 103 137
76 111 146
65 95 126
74 109 144
67 98 130
64 93 124
60 88 118
59 87 117
56 82 111
61 89 119
63 93 124
59 87 117
56 83 112
53 78 106
51 75 103
52 77 105
46 68 94
46 68 94
41 60 86
26 39 65
0 0 44
0 0 44
0 0 44
0 0 44
0 0 44
0 0 44
0 0 44
0 0 44
0 0 44
0 0 44
0 0 44
0 0 44
0 0 44
0 0 44
0 0 44
0 0 44
0 0 44
0 0 44
0 0 44
0 0 44
0 0 44
0 0 44
0 0 44
0 0 44
0 0 44
0 0 44
0 0 44
0 0 44
0 0 44
0 0 44
0 0 44
0 0 44
0 0 44
0 0 44
0 0 44
0 0 44
0 0 44
0 0 44
0 0 44
0 0 44
0 0 44
0 0 44
0 0 44
0 0 44
0 0 44
0 0 44
0 0 44
0 0 44
0 0 44
0 0 44
0 0 44
0 0 44
0 0 44
0 0 44
0 0 44
0 0 44
0 0 44
0 0 44
0 0 44
0 0 44
0 0 44
0 0 44
0 0 44
0 0 44
0 0 44
0 0 44
0 0 44
0 0 44
0 0 44
0 0 44
0 0 44
0 0 44
0 0 44
0 0 44
0 0 44
0 0 44
0 0 44
0 0 44
0 0 44
0 0 44
0 0 44
0 0 44
0 0 44
0 0 44
0 0 44
59 86 117
82 120 157
58 84 117
21 27 65
60 88 121
97 143 185
93 137 177
97 142 184
89 131 170
92 134 175
91 134 174
89 130 170
88 130 169
89 131 170
96 141 183
92 136 176
90 132 171
94 138 179
92 135 175
91 133 173
91 133 173
90 132 171
86 126 164
91 134 174
87 127 166
92 135 175
96 141 182
90 132 171
91 133 173
90 132 172
84 124 161
82 121 158
81 119 156
80 117 153
87 127 166
84 123 161
89 130 170
80 117 153
80 117 153
85 124 162
81 119 156
82 121 158
86 126 164
83 122 159
77 113 149
82 121 158
80 117 153
77 113 148
76 111 146
76 111 146
74 109 144
76 111 146
75 110 144
70 103 137
72 106 139
67 99 131
70 103 137
74 109 144
74 109 144
65 96 127
65 95 126
54 79 107
53 79 107
61 90 120
57 84 113
57 84 113
56 82 111
52 77 105
54 80 109
47 70 97
52 76 104
42 62 87
46 68 94
29 43 68
0 0 44
0 0 44
0 0 44
0 0 44
0 0 44
0 0 44
0 0 44
0 0 44
0 0 44
0 0 44
0 0 44
0 0 44
0 0 44
0 0 44
0 0 44
0 0 44
0 0 44
0 0 44
0 0 44
0 0 44
0 0 44
0 0 44
0 0 44
0 0 44
0 0 44
0 0 44
0 0 44
0 0 44
0 0 44
0 0 44
0 0 44
0 0 44
0 0 44
0 0 44
0 0 44
0 0 44
0 0 44
0 0 44
0 0 44
0 0 44
0 0 44
0 0 44
0 0 44
0 0 44
0 0 44
0 0 44
0 0 44
0 0 44
0 0 44
0 0 44
0 0 44
0 0 44
0 0 44
0 0 44
0 0 44
0 0 44
0 0 44
0 0 44
0 0 44
0 0 44
0 0 44
0 0 44
0 0 44
0 0 44
0 0 44
0 0 44
0 0 44
0 0 44
0 0 44
0 0 44
0 0 44
0 0 44
0 0 44
0 0 44
0 0 44
0 0 44
0 0 44
0 0 44
0 0 44
0 0 44
0 0 44
0 0 44
0 0 44
0 0 44
0 0 44
0 0 44
11 17 49
69 101 134
89 131 170
78 114 151
80 117 154
92 135 175
91 134 174
90 132 171
91 133 173
90 133 172
87 128 167
95 139 180
90 132 171
93 136 177
87 128 167
91 134 174
92 136 176
94 138 179
82 121 158
90 132 172
89 131 170
97 142 184
88 130 169
90 133 172
84 124 161
90 132 171
82 121 158
90 133 172
90 132 171
86 126 164
88 129 168
93 137 177
84 123 161
80 117 154
84 123 161
84 124 161
82 120 157
80 117 154
81 119 155
80 118 154
80 117 153
77 113 148
77 113 149
80 117 153
76 111 146
79 115 151
74 109 144
76 111 146
73 107 141
78 115 150
79 116 152
76 112 147
71 105 138
71 105 138
67 98 130
71 105 138
72 106 139
62 91 121
65 96 127
58 85 114
61 90 120
62 91 121
48 71 98
62 92 122
58 85 114
52 76 104
57 84 113
52 76 104
58 85 114
50 73 100
42 62 87
44 64 90
22 32 58
0 0 44
0 0 44
0 0 44
0 0 44
0 0 44
0 0 44
0 0 44
0 0 44
0 0 44
0 0 44
0 0 44
0 0 44
0 0 44
0 0 44
0 0 44
0 0 44
0 0 44
0 0 44
0 0 44
0 0 44
0 0 44
0 0 44
0 0 44
0 0 44
0 0 44
0 0 44
0 0 44
0 0 44
0 0 44
0 0 44
0 0 44
0 0 44
0 0 44
0 0 44
0 0 44
0 0 44
0 0 44
0 0 44
0 0 44
0 0 44
0 0 44
0 0 44
0 0 44
0 0 44
0 0 44
0 0 44
0 0 44
0 0 44
0 0 44
0 0 44
0 0 44
0 0 44
0 0 44
0 0 44
0 0 44
0 0 44
0 0 44
0 0 44
0 0 44
0 0 44
0 0 44
0 0 44
0 0 44
0 0 44
0 0 44
0 0 44
0 0 44
0 0 44
0 0 44
0 0 44
0 0 44
0 0 44
0 0 44
0 0 44
0 0 44
0 0 44
0 0 44
0 0 44
0 0 44
0 0 44
0 0 44
0 0 44
0 0 44
0 0 44
0 0 44
0 0 44
0 0 44
0 0 44
11 17 49
76 112 147
87 127 166
86 127 165
86 126 164
91 134 174
94 137 178
91 134 174
93 136 177
94 137 178
90 133 172
88 129 168
90 133 172
93 136 177
91 133 173
85 124 162
94 138 179
88 130 169
90 132 172
86 127 165
91 134 174
89 131 170
92 134 175
89 130 170
91 134 174
88 130 169
92 135 175
84 124 161
86 126 164
84 123 161
86 126 164
88 129 167
83 121 158
85 124 162
85 125 163
86 126 164
90 133 172
83 121 158
85 125 163
83 122 160
85 124 162
74 108 143
81 119 156
79 115 151
76 111 146
77 112 147
72 106 139
73 107 141
75 111 145
69 101 134
68 100 133
73 107 141
70 103 136
64 94 125
71 104 138
69 102 135
65 96 127
68 100 133
66 96 128
59 87 117
66 97 129
61 89 119
64 94 125
48 71 98
56 83 112
56 82 111
49 72 99
53 78 106
49 72 99
46 68 94
32 48 73
8 12 46
0 0 44
0 0 44
0 0 44
0 0 44
0 0 44
0 0 44
0 0 44
0 0 44
0 0 44
0 0 44
0 0 44
0 0 44
0 0 44
0 0 44
0 0 44
0 0 44
0 0 44
0 0 44
0 0 44
0 0 44
0 0 44
0 0 44
0 0 44
0 0 44
0 0 44
0 0 44
0 0 44
0 0 44
0 0 44
0 0 44
0 0 44
0 0 44
0 0 44
0 0 44
0 0 44
0 0 44
0 0 44
0 0 44
0 0 44
0 0 44
0 0 44
0 0 44
0 0 44
0 0 44
0 0 44
0 0 44
0 0 44
0 0 44
0 0 44
0 0 44
0 0 44
0 0 44
0 0 44
0 0 44
0 0 44
0 0 44
0 0 44
0 0 44
0 0 44
0 0 44
0 0 44
0 0 44
0 0 44
0 0 44
0 0 44
0 0 44
0 0 44
0 0 44
0 0 44
0 0 44
0 0 44
0 0 44
0 0 44
0 0 44
0 0 44
0 0 44
0 0 44
0 0 44
0 0 44
0 0 44
0 0 44
0 0 44
0 0 44
0 0 44
0 0 44
0 0 44
0 0 44
0 0 44
0 0 44
23 35 62
67 98 131
87 127 166
87 128 167
89 130 170
87 128 167
92 134 175
86 126 164
91 134 174
83 122 160
89 130 170
94 137 178
90 132 172
87 128 167
91 134 174
92 134 175
91 134 174
94 137 178
90 133 172
88 129 168
88 129 168
88 130 169
92 135 175
91 134 174
86 127 165
81 119 155
88 130 169
87 128 167
87 127 166
85 125 163
83 121 158
83 122 159
82 121 158
80 118 154
81 119 156
80 117 154
79 115 151
80 118 154
73 108 142
86 126 164
80 118 154
75 110 144
81 119 155
74 108 142
73 107 141
75 110 144
78 114 149
76 112 147
74 108 143
72 106 139
67 98 130
70 103 137
62 92 122
67 99 131
59 86 116
66 97 129
65 95 126
61 89 119
61 89 119
60 88 118
59 86 116
57 84 113
56 82 111
61 90 120
44 65 91
47 69 95
46 68 94
42 62 87
32 48 72
14 21 51
0 0 44
0 0 44
0 0 44
0 0 44
0 0 44
0 0 44
0 0 44
0 0 44
0 0 44
0 0 44
0 0 44
0 0 44
0 0 44
0 0 44
0 0 44
0 0 44
0 0 44
0 0 44
0 0 44
0 0 44
0 0 44
0 0 44
0 0 44
0 0 44
0 0 44
0 0 44
0 0 44
0 0 44
0 0 44
0 0 44
0 0 44
0 0 44
0 0 44
0 0 44
0 0 44
0 0 44
0 0 44
0 0 44
0 0 44
0 0 44
0 0 44
0 0 44
0 0 44
0 0 44
0 0 44
0 0 44
0 0 44
0 0 44
0 0 44
0 0 44
0 0 44
0 0 44
0 0 44
0 0 44
0 0 44
0 0 44
0 0 44
0 0 44
0 0 44
0 0 44
0 0 44
0 0 44
0 0 44
0 0 44
0 0 44
0 0 44
0 0 44
0 0 44
0 0 44
0 0 44
0 0 44
0 0 44
0 0 44
0 0 44
0 0 44
0 0 44
0 0 44
0 0 44
0 0 44
0 0 44
0 0 44
0 0 44
0 0 44
0 0 44
0 0 44
0 0 44
0 0 44
0 0 44
0 0 44
0 0 44
0 0 44
11 17 49
68 100 133
82 120 157
86 126 164
88 130 169
90 132 171
84 124 161
92 135 175
90 132 172
90 133 172
85 125 163
87 128 167
92 134 175
83 122 160
83 122 160
90 132 171
90 132 171
92 134 175
81 119 156
92 135 175
90 133 172
88 129 168
90 132 172
79 116 152
81 119 156
84 124 161
90 132 172
85 124 162
83 122 159
85 125 163
86 126 164
85 125 163
84 123 161
83 121 158
81 119 156
81 119 155
78 115 150
81 119 156
80 118 154
76 111 146
72 106 140
75 109 144
80 117 153
74 109 144
70 103 137
68 100 133
72 106 139
72 106 139
66 96 128
65 95 126
75 111 145
66 96 128
65 96 127
63 93 124
64 94 125
62 91 121
57 84 113
54 79 107
58 85 114
59 87 117
59 87 117
47 70 97
50 74 102
54 79 107
55 81 110
43 63 89
39 58 84
11 17 49
0 0 44
0 0 44
0 0 44
0 0 44
0 0 44
0 0 44
0 0 44
0 0 44
0 0 44
0 0 44
0 0 44
0 0 44
0 0 44
0 0 44
0 0 44
0 0 44
0 0 44
0 0 44
0 0 44
0 0 44
0 0 44
0 0 44
0 0 44
0 0 44
0 0 44
0 0 44
0 0 44
0 0 44
0 0 44
0 0 44
0 0 44
0 0 44
0 0 44
0 0 44
0 0 44
0 0 44
0 0 44
0 0 44
0 0 44
0 0 44
0 0 44
0 0 44
0 0 44
0 0 44
0 0 44
0 0 44
0 0 44
0 0 44
0 0 44
0 0 44
0 0 44
0 0 44
0 0 44
0 0 44
0 0 44
0 0 44
0 0 44
0 0 44
0 0 44
0 0 44
0 0 44
0 0 44
0 0 44
0 0 44
0 0 44
0 0 44
0 0 44
0 0 44
0 0 44
0 0 44
0 0 44
0 0 44
0 0 44
0 0 44
0 0 44
0 0 44
0 0 44
0 0 44
0 0 44
0 0 44
0 0 44
0 0 44
0 0 44
0 0 44
0 0 44
0 0 44
0 0 44
0 0 44
0 0 44
0 0 44
0 0 44
0 0 44
0 0 44
16 24 54
72 106 140
82 121 158
87 128 167
83 121 158
81 119 156
84 123 161
84 123 161
90 132 172
88 130 169
83 121 158
88 130 169
90 132 171
90 133 172
90 132 172
88 130 169
86 127 165
86 126 164
83 122 159
92 134 175
83 122 160
92 135 175
91 133 173
85 124 162
88 129 167
85 125 163
84 124 161
85 124 162
87 127 166
73 108 142
84 124 161
77 113 148
77 113 149
81 119 156
80 118 154
82 121 158
85 125 163
75 110 144
78 114 150
74 109 144
72 106 140
69 101 134
73 108 142
73 108 142
69 101 134
72 106 139
75 110 144
66 97 129
66 97 129
68 100 132
68 100 133
67 98 130
67 98 130
52 76 104
55 81 110
60 88 118
59 86 116
59 87 117
54 80 109
55 81 110
55 81 110
54 79 107
42 62 87
37 55 80
31 46 71
11 17 49
0 0 44
0 0 44
0 0 44
0 0 44
0 0 44
0 0 44
0 0 44
0 0 44
0 0 44
0 0 44
0 0 44
0 0 44
0 0 44
0 0 44
0 0 44
0 0 44
0 0 44
0 0 44
0 0 44
0 0 44
0 0 44
0 0 44
0 0 44
0 0 44
0 0 44
0 0 44
0 0 44
0 0 44
0 0 44
0 0 44
0 0 44
0 0 44
0 0 44
0 0 44
0 0 44
0 0 44
0 0 44
0 0 44
0 0 44
0 0 44
0 0 44
0 0 44
0 0 44
0 0 44
0 0 44
0 0 44
0 0 44
0 0 44
0 0 44
0 0 44
0 0 44
0 0 44
0 0 44
0 0 44
0 0 44
0 0 44
0 0 44
0 0 44
0 0 44
0 0 44
0 0 44
0 0 44
0 0 44
0 0 44
0 0 44
0 0 44
0 0 44
0 0 44
0 0 44
0 0 44
0 0 44
0 0 44
0 0 44
0 0 44
0 0 44
0 0 44
0 0 44
0 0 44
0 0 44
0 0 44
0 0 44
0 0 44
0 0 44
0 0 44
0 0 44
0 0 44
0 0 44
0 0 44
0 0 44
0 0 44
0 0 44
0 0 44
0 0 44
0 0 44
0 0 44
14 21 51
59 87 118
83 121 158
84 123 161
82 121 158
81 119 156
91 134 174
84 123 161
86 126 164
91 133 173
89 130 170
86 127 165
90 132 172
87 127 166
86 126 164
86 126 164
84 123 161
86 126 164
86 126 164
87 127 166
87 127 166
84 124 162
92 135 175
85 125 163
82 121 158
82 121 158
85 125 163
83 122 159
85 125 163
81 119 155
86 126 164
80 118 154
81 119 156
79 115 151
79 115 151
86 126 164
73 108 142
79 115 151
76 111 146
72 106 139
76 111 146
74 109 144
75 111 145
65 95 126
74 109 144
70 103 136
65 95 126
64 94 125
65 96 127
63 92 123
63 92 123
62 92 122
58 86 115
51 75 103
61 89 119
59 86 116
63 92 123
49 72 99
55 81 110
52 77 105
45 66 93
47 69 95
37 55 81
0 0 44
0 0 44
0 0 44
0 0 44
0 0 44
0 0 44
0 0 44
0 0 44
0 0 44
0 0 44
0 0 44
0 0 44
0 0 44
0 0 44
0 0 44
0 0 44
0 0 44
0 0 44
0 0 44
0 0 44
0 0 44
0 0 44
0 0 44
0 0 44
0 0 44
0 0 44
0 0 44
0 0 44
0 0 44
0 0 44
0 0 44
0 0 44
0 0 44
0 0 44
0 0 44
0 0 44
0 0 44
0 0 44
0 0 44
0 0 44
0 0 44
0 0 44
0 0 44
0 0 44
0 0 44
0 0 44
0 0 44
0 0 44
0 0 44
0 0 44
0 0 44
0 0 44
0 0 44
0 0 44
0 0 44
0 0 44
0 0 44
0 0 44
0 0 44
0 0 44
0 0 44
0 0 44
0 0 44
0 0 44
0 0 44
0 0 44
0 0 44
0 0 44
0 0 44
0 0 44
0 0 44
0 0 44
0 0 44
0 0 44
0 0 44
0 0 44
0 0 44
0 0 44
0 0 44
0 0 44
0 0 44
0 0 44
0 0 44
0 0 44
0 0 44
0 0 44
0 0 44
0 0 44
0 0 44
0 0 44
0 0 44
0 0 44
0 0 44
0 0 44
0 0 44
0 0 44
0 0 44
0 0 44
0 0 44
49 72 100
78 115 150
80 117 154
83 122 160
88 129 168
84 124 161
83 122 160
76 112 147
91 133 173
85 125 163
89 131 170
84 124 161
90 132 172
88 129 167
85 124 162
84 123 161
86 126 164
86 126 164
86 127 165
83 122 159
88 130 169
90 132 172
85 125 163
83 121 158
80 117 153
81 119 156
80 117 154
77 113 149
80 118 154
81 119 155
78 115 150
77 113 149
78 114 150
82 120 157
69 102 135
71 105 138
74 109 143
78 115 150
66 97 129
67 98 130
68 100 133
67 98 130
67 98 130
66 97 129
74 109 144
64 94 125
69 101 133
64 94 125
65 95 126
64 94 125
60 88 118
57 84 113
56 82 111
56 82 111
58 85 114
54 79 107
52 77 105
48 69 95
52 52 66
31 40 63
0 0 44
0 0 44
0 0 44
0 0 44
0 0 44
0 0 44
0 0 44
0 0 44
0 0 44
0 0 44
0 0 44
0 0 44
0 0 44
0 0 44
0 0 44
0 0 44
0 0 44
0 0 44
0 0 44
0 0 44
0 0 44
0 0 44
0 0 44
0 0 44
0 0 44
0 0 44
0 0 44
0 0 44
0 0 44
0 0 44
0 0 44
0 0 44
0 0 44
0 0 44
0 0 44
0 0 44
0 0 44
0 0 44
0 0 44
0 0 44
0 0 44
0 0 44
0 0 44
0 0 44
0 0 44
0 0 44
0 0 44
0 0 44
0 0 44
0 0 44
0 0 44
0 0 44
0 0 44
0 0 44
0 0 44
0 0 44
0 0 44
0 0 44
0 0 44
0 0 44
0 0 44
0 0 44
0 0 44
0 0 44
0 0 44
0 0 44
0 0 44
0 0 44
0 0 44
0 0 44
0 0 44
0 0 44
0 0 44
0 0 44
0 0 44
0 0 44
0 0 44
0 0 44
0 0 44
0 0 44
0 0 44
0 0 44
0 0 44
0 0 44
0 0 44
0 0 44
0 0 44
0 0 44
0 0 44
0 0 44
0 0 44
0 0 44
0 0 44
0 0 44
0 0 44
0 0 44
0 0 44
0 0 44
0 0 44
0 0 44
0 0 44
37 55 82
76 111 146
84 123 161
84 124 161
86 127 165
83 122 160
81 119 155
85 125 163
84 124 161
80 117 154
84 124 161
86 124 162
87 124 160
87 128 167
80 117 154
86 126 164
78 115 150
81 119 155
86 127 165
90 132 171
86 126 164
84 124 161
80 118 154
79 116 152
83 122 160
79 116 152
79 116 152
79 116 152
79 115 151
73 107 141
76 111 146
71 104 137
79 115 151
74 109 144
77 113 149
68 100 132
73 108 142
70 103 137
67 99 131
73 108 142
76 111 146
72 106 140
69 102 135
70 103 136
67 98 130
61 89 119
68 100 132
61 90 120
56 83 112
59 86 116
56 83 112
59 86 116
54 80 109
51 75 103
49 72 99
46 57 78
38 30 39
23 12 39
0 0 44
0 0 44
0 0 44
0 0 44
0 0 44
0 0 44
0 0 44
0 0 44
0 0 44
0 0 44
0 0 44
0 0 44
0 0 44
0 0 44
0 0 44
0 0 44
0 0 44
0 0 44
0 0 44
0 0 44
0 0 44
0 0 44
0 0 44
0 0 44
0 0 44
0 0 44
0 0 44
0 0 44
0 0 44
0 0 44
0 0 44
0 0 44
0 0 44
0 0 44
0 0 44
0 0 44
0 0 44
0 0 44
0 0 44
0 0 44
0 0 44
0 0 44
0 0 44
0 0 44
0 0 44
0 0 44
0 0 44
0 0 44
0 0 44
0 0 44
0 0 44
0 0 44
0 0 44
0 0 44
0 0 44
0 0 44
0 0 44
0 0 44
0 0 44
0 0 44
0 0 44
0 0 44
0 0 44
0 0 44
0 0 44
0 0 44
0 0 44
0 0 44
0 0 44
0 0 44
0 0 44
0 0 44
0 0 44
0 0 44
0 0 44
0 0 44
0 0 44
0 0 44
0 0 44
0 0 44
0 0 44
0 0 44
0 0 44
0 0 44
0 0 44
0 0 44
0 0 44
0 0 44
0 0 44
0 0 44
0 0 44
0 0 44
0 0 44
0 0 44
0 0 44
0 0 44
0 0 44
0 0 44
0 0 44
0 0 44
0 0 44
0 0 44
0 0 44
18 27 56
58 84 114
76 111 146
81 119 156
76 112 147
77 113 148
81 119 156
85 122 159
83 103 131
92 94 112
115 92 87
108 81 72
77 95 120
78 112 146
86 126 164
81 119 155
83 121 158
86 126 164
84 124 161
77 113 149
82 121 158
81 119 155
79 115 151
75 111 145
74 108 143
80 118 154
80 117 153
80 117 153
80 118 154
74 108 143
76 111 146
72 106 140
79 116 152
79 116 152
77 113 149
69 101 134
74 109 144
73 107 141
63 92 123
69 102 135
59 86 116
66 97 129
69 102 135
67 98 130
62 92 122
58 85 114
65 96 127
61 89 119
63 92 123
56 83 112
55 81 110
52 77 105
48 69 95
50 54 70
38 19 29
0 0 43
0 0 44
0 0 44
0 0 44
0 0 44
0 0 44
0 0 44
0 0 44
0 0 44
0 0 44
0 0 44
0 0 44
0 0 44
0 0 44
0 0 44
0 0 44
0 0 44
0 0 44
0 0 44
0 0 44
0 0 44
0 0 44
0 0 44
0 0 44
0 0 44
0 0 44
0 0 44
0 0 44
0 0 44
0 0 44
0 0 44
0 0 44
0 0 44
0 0 44
0 0 44
0 0 44
0 0 44
0 0 44
0 0 44
0 0 44
0 0 44
0 0 44
0 0 44
0 0 44
0 0 44
0 0 44
0 0 44
0 0 44
0 0 44
0 0 44
0 0 44
0 0 44
0 0 44
0 0 44
0 0 44
0 0 44
0 0 44
0 0 44
0 0 44
0 0 44
0 0 44
0 0 44
0 0 44
0 0 44
0 0 44
0 0 44
0 0 44
0 0 44
0 0 44
0 0 44
0 0 44
0 0 44
0 0 44
0 0 44
0 0 44
0 0 44
0 0 44
0 0 44
0 0 44
0 0 44
0 0 44
0 0 44
0 0 44
0 0 44
0 0 44
0 0 44
0 0 44
0 0 44
0 0 44
0 0 44
0 0 44
0 0 44
0 0 44
0 0 44
0 0 44
0 0 44
0 0 44
0 0 44
0 0 44
0 0 44
0 0 44
0 0 44
0 0 44
0 0 44
0 0 44
0 0 44
0 0 44
36 48 74
68 97 128
80 117 154
82 114 147
82 83 100
88 61 60
92 47 27
92 47 26
98 60 43
111 81 67
82 50 38
76 50 49
83 98 122
86 123 159
77 113 148
86 126 164
80 117 154
78 115 150
81 119 155
86 126 164
75 110 144
78 115 150
77 113 148
79 116 152
81 119 156
77 113 148
80 117 153
76 111 146
75 111 145
74 109 144
76 111 146
73 108 142
78 115 150
70 103 136
63 92 123
72 106 139
67 99 131
68 100 132
69 101 134
65 95 126
62 91 121
59 87 117
57 84 113
56 83 112
60 88 118
61 89 119
61 89 119
49 72 99
50 74 102
52 68 92
47 35 43
30 15 37
0 0 44
0 0 44
0 0 44
0 0 44
0 0 44
0 0 44
0 0 44
0 0 44
0 0 44
0 0 44
0 0 44
0 0 44
0 0 44
0 0 44
0 0 44
0 0 44
0 0 44
0 0 44
0 0 44
0 0 44
0 0 44
0 0 44
0 0 44
0 0 44
0 0 44
0 0 44
0 0 44
0 0 44
0 0 44
0 0 44
0 0 44
0 0 44
0 0 44
0 0 44
0 0 44
0 0 44
0 0 44
0 0 44
0 0 44
0 0 44
0 0 44
0 0 44
0 0 44
0 0 44
0 0 44
0 0 44
0 0 44
0 0 44
0 0 44
0 0 44
0 0 44
0 0 44
0 0 44
0 0 44
0 0 44
0 0 44
0 0 44
0 0 44
0 0 44
0 0 44
0 0 44
0 0 44
0 0 44
0 0 44
0 0 44
0 0 44
0 0 44
0 0 44
0 0 44
0 0 44
0 0 44
0 0 44
0 0 44
0 0 44
0 0 44
0 0 44
0 0 44
0 0 44
0 0 44
0 0 44
0 0 44
0 0 44
0 0 44
0 0 44
0 0 44
0 0 44
0 0 44
0 0 44
0 0 44
0 0 44
0 0 44
0 0 44
0 0 44
0 0 44
0 0 44
0 0 44
0 0 44
0 0 44
0 0 44
0 0 44
0 0 44
0 0 44
0 0 44
0 0 44
0 0 44
0 0 44
0 0 44
0 0 44
0 0 44
14 21 51
48 54 76
77 42 29
84 43 23
88 45 25
88 45 25
82 42 23
87 45 24
105 68 53
106 76 63
71 38 25
76 39 23
87 51 42
85 85 104
84 115 149
75 110 144
77 113 148
84 123 161
77 113 148
83 122 159
83 122 159
83 122 159
76 111 146
74 108 143
79 115 150
76 84 104
78 97 123
74 109 144
71 105 138
72 106 140
71 105 138
68 100 133
70 103 136
68 100 132
72 106 140
68 100 132
70 103 137
67 98 130
66 96 128
63 92 123
57 84 113
55 81 110
56 83 112
51 70 96
62 91 121
58 86 115
55 78 104
39 40 55
36 21 36
15 8 43
0 0 44
0 0 44
0 0 44
0 0 44
0 0 44
0 0 44
0 0 44
0 0 44
0 0 44
0 0 44
0 0 44
0 0 44
0 0 44
0 0 44
0 0 44
0 0 44
0 0 44
0 0 44
0 0 44
0 0 44
0 0 44
0 0 44
0 0 44
0 0 44
0 0 44
0 0 44
0 0 44
0 0 44
0 0 44
0 0 44
0 0 44
0 0 44
0 0 44
0 0 44
0 0 44
0 0 44
0 0 44
0 0 44
0 0 44
0 0 44
0 0 44
0 0 44
0 0 44
0 0 44
0 0 44
0 0 44
0 0 44
0 0 44
0 0 44
0 0 44
0 0 44
0 0 44
0 0 44
0 0 44
0 0 44
0 0 44
0 0 44
0 0 44
0 0 44
0 0 44
0 0 44
0 0 44
0 0 44
0 0 44
0 0 44
0 0 44
0 0 44
0 0 44
0 0 44
0 0 44
0 0 44
0 0 44
0 0 44
0 0 44
0 0 44
0 0 44
0 0 44
0 0 44
0 0 44
0 0 44
0 0 44
0 0 44
0 0 44
0 0 44
0 0 44
0 0 44
0 0 44
0 0 44
0 0 44
0 0 44
0 0 44
0 0 44
0 0 44
0 0 44
0 0 44
0 0 44
0 0 44
0 0 44
0 0 44
0 0 44
0 0 44
0 0 44
0 0 44
0 0 44
0 0 44
0 0 44
0 0 44
0 0 44
0 0 44
0 0 44
0 0 44
0 0 44
22 11 43
58 29 33
75 38 22
75 39 21
79 41 22
80 41 22
86 44 24
103 71 58
97 68 56
70 36 22
85 43 24
85 44 24
83 46 33
82 76 90
72 93 121
83 122 159
75 110 144
76 112 147
76 112 147
76 112 147
75 111 145
61 84 112
75 64 73
81 42 23
83 47 35
77 83 103
65 95 126
69 102 135
71 105 138
66 96 128
71 104 138
67 98 130
65 96 127
69 102 135
67 98 130
67 98 130
61 89 119
61 89 119
66 87 114
62 65 81
53 48 57
55 72 97
46 68 94
49 60 80
37 22 36
15 8 42
0 0 44
0 0 44
0 0 44
0 0 44
0 0 44
0 0 44
0 0 44
0 0 44
0 0 44
0 0 44
0 0 44
0 0 44
0 0 44
0 0 44
0 0 44
0 0 44
0 0 44
0 0 44
0 0 44
0 0 44
0 0 44
0 0 44
0 0 44
0 0 44
0 0 44
0 0 44
0 0 44
0 0 44
0 0 44
0 0 44
0 0 44
0 0 44
0 0 44
0 0 44
0 0 44
0 0 44
0 0 44
0 0 44
0 0 44
0 0 44
0 0 44
0 0 44
0 0 44
0 0 44
0 0 44
0 0 44
0 0 44
0 0 44
0 0 44
0 0 44
0 0 44
0 0 44
0 0 44
0 0 44
0 0 44
0 0 44
0 0 44
0 0 44
0 0 44
0 0 44
0 0 44
0 0 44
0 0 44
0 0 44
0 0 44
0 0 44
0 0 44
0 0 44
0 0 44
0 0 44
0 0 44
0 0 44
0 0 44
0 0 44
0 0 44
0 0 44
0 0 44
0 0 44
0 0 44
0 0 44
0 0 44
0 0 44
0 0 44
0 0 44
0 0 44
0 0 44
0 0 44
0 0 44
0 0 44
0 0 44
0 0 44
0 0 44
0 0 44
0 0 44
0 0 44
0 0 44
0 0 44
0 0 44
0 0 44
0 0 44
0 0 44
0 0 44
0 0 44
0 0 44
0 0 44
0 0 44
0 0 44
0 0 44
0 0 44
0 0 44
0 0 44
0 0 44
0 0 44
0 0 44
0 0 44
0 0 44
27 14 42
60 31 33
79 40 25
81 41 23
81 41 23
83 44 26
98 68 55
85 56 44
68 34 21
77 39 22
83 42 23
83 43 23
84 43 24
79 61 67
79 93 118
73 104 136
73 108 142
75 110 144
80 99 126
80 57 58
83 42 23
73 37 21
78 40 22
75 39 21
71 58 66
66 93 123
68 100 133
70 103 137
69 101 134
61 89 119
69 102 135
65 96 127
59 85 114
67 87 113
59 67 87
63 48 52
61 31 18
62 32 18
54 58 76
50 67 90
36 21 36
15 8 42
0 0 44
0 0 44
0 0 44
0 0 44
0 0 44
0 0 44
0 0 44
0 0 44
0 0 44
0 0 44
0 0 44
0 0 44
0 0 44
0 0 44
0 0 44
0 0 44
0 0 44
0 0 44
0 0 44
0 0 44
0 0 44
0 0 44
0 0 44
0 0 44
0 0 44
0 0 44
0 0 44
0 0 44
0 0 44
0 0 44
0 0 44
0 0 44
0 0 44
0 0 44
0 0 44
0 0 44
0 0 44
0 0 44
0 0 44
0 0 44
0 0 44
0 0 44
0 0 44
0 0 44
0 0 44
0 0 44
0 0 44
0 0 44
0 0 44
0 0 44
0 0 44
0 0 44
0 0 44
0 0 44
0 0 44
0 0 44
0 0 44
0 0 44
0 0 44
0 0 44
0 0 44
0 0 44
0 0 44
0 0 44
0 0 44
0 0 44
0 0 44
0 0 44
0 0 44
0 0 44
0 0 44
0 0 44
0 0 44
0 0 44
0 0 44
0 0 44
0 0 44
0 0 44
0 0 44
0 0 44
0 0 44
0 0 44
0 0 44
0 0 44
0 0 44
0 0 44
0 0 44
0 0 44
0 0 44
0 0 44
0 0 44
0 0 44
0 0 44
0 0 44
0 0 44
0 0 44
0 0 44
0 0 44
0 0 44
0 0 44
0 0 44
0 0 44
0 0 44
0 0 44
0 0 44
0 0 44
0 0 44
0 0 44
0 0 44
0 0 44
0 0 44
0 0 44
0 0 44
0 0 44
0 0 44
0 0 44
0 0 44
0 0 44
0 0 44
0 0 44
9 4 43
48 25 37
70 36 29
83 42 23
72 40 25
95 67 54
87 59 48
68 35 21
82 42 23
77 39 22
85 43 24
80 41 23
75 39 21
81 49 41
70 69 84
76 78 95
83 44 28
76 39 22
76 39 21
81 41 23
74 38 21
74 38 21
74 38 21
74 54 56
73 93 120
66 97 129
64 94 125
74 99 128
61 68 87
74 73 86
73 53 47
57 30 19
61 31 18
55 28 16
63 32 18
52 42 52
32 20 42
0 0 43
0 0 44
0 0 44
0 0 44
0 0 44
0 0 44
0 0 44
0 0 44
0 0 44
0 0 44
0 0 44
0 0 44
0 0 44
0 0 44
0 0 44
0 0 44
0 0 44
0 0 44
0 0 44
0 0 44
0 0 44
0 0 44
0 0 44
0 0 44
0 0 44
0 0 44
0 0 44
0 0 44
0 0 44
0 0 44
0 0 44
0 0 44
0 0 44
0 0 44
0 0 44
0 0 44
0 0 44
0 0 44
0 0 44
0 0 44
0 0 44
0 0 44
0 0 44
0 0 44
0 0 44
0 0 44
0 0 44
0 0 44
0 0 44
0 0 44
0 0 44
0 0 44
0 0 44
0 0 44
0 0 44
0 0 44
0 0 44
0 0 44
0 0 44
0 0 44
0 0 44
0 0 44
0 0 44
0 0 44
0 0 44
0 0 44
0 0 44
0 0 44
0 0 44
0 0 44
0 0 44
0 0 44
0 0 44
0 0 44
0 0 44
0 0 44
0 0 44
0 0 44
0 0 44
0 0 44
0 0 44
0 0 44
0 0 44
0 0 44
0 0 44
0 0 44
0 0 44
0 0 44
0 0 44
0 0 44
0 0 44
0 0 44
0 0 44
0 0 44
0 0 44
0 0 44
0 0 44
0 0 44
0 0 44
0 0 44
0 0 44
0 0 44
0 0 44
0 0 44
0 0 44
0 0 44
0 0 44
0 0 44
0 0 44
0 0 44
0 0 44
0 0 44
0 0 44
0 0 44
0 0 44
0 0 44
0 0 44
0 0 44
0 0 44
0 0 44
0 0 44
0 0 44
0 0 44
0 0 44
0 0 44
0 0 44
31 16 41
53 27 36
68 35 28
88 57 44
88 60 48
69 37 24
74 38 21
71 36 20
75 38 21
73 37 21
78 40 22
76 39 21
75 39 21
73 37 21
76 39 22
71 37 20
66 34 19
71 36 20
69 35 20
71 36 20
69 35 20
62 32 20
68 52 58
64 43 42
69 35 20
79 53 42
68 47 39
57 29 18
63 32 19
56 29 25
37 19 33
20 10 41
0 0 44
0 0 44
0 0 44
0 0 44
0 0 44
0 0 44
0 0 44
0 0 44
0 0 44
0 0 44
0 0 44
0 0 44
0 0 44
0 0 44
0 0 44
0 0 44
0 0 44
0 0 44
0 0 44
0 0 44
0 0 44
0 0 44
0 0 44
0 0 44
0 0 44
0 0 44
0 0 44
0 0 44
0 0 44
0 0 44
0 0 44
0 0 44
0 0 44
0 0 44
0 0 44
0 0 44
0 0 44
0 0 44
0 0 44
0 0 44
0 0 44
0 0 44
0 0 44
0 0 44
0 0 44
0 0 44
0 0 44
0 0 44
0 0 44
0 0 44
0 0 44
0 0 44
0 0 44
0 0 44
0 0 44
0 0 44
0 0 44
0 0 44
0 0 44
0 0 44
0 0 44
0 0 44
0 0 44
0 0 44
0 0 44
0 0 44
0 0 44
0 0 44
0 0 44
0 0 44
0 0 44
0 0 44
0 0 44
0 0 44
0 0 44
0 0 44
0 0 44
0 0 44
0 0 44
0 0 44
0 0 44
0 0 44
0 0 44
0 0 44
0 0 44
0 0 44
0 0 44
0 0 44
0 0 44
0 0 44
0 0 44
0 0 44
0 0 44
0 0 44
0 0 44
0 0 44
0 0 44
0 0 44
0 0 44
0 0 44
0 0 44
0 0 44
0 0 44
0 0 44
0 0 44
0 0 44
0 0 44
0 0 44
0 0 44
0 0 44
0 0 44
0 0 44
0 0 44
0 0 44
0 0 44
0 0 44
0 0 44
0 0 44
0 0 44
0 0 44
0 0 44
0 0 44
0 0 44
0 0 44
0 0 44
0 0 44
0 0 44
0 0 44
0 0 44
0 0 44
0 0 44
20 10 42
45 25 41
62 42 44
70 43 37
70 37 24
69 35 19
69 35 20
74 38 21
73 37 21
77 39 22
75 39 21
74 38 21
71 37 20
70 36 20
71 36 20
66 34 19
72 37 20
67 34 19
71 37 20
66 34 19
62 33 21
64 42 34
54 36 36
40 20 31
33 17 37
15 8 42
0 0 44
0 0 44
0 0 44
0 0 44
0 0 44
0 0 44
0 0 44
0 0 44
0 0 44
0 0 44
0 0 44
0 0 44
0 0 44
0 0 44
0 0 44
0 0 44
0 0 44
0 0 44
0 0 44
0 0 44
0 0 44
0 0 44
0 0 44
0 0 44
0 0 44
0 0 44
0 0 44
0 0 44
0 0 44
0 0 44
0 0 44
0 0 44
0 0 44
0 0 44
0 0 44
0 0 44
0 0 44
0 0 44
0 0 44
0 0 44
0 0 44
0 0 44
0 0 44
0 0 44
0 0 44
0 0 44
0 0 44
0 0 44
0 0 44
0 0 44
0 0 44
0 0 44
0 0 44
0 0 44
0 0 44
0 0 44
0 0 44
0 0 44
0 0 44
0 0 44
0 0 44
0 0 44
0 0 44
0 0 44
0 0 44
0 0 44
0 0 44
